/* XPM */
static char *document_save[] = {
/* columns rows colors chars-per-pixel */
"48 48 103 2",
"   c #FFFFFF",
".  c #AAAAA8A8ACAC",
"X  c #A7A7A5A5A9A9",
"o  c #A928A479A44E",
"O  c #A6A6A1A1A1A1",
"+  c #A3A39E9E9D9D",
"@  c #959591919494",
"#  c #8E8E89898B8B",
"$  c #8B8B86868888",
"%  c #898984848686",
"&  c #3131A3A3FFFF",
"*  c #0A0A8686FFFF",
"=  c #07075757A6A6",
"-  c #DFDFB5B57878",
";  c #CBFEA4F56CC9",
":  c #CDA2A1766590",
">  c #CA3B9E486346",
",  c #C63A9A6B608F",
"<  c #C4C499665F2C",
"1  c #C20C966B5D3D",
"2  c #B1B190906A6A",
"3  c #BF6994145BB1",
"4  c #B9388D8D55D6",
"5  c #B57588C851D1",
"6  c #B433878750D0",
"7  c #A53685AB598C",
"8  c #AE8D88235708",
"9  c #AC63869E553A",
"0  c #B8B888884E4E",
"q  c #B2C483024A25",
"w  c #AF2F81814A4A",
"e  c #AB907C7C4560",
"r  c #A6E678F842C2",
"t  c #A3A3757540A3",
"y  c #959575755555",
"u  c #A221738D3E8B",
"i  c #9ED770E23D04",
"p  c #9B496D533A0C",
"a  c #93126BAB3D7D",
"s  c #969F68FA369D",
"d  c #92E56565342C",
"f  c #888867673D3D",
"g  c #8DDC60B9307D",
"h  c #88885F5F3232",
"j  c #82E95CC331FF",
"k  c #808058582D2D",
"l  c #5ADB54546161",
"z  c #52D24BCC59D9",
"x  c #4F4F48485656",
"c  c #4BCC45455252",
"v  c #4A4A48484D4D",
"b  c #484842424E4E",
"n  c #456042244961",
"m  c #43C43E3E4A4A",
"M  c #41BA3E0245CD",
"N  c #3E213A8141B3",
"B  c #3C3C37374141",
"V  c #7B3B595931F2",
"C  c #79B957173030",
"Z  c #75D556163030",
"A  c #7E59587D2E65",
"S  c #7DFD56562B81",
"D  c #741E52352BBA",
"F  c #6E1851A72ED9",
"G  c #73F34ECF2727",
"H  c #69694E4E2D2D",
"J  c #636349492A2A",
"K  c #6DC34B4B2626",
"L  c #616142422121",
"P  c #585842422727",
"I  c #46523A582A12",
"U  c #59033C921E74",
"Y  c #57573C3C1F1F",
"T  c #515137371C1C",
"R  c #4BA1338919C4",
"E  c #46C730B01818",
"W  c #41EC2E841919",
"Q  c #41C12CED1697",
"!  c #3B3B38383E3E",
"~  c #393935CC3C78",
"^  c #35ED32A039B9",
"/  c #336932683485",
"(  c #34342F2F3838",
")  c #319C2E5934CA",
"_  c #2E4E2BDC31A1",
"`  c #3D3D32322828",
"'  c #3D5231BD20A8",
"]  c #3A3A2F2F2525",
"[  c #2B8A29D92D2D",
"{  c #295426A72C01",
"}  c #267C245D2946",
"|  c #23E123932446",
" . c #21211F1F2323",
".. c #1D2D1D15202C",
"X. c #3EE92C821818",
"o. c #3D292A6515EE",
"O. c #1BB01B5F1C01",
"+. c #1914180E1722",
"@. c #11AD11AB130C",
"#. c #0F0F0F0F1010",
"$. c #0A280A280B2E",
"%. c #070707070808",
"&. c #007D007D007D",
/* pixels */
"&.&.&.&.&.&.&.&.&.&.&.&.&.&.&.&.&.&.&.&.&.&.&.&.&.&.&.&.&.&.&.&.&.&.&.&.&.&.&.&.&.&.&.&.&.&.&.&.",
"&.&.&.&.&.&.&.&.&.&.&.&.&.&.&.&.&.&.&.&.&.&.&.&.&.&.&.&.&.&.&.&.&.&.&.&.&.&.&.&.&.&.&.&.&.&.&.&.",
"&.&.&.&.&.&.&.&.&.&.&.&.&.&.&.&.&.&.&.&.&.&.&.&.&.&.&.&.&.&.&.&.&.&.&.&.&.&.&.&.&.&.&.&.&.&.&.&.",
"&.&.&.&.&.' ; - - - & & & & & & & & & & & & & & & & & & & & & & & & & & & & & - - - ; ' &.&.&.&.",
"&.&.&.&.&.; J W W P = = = = = = = = = = = = = = = = = = = = = = = = = = = = = V H F f ; &.&.&.&.",
"&.&.&.&.&.- W u u 5 * * * * * * * * * * * * * * * * * * * * * * * * * * * * * 1 0 0 F - &.&.&.&.",
"&.&.&.&.&.- W   j 3 ..@.@.@.@.@.@.@.@.@.@.@.@.@.@.@.@.@.@.@.@.@.@.@.@.@.@.@...<   a F - &.&.&.&.",
"&.&.&.&.&.- Q j j , ..@.@.@.@.@.@.@.@.@.@.@.@.@.@.@.@.@.@.@.@.@.@.@.@.@.@.@...: a a D - &.&.&.&.",
"&.&.&.&.&.- X.i u , ..@.@.@.@.@.@.@.@.@.@.@.@.@.@.@.@.@.@.@.@.@.@.@.@.@.@.@...: q q D - &.&.&.&.",
"&.&.&.&.&.- X.i i , ..#.#.#.#.#.#.#.#.#.#.#.#.#.#.#.#.#.#.#.#.#.#.#.#.#.#.#...: q q D - &.&.&.&.",
"&.&.&.&.&.- X.p p , ..$.o n n n n n n n n n n n n n n n n n n n n n n n o $...: q q D - &.&.&.&.",
"&.&.&.&.&.- X.p p , ..$.$.$.$.$.$.$.$.$.$.$.$.$.$.$.$.$.$.$.$.$.$.$.$.$.$.$...: q q Z - &.&.&.&.",
"&.&.&.&.&.- o.p p < ..$.$.$.$.$.$.$.$.$.$.$.$.$.$.$.$.$.$.$.$.$.$.$.$.$.$.$...: w q Z - &.&.&.&.",
"&.&.&.&.&.- o.p p < ..%.%.%.%.%.%.%.%.%.%.%.%.%.%.%.%.%.%.%.%.%.%.%.%.%.%.%...> e e Z - &.&.&.&.",
"&.&.&.&.&.- o.s p < ..%.%.%.%.%.%.%.%.%.%.%.%.%.%.%.%.%.%.%.%.%.%.%.%.%.%.%...> e e Z - &.&.&.&.",
"&.&.&.&.&.- o.s s < ..%.o n n n n n n n n n n n n n n n n n n n n n n n o %...> e e Z - &.&.&.&.",
"&.&.&.&.&.- o.s s 1 ..%.%.%.%.%.%.%.%.%.%.%.%.%.%.%.%.%.%.%.%.%.%.%.%.%.%.%...> e e Z - &.&.&.&.",
"&.&.&.&.&.- o.s s 1 ..&.&.&.&.&.&.&.&.&.&.&.&.&.&.&.&.&.&.&.&.&.&.&.&.&.&.&...> e e Z - &.&.&.&.",
"&.&.&.&.&.- o.d d 1 ..&.&.&.&.&.&.&.&.&.&.&.&.&.&.&.&.&.&.&.&.&.&.&.&.&.&.&...> r r Z - &.&.&.&.",
"&.&.&.&.&.- o.d d 1 ..&.&.&.&.&.&.&.&.&.&.&.&.&.&.&.&.&.&.&.&.&.&.&.&.&.&.&...> r r C - &.&.&.&.",
"&.&.&.&.&.- o.d d 1 ..&.o n n n n n n n n n n n n n n n n n n n n n n n o &...> r r C - &.&.&.&.",
"&.&.&.&.&.- o.d d 1 ..&.&.&.&.&.&.&.&.&.&.&.&.&.&.&.&.&.&.&.&.&.&.&.&.&.&.&...> t r C - &.&.&.&.",
"&.&.&.&.&.- o.g g 1 ..&.&.&.&.&.&.&.&.&.&.&.&.&.&.&.&.&.&.&.&.&.&.&.&.&.&.&..., t t C - &.&.&.&.",
"&.&.&.&.&.- o.g g 3 ..&.&.&.&.&.&.&.&.&.&.&.&.&.&.&.&.&.&.&.&.&.&.&.&.&.&.&..., u u V - &.&.&.&.",
"&.&.&.&.&.- Q g g 4 ] ......................................................` 1 u u V - &.&.&.&.",
"&.&.&.&.&.- Q g g p 4 3 3 3 3 1 1 1 1 1 1 1 1 1 1 1 1 < < < < < < < , , , , 1 e u u A - &.&.&.&.",
"&.&.&.&.&.- Q g g g g g g g g g d d d d d d d d s s s s s s s p p p p p p p p i i i A - &.&.&.&.",
"&.&.&.&.&.- Q g g g g g g g g g g g d d d d d d d d s s s s s s p p p p p p p p p i V - &.&.&.&.",
"&.&.&.&.&.- W g g g g g y O . . . . . . . . . . . . . . . . . O 2 5 5 5 6 6 w u p p A - &.&.&.&.",
"&.&.&.&.&.- E g g g g g O l M B ^ ( _ { | ..O.O...| } { _ ) ^ v + s d d d d p e p p A - &.&.&.&.",
"&.&.&.&.&.- E g g g g g X m l z @ . . . . $ } [ _ ^ ~ N M n M ) . s s s s s g e p p A - &.&.&.&.",
"&.&.&.&.&.- E g g g g g X M z c . q q q q . { _ / ^ B M n n N _ . s s s s s h r p p A - &.&.&.&.",
"&.&.&.&.&.- R g g g g g X N x b . e e e e . [ ) ^ ! N n n M ! _ . d d s s s j t s s A - &.&.&.&.",
"&.&.&.&.&.- R g g g g g X ~ c m . t t t t . _ ^ ~ N M n M N ~ [ . d d d d s A t s s A - &.&.&.&.",
"&.&.&.&.&.- R g g g g g X ^ b N . p p p p . / ^ B M n n N ~ / { . d d d d d S t s s A - &.&.&.&.",
"&.&.&.&.&.- R g g g g g X ( M ~ . s s s s . ^ ! N n n M ! ^ ) } . d d d d d D t d s A - &.&.&.&.",
"&.&.&.&.&.- R g g g g g X ) B ^ . g g g g . ~ N M n M N ~ ) [ } . g g d d d D i d d A - &.&.&.&.",
"&.&.&.&.&.- T S g g g g X _ ~ ) . g g g g . B M n n N ~ / _ { [ . g g g g d K i d d A - &.&.&.&.",
"&.&.&.&.&.7 9 Y S g g g X { ( _ % . . . . # N n n M ! ^ ) [ [ _ . g g g g g K p d d k - &.&.&.&.",
"&.&.%.%.$.@.7 8 U S g g X } _ } } [ _ ^ ~ N M n M N ~ ) [ { _ / . g g g g g K p d d A - %.%.&.&.",
"&.%.%.$.$.@.+.7 8 Y U U X | ..+.O. .} { _ / ~ ~ ^ / _ [ } [ ) ~ . G G D D D L h S S a ; $.%.%.&.",
"&.%.%.$.$.@.@.O.7 - - - . . . . . . . . . . . . . . . . . . . . . - - - - - - - - - ; I $.%.%.&.",
"&.&.%.%.$.$.@.@.+.+.O.O.| | } { [ [ / / / / / / / / / / / / [ [ { } | | O.O.+.+.@.@.$.$.%.%.&.&.",
"&.&.&.&.&.%.$.$.$.@.@.@.+.+.O.O.O.| | | | | } } } } | | | | | O.O.O.+.+.@.@.@.$.$.$.%.&.&.&.&.&.",
"&.&.&.&.&.&.&.&.&.%.%.$.$.$.$.@.@.@.@.@.@.+.+.+.+.+.+.@.@.@.@.@.@.$.$.$.$.%.%.&.&.&.&.&.&.&.&.&.",
"&.&.&.&.&.&.&.&.&.&.&.&.&.&.&.&.&.&.%.%.%.%.%.%.%.%.%.%.%.%.&.&.&.&.&.&.&.&.&.&.&.&.&.&.&.&.&.&.",
"&.&.&.&.&.&.&.&.&.&.&.&.&.&.&.&.&.&.&.&.&.&.&.&.&.&.&.&.&.&.&.&.&.&.&.&.&.&.&.&.&.&.&.&.&.&.&.&.",
"&.&.&.&.&.&.&.&.&.&.&.&.&.&.&.&.&.&.&.&.&.&.&.&.&.&.&.&.&.&.&.&.&.&.&.&.&.&.&.&.&.&.&.&.&.&.&.&."
};
