/* XPM */
static char *document_revert[] = {
/* columns rows colors chars-per-pixel */
"48 48 134 2",
"   c #3B385F12FEFE",
".  c #36C558F8F2F6",
"X  c #3518570EF378",
"o  c #38385858EEEE",
"O  c #34775555EC30",
"+  c #3F005CFFE7FE",
"@  c #340A5415E513",
"#  c #30304D4DE1E1",
"$  c #2F2F4F4FE7E7",
"%  c #31B150D0DA59",
"&  c #31B14F4FD555",
"*  c #29294444DBDB",
"=  c #2EA24BAED150",
"-  c #26264141D2D2",
";  c #32324E4ECFCF",
":  c #2D2D4949C8C8",
">  c #2D2D4848C5C5",
",  c #2A4C456CC443",
"<  c #12092B1AFF94",
"1  c #1111295CF527",
"2  c #1EE137C7E615",
"3  c #1DE236C8E813",
"4  c #10DE2828EBEB",
"5  c #10102666E362",
"6  c #22223B3BD9D9",
"7  c #224F3BCCD5B4",
"8  c #21213B3BCECE",
"9  c #23233B3BC4C4",
"0  c #1F7F3916D2A0",
"q  c #14142B2BDCDC",
"w  c #101025A6DBDB",
"e  c #13942A2AD4D4",
"r  c #0F0F24A5D8D8",
"t  c #0F0F23A3D292",
"y  c #14142A2AC5C5",
"u  c #0E8F2222CC4B",
"i  c #0DCE2060C5C5",
"p  c #0D0D1F1FC0C0",
"a  c #2F2F4949BFBF",
"s  c #2B2B4646BABA",
"d  c #27274141B7B7",
"f  c #2AAB41C1A9A9",
"g  c #25253E3EB6B6",
"h  c #23DA3A22A2A2",
"j  c #1D9E3535BBBB",
"k  c #1A1A2E2EB2B2",
"l  c #12122727B7B7",
"z  c #0E0E2121BABA",
"x  c #18182C2CABAB",
"c  c #10102424AFAF",
"v  c #15152929A5A5",
"b  c #0CE81ED6BB03",
"n  c #0C311DD5B345",
"m  c #0C4C1C9DAB6B",
"M  c #0C0C1C1CA4A4",
"N  c #252539399898",
"B  c #242438389191",
"V  c #228337409514",
"C  c #272737378181",
"Z  c #131324A49C1B",
"A  c #1C1C30308D8D",
"S  c #171729298D8D",
"D  c #111121218484",
"F  c #0ACB19999C5C",
"G  c #0ACB19599211",
"H  c #090917179494",
"J  c #090916978A4A",
"K  c #08DE156B8302",
"L  c #707770777077",
"P  c #6B486E3C7EF7",
"I  c #6B666C607048",
"U  c #6E066E066E06",
"Y  c #632363236323",
"T  c #5B9C5B9C5B9C",
"R  c #54B854B854B8",
"E  c #4C374C374C37",
"W  c #421542154215",
"Q  c #1AC92C377AD0",
"!  c #1B1B2A2A7171",
"~  c #111120207474",
"^  c #1B1B28286363",
"/  c #16E426266666",
"(  c #080815157D7D",
")  c #070714147A7A",
"_  c #084814147636",
"`  c #0707122F7373",
"'  c #11111F1F6767",
"]  c #080812126B6B",
"[  c #0606104D6CC2",
"{  c #07071111641B",
"}  c #055B0F0F6868",
"|  c #05050F0F6666",
" . c #20202A2A5858",
".. c #150223225C5C",
"X. c #183C221F4B42",
"o. c #151520204E4E",
"O. c #1E1E25254444",
"+. c #0D0D18185656",
"@. c #05050D635AB0",
"#. c #045A0CB753FE",
"$. c #13BE1BCC4298",
"%. c #0B0B13134E4E",
"&. c #04840B8C44C4",
"*. c #3BB73BB73BB7",
"=. c #34D834D834D8",
"-. c #2F2F2F2F3131",
";. c #2C1B2C1B2C1B",
":. c #217721772177",
">. c #1C1C21A139B9",
",. c #1F1F21212929",
"<. c #14141B1B3E3E",
"1. c #1090171734B4",
"2. c #0D10141033DC",
"3. c #030308883BBC",
"4. c #020207073C3C",
"5. c #1B1B1E1E2B2B",
"6. c #1B1B1C9D22A2",
"7. c #101014142626",
"8. c #0B0B11112B2B",
"9. c #0E0E12122525",
"0. c #020207072F2F",
"q. c #07FE0D172323",
"w. c #018105862363",
"e. c #1BEF1BF01BF4",
"r. c #146214621462",
"t. c #0A0A0D0D1919",
"y. c #060A0A081A1A",
"u. c #004002E31B9C",
"i. c #0A600C0C12BD",
"p. c #060609091212",
"a. c #000002021717",
"s. c #0AFA0AFA0B00",
"d. c #050506B10C62",
"f. c #00ED00ED00ED",
/* pixels */
"f.f.f.f.f.f.f.f.f.f.f.f.f.f.f.f.f.f.f.f.f.f.f.f.f.f.f.f.f.f.f.f.f.f.f.f.f.f.f.f.f.f.f.f.f.f.f.f.",
"f.f.f.f.f.f.f.f.f.f.f.f.f.f.f.f.f.f.f.f.f.f.f.f.f.f.f.f.f.f.f.f.f.f.f.f.f.f.f.f.f.f.f.f.f.f.f.f.",
"f.f.f.f.f.f.f.f.f.f.f.f.f.f.f.f.f.f.f.f.f.f.f.f.f.f.f.f.f.f.f.f.f.f.f.f.f.f.f.f.f.f.f.f.f.f.f.f.",
"f.f.f.f.f.f.e.R T T T R R T T T T T T T T T T T T T T Y Y Y Y U T :.f.f.f.f.f.f.f.f.f.f.f.f.f.f.",
"f.f.f.f.f.f.E s.f.f.f.f.f.f.f.f.f.f.f.f.f.f.f.f.f.f.f.d.d.d.d.E R Y E s.f.f.f.f.f.f.f.f.f.f.f.f.",
"f.f.f.f.f.f.R s.e.:.:.:.:.:.e.e.e.e.e.e.e.e.e.e.e.e.e.e.e.e.e.*.*.=.R T r.f.f.f.f.f.f.f.f.f.f.f.",
"f.f.f.f.f.f.R s.e.:.:.:.:.e.e.e.e.e.e.e.e.e.e.e.e.e.e.e.e.e.e.=.*.:.=.E T s.f.f.f.f.f.f.f.f.f.f.",
"f.f.f.f.f.f.R s.e.:.:.e.e.e.e.e.e.e.e.e.e.e.e.e.e.e.e.e.e.e.e.;.E r.;.=.W Y s.f.f.f.f.f.f.f.f.f.",
"f.f.f.f.f.f.R s.r.:.e.:.:.:.:.:.:.e.e.e.e.e.e.e.e.e.e.e.e.e.e.;.W d.;.=.=.E T f.f.f.f.f.f.f.f.f.",
"f.f.f.f.f.f.R s.r.e.e.*.W W W W W W W W W W W W W W W =.e.e.e.;.W d.;.;.=.=.R W f.f.f.f.f.f.f.f.",
"f.f.f.f.f.f.R s.r.e.e.e.:.:.e.e.e.e.e.e.e.e.e.e.e.e.e.e.r.r.r.=.=.d.:.:.;.=.=.Y :.f.f.f.f.f.f.f.",
"f.f.f.f.f.f.R s.r.e.e.*.W W W W W W W W W W W W W W W =.r.r.r.W :.f.f.d.r.=.*.W Y d.f.f.f.f.f.f.",
"f.f.f.f.f.f.R s.r.e.e.:.:.:.:.:.e.e.e.e.e.e.e.r.$.r.e.e.r.r.r.Y Y T Y Y Y Y U U L R f.f.f.f.f.f.",
"f.f.f.f.f.f.R s.r.e.e.*.*.*.*.*.*.*.*.*.*.*.:. .  e.*.=.r.r.r.r.;.=.W E R T R E E L f.f.f.f.f.f.",
"f.f.f.f.f.f.R s.r.e.e.e.e.e.e.e.e.e.r.r.r.s.^ %   s.r.r.r.r.r.r.:.;.;.:.e.r.r.r.d.U d.f.f.f.f.f.",
"f.f.f.f.f.f.R s.r.e.e.*.W W W W W W W W :.C : w.  e.W =.r.r.r.r.r.r.r.r.r.r.r.r.d.U d.f.f.f.f.f.",
"f.f.f.f.f.f.R s.r.e.e.e.e.e.e.e.e.e.r.s.B d w.a.  s.r.r.r.r.r.r.r.r.r.r.r.r.r.r.d.U d.f.f.f.f.f.",
"f.f.f.f.f.f.R s.r.e.e.*.W W W W W *.6.f h u.&.u.  e.*.=.r.r.r.r.r.r.r.r.r.r.r.r.d.U d.f.f.f.f.f.",
"f.f.f.f.f.f.R s.r.e.e.e.e.e.e.e.r.i.s A u.#.} u.  s.s.s.s.s.s.s.s.d.d.s.s.s.r.r.d.U d.f.f.f.f.f.",
"f.f.f.f.f.f.R s.r.e.e.*.W W W =.5.; Q u.@.[ [ u.                      . = N o.s.f.U d.f.f.f.f.f.",
"f.f.f.f.f.f.R s.r.e.e.e.e.e.r.7.% ' u.@.[ [ [ 3.u.u.u.u.u.a.a.a.a.a.u.w.&.~ , O ! I d.f.f.f.f.f.",
"f.f.f.f.f.f.R s.r.e.e.*.W ;.>.@ +.w.| [ [ [ [ [ [ | | | } [ [ [ [ [ [ [ } @.4.#.g + 2.f.f.f.f.f.",
"f.f.f.f.f.f.R s.r.e.e.e.r.<.@ %.0.[ ` ` ` ` ` ` ` ` ` ` ` ` ` ` ` ` _ K J H F K #.D O $.f.f.f.f.",
"f.f.f.f.f.f.R s.r.e.e.*.,.  S 3.n i i i i i i i p p b n m M F G K K J H F m n b i G G O 2.f.f.f.",
"f.f.f.f.f.f.T s.r.e.r.e.r.$.. Z J 1 < < < < < < < < < < < < < < < 1 4 5 r t t t 5 4 b l @ d.f.f.",
"f.f.f.f.f.f.T s.r.e.r.*.W ;.O.. Z J 1 < < < < < < < < < < < < < < < < < < < < < 1 1 < n 0 V f.f.",
"f.f.f.f.f.f.T s.r.r.r.e.e.e.r.1.o v K 1 < < < n { { { { ] [ ` ` _ ) ( K F n w < < < < 1 m O y.f.",
"f.f.f.f.f.f.T s.r.r.r.*.*.*.*.;.>.o x ( 1 < < {                         # 8 c M 5 < < < i 7 Q f.",
"f.f.f.f.f.f.T s.r.r.r.r.e.r.r.r.r.9.@ k ) 4 < {   d.d.d.d.d.d.d.d.d.d.i.1.Q O * M w < < 5 y = f.",
"f.f.f.f.f.f.T s.r.r.r.=.*.*.*.*.*.=.5.@ j _ 4 {   r.*.*.*.*.*.*.*.*.*.*.=.s.d.B $ m 1 < 1 z . f.",
"f.f.f.f.f.f.T s.r.r.r.r.r.r.r.r.r.r.r.t.& j _ ]   d.r.s.s.s.s.s.s.s.s.s.s.s.s.d.h 6 u < < b   f.",
"f.f.f.f.f.f.T s.r.r.r.=.*.*.*.*.*.*.*.=.6.& 9 ]   r.*.*.*.*.*.=.=.=.=.*.=.s.s.s.8.o b < 1 i   f.",
"f.f.f.f.f.f.T s.r.r.r.r.r.r.r.r.r.r.r.r.r.i.> -   d.s.s.s.s.s.s.s.s.s.s.s.s.s.s.p.  n < 4 e @ f.",
"f.f.f.f.f.f.T s.r.r.r.=.*.*.*.*.*.*.*.*.*.=.e.a   r.*.*.=.=.=.=.=.=.=.=.=.s.s.s.p.  b < r 2 h f.",
"f.f.f.f.f.f.T s.r.r.r.r.r.r.r.r.r.r.r.r.r.r.r.d.f s.s.s.s.s.s.s.s.s.s.s.s.s.s.s.p.  b 1 u O 2.f.",
"f.f.f.f.f.f.T s.r.r.r.=.*.*.*.*.*.*.*.*.*.*.*.=.-.=.*.=.=.=.=.=.=.=.=.=.=.s.s.s.p.  i t 3 , f.f.",
"f.f.f.f.f.f.T s.r.r.r.r.r.r.r.r.r.r.r.r.r.r.r.s.s.s.s.s.s.s.d.d.d.d.d.d.s.s.s.s.p.  i q X q.f.f.",
"f.f.f.f.f.f.Y s.r.r.r.=.*.*.*.*.*.*.*.*.*.*.*.;.s.s.s.s.s.s.d.d.d.d.d.d.s.s.s.s.p.  e X ..f.f.f.",
"f.f.f.f.f.f.Y s.r.r.r.r.r.r.r.r.r.r.r.s.s.s.s.s.s.s.s.s.s.s.d.d.d.d.d.s.s.s.s.s.p.  X / f.f.f.f.",
"f.f.f.f.f.f.Y s.r.r.r.r.r.r.r.r.r.r.r.r.s.s.s.s.s.s.s.s.s.s.s.d.d.d.d.s.s.s.s.s.p.  X.f.f.f.f.f.",
"f.f.f.f.f.r.Y s.r.r.r.r.r.r.r.r.r.r.r.r.s.s.s.s.s.s.s.s.s.s.s.s.s.s.s.s.s.s.s.s.d.P r.f.f.f.f.f.",
"f.f.f.f.d.e.Y s.r.r.r.r.r.r.r.r.r.r.r.r.s.s.s.s.s.s.s.s.s.s.s.s.s.s.s.s.s.s.s.s.d.U :.s.f.f.f.f.",
"f.f.f.f.s.e.Y s.r.r.r.r.r.r.r.r.r.r.r.s.s.s.s.s.s.s.s.s.s.s.s.s.s.s.s.s.s.s.s.s.d.U :.s.f.f.f.f.",
"f.f.f.f.f.r.Y e.s.s.s.s.s.s.s.s.s.s.s.s.s.s.s.s.s.s.s.s.s.s.s.s.s.s.s.s.s.s.s.s.s.U e.d.f.f.f.f.",
"f.f.f.f.f.s.=.U L L L L L L L L L L L L L L L L U U U U U U U U U U U U U U U U U W s.f.f.f.f.f.",
"f.f.f.f.f.f.s.r.e.e.e.e.e.e.e.e.e.e.e.e.e.e.e.e.e.e.e.e.e.e.e.e.e.e.e.e.e.e.e.e.r.s.f.f.f.f.f.f.",
"f.f.f.f.f.f.f.f.d.d.d.d.d.d.d.d.d.d.d.d.d.d.d.d.d.d.d.d.d.d.d.d.d.d.d.d.d.d.d.d.f.f.f.f.f.f.f.f.",
"f.f.f.f.f.f.f.f.f.f.f.f.f.f.f.f.f.f.f.f.f.f.f.f.f.f.f.f.f.f.f.f.f.f.f.f.f.f.f.f.f.f.f.f.f.f.f.f."
};
