/* XPM */
static char *hand[] = {
/* columns rows colors chars-per-pixel */
"64 64 170 2",
"   c #FFFFFF",
".  c #FEFEFE",
"X  c #FDFDFD",
"o  c #FCFCFC",
"O  c #FBFBFB",
"+  c #FAFAFA",
"@  c #F9F9F9",
"#  c #F8F8F8",
"$  c #F7F7F7",
"%  c #F5F5F5",
"&  c #F4F4F4",
"*  c #F3F3F3",
"=  c #F2F2F2",
"-  c #F1F1F1",
";  c #F0F0F0",
":  c #EFEFEF",
">  c #EDEDED",
",  c #ECECEC",
"<  c #EBEBEB",
"1  c #EAEAEA",
"2  c #E9E9E9",
"3  c #E7E7E7",
"4  c #E6E6E6",
"5  c #E5E5E5",
"6  c #E4E4E4",
"7  c #E3E3E3",
"8  c #E2E2E2",
"9  c #E1E1E1",
"0  c #E0E0E0",
"q  c #DFDFDF",
"w  c #DEDEDE",
"e  c #DDDDDD",
"r  c #DBDBDB",
"t  c #DADADA",
"y  c #D9D9D9",
"u  c #D8D8D8",
"i  c #D7D7D7",
"p  c #D6D6D6",
"a  c #D5D5D5",
"s  c #D4D4D4",
"d  c #D3D3D3",
"f  c #D2D2D2",
"g  c #D1D1D1",
"h  c #CFCFCF",
"j  c #CCCCCC",
"k  c #CBCBCB",
"l  c #CACACA",
"z  c #C9C9C9",
"x  c #C8C8C8",
"c  c #C7C7C7",
"v  c #C6C6C6",
"b  c #C5C5C5",
"n  c #C4C4C4",
"m  c #C3C3C3",
"M  c #C2C2C2",
"N  c #C1C1C1",
"B  c #C0C0C0",
"V  c #BFBFBF",
"C  c #BEBEBE",
"Z  c #BDBDBD",
"A  c #BBBBBB",
"S  c #BABABA",
"D  c #B9B9B9",
"F  c #B8B8B8",
"G  c #B7B7B7",
"H  c #B5B5B5",
"J  c #B4B4B4",
"K  c #B3B3B3",
"L  c #B3B3B3",
"P  c #B1B1B1",
"I  c #AFAFAF",
"U  c #AEAEAE",
"Y  c #ADADAD",
"T  c #ABABAB",
"R  c #A9A9A9",
"E  c #A8A8A8",
"W  c #A7A7A7",
"Q  c #A6A6A6",
"!  c #A5A5A5",
"~  c #A4A4A4",
"^  c #A3A3A3",
"/  c #9E9E9E",
"(  c #9D9D9D",
")  c #9C9C9C",
"_  c #9B9B9B",
"`  c #999999",
"'  c #989898",
"]  c #979797",
"[  c #969696",
"{  c #959595",
"}  c #949494",
"|  c #939393",
" . c #929292",
".. c #919191",
"X. c #8F8F8F",
"o. c #8E8E8E",
"O. c #8D8D8D",
"+. c #8B8B8B",
"@. c #898989",
"#. c #888888",
"$. c #878787",
"%. c #868686",
"&. c #858585",
"*. c #838383",
"=. c #818181",
"-. c #808080",
";. c #7D7D7D",
":. c #7C7C7C",
">. c #7B7B7B",
",. c #7A7A7A",
"<. c #797979",
"1. c #767676",
"2. c #757575",
"3. c #747474",
"4. c #727272",
"5. c #717171",
"6. c #707070",
"7. c #6F6F6F",
"8. c #6E6E6E",
"9. c #6D6D6D",
"0. c #6C6C6C",
"q. c #6B6B6B",
"w. c #696969",
"e. c #676767",
"r. c #656565",
"t. c #646464",
"y. c #626262",
"u. c #616161",
"i. c #606060",
"p. c #5F5F5F",
"a. c #5E5E5E",
"s. c #5D5D5D",
"d. c #5C5C5C",
"f. c #5B5B5B",
"g. c #5A5A5A",
"h. c #595959",
"j. c #585858",
"k. c #555555",
"l. c #545454",
"z. c #535353",
"x. c #515151",
"c. c #505050",
"v. c #4F4F4F",
"b. c #4E4E4E",
"n. c #4D4D4D",
"m. c #4D4D4D",
"M. c #4B4B4B",
"N. c #4A4A4A",
"B. c #494949",
"V. c #474747",
"C. c #464646",
"Z. c #454545",
"A. c #444444",
"S. c #434343",
"D. c #424242",
"F. c #414141",
"G. c #404040",
"H. c #3F3F3F",
"J. c #3D3D3D",
"K. c #3C3C3C",
"L. c #3B3B3B",
"P. c #3A3A3A",
"I. c #393939",
"U. c #383838",
"Y. c #373737",
"T. c #363636",
"R. c #353535",
"E. c #343434",
"W. c #333333",
"Q. c None",
/* pixels */
"Q.Q.Q.Q.Q.Q.Q.Q.Q.Q.Q.Q.Q.Q.Q.Q.Q.Q.Q.Q.Q.Q.Q.Q.Q.Q.Q.W.W.W.W.W.W.W.W.W.W.Q.Q.Q.Q.Q.Q.Q.Q.Q.Q.Q.Q.Q.Q.Q.Q.Q.Q.Q.Q.Q.Q.Q.Q.Q.Q.Q.",
"Q.Q.Q.Q.Q.Q.Q.Q.Q.Q.Q.Q.Q.Q.Q.Q.Q.Q.Q.Q.Q.Q.Q.W.W.W.W.W.W.W.W.W.W.W.W.W.W.W.W.W.W.Q.Q.Q.Q.Q.Q.Q.Q.Q.Q.Q.Q.Q.Q.Q.Q.Q.Q.Q.Q.Q.Q.Q.",
"Q.Q.Q.Q.Q.Q.Q.Q.Q.Q.Q.Q.Q.Q.Q.Q.Q.Q.Q.Q.W.W.W.W.W.W.W.W.W.W.W.W.W.W.W.W.W.W.W.W.W.W.W.W.Q.Q.Q.Q.Q.Q.Q.Q.Q.Q.Q.Q.Q.Q.Q.Q.Q.Q.Q.Q.",
"Q.Q.Q.Q.Q.Q.Q.Q.Q.Q.Q.Q.Q.Q.Q.Q.Q.Q.W.W.W.W.W.W.W.W.W.W.W.W.W.W.W.W.W.W.W.W.W.W.W.W.W.W.W.W.Q.Q.Q.Q.Q.Q.Q.Q.Q.Q.Q.Q.Q.Q.Q.Q.Q.Q.",
"Q.Q.Q.Q.Q.Q.Q.Q.Q.Q.Q.Q.Q.Q.Q.Q.W.W.W.W.W.W.W.W.W.W.W.W.W.W.W.W.W.W.W.W.W.W.W.W.W.W.W.W.W.W.W.W.Q.Q.Q.Q.Q.Q.Q.Q.Q.Q.Q.Q.Q.Q.Q.Q.",
"Q.Q.Q.Q.Q.Q.Q.Q.Q.Q.Q.Q.Q.Q.W.W.W.W.W.W.W.W.W.W.W.W.W.W.W.W.W.W.W.W.W.W.W.W.W.W.W.W.W.W.W.W.W.W.W.W.Q.Q.Q.Q.Q.Q.Q.Q.Q.Q.Q.Q.Q.Q.",
"Q.Q.Q.Q.Q.Q.Q.Q.Q.Q.Q.Q.Q.W.W.W.W.W.W.W.W.W.W.W.W.W.W.W.W.W.W.W.W.W.W.W.W.W.W.W.W.W.W.W.W.W.W.W.W.W.W.Q.Q.Q.Q.Q.Q.Q.Q.Q.Q.Q.Q.Q.",
"Q.Q.Q.Q.Q.Q.Q.Q.Q.Q.Q.Q.W.W.W.W.W.W.W.W.W.W.W.W.W.W.W.W.4.x > d ! J.W.W.W.W.W.W.W.W.W.W.W.W.W.W.W.W.W.W.Q.Q.Q.Q.Q.Q.Q.Q.Q.Q.Q.Q.",
"Q.Q.Q.Q.Q.Q.Q.Q.Q.Q.W.W.W.W.W.W.W.W.W.W.W.W.W.W.W.W.W.2.  . q $   w n.W.W.W.W.W.W.W.W.W.W.W.W.W.W.W.W.W.W.W.Q.Q.Q.Q.Q.Q.Q.Q.Q.Q.",
"Q.Q.Q.Q.Q.Q.Q.Q.Q.W.W.W.W.W.W.W.W.W.W.W.W.W.W.W.W.W.I.: % j.W.R._   b W.W.W.W.W.g.5.b.W.W.W.W.W.W.W.W.W.W.W.W.Q.Q.Q.Q.Q.Q.Q.Q.Q.",
"Q.Q.Q.Q.Q.Q.Q.Q.W.W.W.W.W.W.W.W.W.5.L b o.P.W.W.W.W.h.  W W.W.W.W.v   t.W.W.C.x     . M A.W.W.W.W.W.W.W.W.W.W.W.Q.Q.Q.Q.Q.Q.Q.Q.",
"Q.Q.Q.Q.Q.Q.Q.Q.W.W.W.W.W.W.W.W.`         7 D.W.W.W.1.  #.W.W.W.W.y.  ! W.W.k   N o.j   V W.W.W.W.W.W.W.W.W.W.W.Q.Q.Q.Q.Q.Q.Q.Q.",
"Q.Q.Q.Q.Q.Q.Q.W.W.W.W.W.W.W.W.,.  8 f.D.R   m E.W.W. .  0.W.W.W.W.R.- e W.q.  B W.W.W.N   w.W.W.W.W.W.W.W.W.W.W.W.Q.Q.Q.Q.Q.Q.Q.",
"Q.Q.Q.Q.Q.Q.W.W.W.W.W.W.W.W.W.S   c.W.W.E.m   X.W.W.I   v.W.W.W.W.W.n   L.i X l.W.W.W.q.  } W.W.W.W.W.W.W.W.W.W.W.W.Q.Q.Q.Q.Q.Q.",
"Q.Q.Q.Q.Q.W.W.W.W.W.W.W.W.W.W.< 4 W.W.W.W.D.2 O s.W.m   Y.W.W.W.W.W.U   =.  P W.W.W.W.n.  P W.W.W.W.W.W.W.W.W.W.W.W.W.Q.Q.Q.Q.Q.",
"Q.Q.Q.Q.Q.W.W.W.W.W.W.W.W.W.W.8 6 W.W.W.W.W.t.X k W.C   P.W.W.W.W.W._   m   5.W.W.W.W.R.+ h W.W.W.R.N.B.W.W.W.W.W.W.W.Q.Q.Q.Q.Q.",
"Q.Q.Q.Q.W.W.W.W.W.W.W.W.W.W.W.z o R.W.W.W.W.W.N   l.G   D.W.W.W.W.W.$.  @   A.W.W.W.W.W.q , W.W.6.5     m n.W.W.W.W.W.W.Q.Q.Q.Q.",
"Q.Q.Q.Q.W.W.W.W.W.W.W.W.W.W.W.T   f.W.W.W.W.W.0.  E I   B.W.W.W.W.W.3.    6 W.W.W.W.W.W.l o W.d.o $ H x   d W.W.W.W.W.W.Q.Q.Q.Q.",
"Q.Q.Q.W.W.W.W.W.W.W.W.W.W.W.W.6.  ( W.W.W.W.W.E.8 & P   x.W.W.W.W.W.i.    F W.W.W.W.W.W.i > I.w . e.W.W.H   q.W.W.W.W.W.W.Q.Q.Q.",
"Q.Q.Q.W.W.W.W.W.W.W.W.W.W.W.W.I.% w W.W.W.W.W.W.X.  :   h.W.W.W.W.W.n.     .W.W.W.W.W.W.3 e )   ~ W.W.W.4.  O.W.W.W.W.W.W.Q.Q.Q.",
"Q.Q.W.W.W.W.W.W.W.W.W.W.W.W.W.W.F   p.W.W.W.W.W.F.@     u.W.W.W.W.W.I.    :.W.W.W.W.W.W.$ h < 1 I.W.W.W.9.  ..W.W.W.W.W.W.W.Q.Q.",
"Q.Q.W.W.W.W.W.W.W.W.W.W.W.W.W.W.u.  D W.W.W.W.W.W.L     w.W.W.W.W.W.W.=   r.W.W.W.W.W.P.  -   ^ W.W.W.W.w.  | W.W.W.W.W.W.W.Q.Q.",
"Q.Q.W.W.W.W.W.W.W.W.W.W.W.W.W.W.W.a o B.W.W.W.W.W.a.    5.W.W.W.W.W.W.w   v.W.W.W.W.W.B.      g.W.W.W.W.t.  { W.W.W.W.W.W.W.Q.Q.",
"Q.W.W.W.W.W.W.W.W.W.W.W.W.W.W.W.W.>.  / W.W.W.W.W.W.p   <.W.W.W.W.W.W.c X I.W.W.W.W.W.h.    q W.W.W.W.W.r.  ] W.W.W.W.W.W.W.W.Q.",
"Q.W.W.W.W.W.W.W.W.W.W.Y.k.n.E.W.W.Y.1 ; P.W.W.W.W.W.;.  8.W.W.W.W.W.W.k.7.W.W.W.W.W.W.w.    [ W.W.W.W.W.+.  1.W.W.W.W.W.W.W.W.Q.",
"Q.W.W.W.W.W.W.W.W.W.;.2     r 1.E.W.{   &.W.W.W.W.W.W.z.R.W.W.W.W.W.W.W.W.W.W.W.W.W.W.<.    b.W.W.W.W.W.F   B.W.W.W.W.W.W.W.W.Q.",
"Q.W.W.W.W.W.W.W.W.y.X * T D O   r r.S.@ t W.W.W.W.W.W.W.W.W.W.W.W.W.W.W.W.W.W.W.W.W.W.@.  g W.W.W.W.W.W.5 2 W.W.W.W.W.W.W.W.W.Q.",
"W.W.W.W.W.W.W.W.W.A   s.W.W.M.T @ O ;.H   a.W.W.W.W.W.W.W.W.W.W.W.W.W.W.W.W.W.W.W.W.W.`   @.W.W.W.W.W.Z.  Z W.W.W.W.W.W.W.W.W.W.",
"W.W.W.W.W.W.W.W.W.y % W.W.W.W.W.s.>   v   I W.W.W.W.W.W.W.W.W.W.W.W.W.W.W.W.W.W.W.W.W.u.V G.W.W.W.W.W.5.  X.W.W.W.W.W.W.W.W.W.W.",
"W.W.W.W.W.W.W.W.W.A   m.W.W.W.W.W.b.9     % J.W.W.W.W.W.W.W.W.W.W.W.W.W.W.W.W.W.W.W.W.W.W.W.W.W.W.W.W.R   y.W.W.W.W.W.W.W.W.W.W.",
"W.W.W.W.W.W.W.W.W.&.  *.W.W.W.W.W.W.D.p     *.W.W.W.W.W.W.W.W.W.W.W.W.W.W.W.W.W.W.W.W.W.W.W.W.W.W.W.R.> > R.W.W.W.W.W.W.W.W.W.W.",
"W.W.W.W.W.W.W.W.W.c.  B W.W.W.W.W.W.W.Z.5   s W.W.W.W.W.W.W.W.W.W.W.W.W.W.W.W.W.W.W.W.W.W.W.W.W.W.W.w.  W W.W.W.W.W.W.W.W.W.W.W.",
"W.W.W.W.W.W.W.W.W.W.s . u.W.W.W.W.W.W.W.z.-   c.W.W.W.W.W.W.W.W.W.W.W.W.W.W.W.W.W.W.W.W.W.W.W.W.W.W.P   a.W.W.W.W.W.W.W.W.W.W.W.",
"W.W.W.W.W.W.W.W.W.W.p.. u R.W.W.W.W.W.W.W.u.F F.W.W.W.W.W.W.W.W.W.W.W.W.W.W.W.W.W.W.W.W.W.W.W.W.W.U.= 8 W.W.W.W.W.W.W.W.W.W.W.W.",
"W.W.W.W.W.W.W.W.W.W.W.L   $.W.W.W.W.W.W.W.W.W.W.W.W.W.W.W.W.W.W.W.W.W.W.W.W.W.W.W.W.W.W.W.W.W.W.W.1.  _ W.W.W.W.W.W.W.W.W.W.W.W.",
"W.W.W.W.W.W.W.W.W.W.W.Z.- # s.W.W.W.W.W.W.W.W.W.W.W.W.W.W.W.W.W.W.W.W.W.W.W.W.W.W.W.W.W.W.W.W.W.W.k . b.W.W.W.W.W.W.W.W.W.W.W.W.",
"W.W.W.W.W.W.W.W.W.W.W.W.e.O , N.W.W.W.W.W.W.W.W.W.W.W.W.W.W.W.W.W.W.W.W.W.W.W.W.W.W.W.W.W.W.W.W.k.  b W.W.W.W.W.W.W.W.W.W.W.W.W.",
"Q.W.W.W.W.W.W.W.W.W.W.W.W.*.  t F.W.W.W.W.W.W.W.W.W.W.W.W.W.W.W.W.W.W.W.W.W.W.W.W.W.W.W.W.W.W.W.R   7.W.W.W.W.W.W.W.W.W.W.W.W.Q.",
"Q.W.W.W.W.W.W.W.W.W.W.W.W.W.^   p G.W.W.W.W.W.W.W.W.W.W.W.W.W.W.W.W.W.W.W.W.W.W.W.W.W.W.W.W.W.J.% 5 R.W.W.W.W.W.W.W.W.W.W.W.W.Q.",
"Q.W.W.W.W.W.W.W.W.W.W.W.W.W.E.T   a H.W.W.W.W.W.W.W.W.W.W.W.W.W.W.W.W.W.W.W.W.W.W.W.W.W.W.W.W.$.  ..W.W.W.W.W.W.W.W.W.W.W.W.W.Q.",
"Q.W.W.W.W.W.W.W.W.W.W.W.W.W.W.E.T   s J.W.W.W.W.W.W.W.W.W.W.W.W.W.W.W.W.W.W.W.W.W.W.W.W.W.W.W.e @ S.W.W.W.W.W.W.W.W.W.W.W.W.W.Q.",
"Q.Q.W.W.W.W.W.W.W.W.W.W.W.W.W.W.E.T   H W.W.W.W.W.W.W.W.W.W.W.W.W.W.W.W.W.W.W.W.W.W.W.W.W.W.r.  J W.W.W.W.W.W.W.W.W.W.W.W.W.Q.Q.",
"Q.Q.W.W.W.W.W.W.W.W.W.W.W.W.W.W.W.E.l   :.W.W.W.W.W.W.W.W.W.W.W.W.W.W.W.W.W.W.W.W.W.W.W.W.W.S   p.W.W.W.W.W.W.W.W.W.W.W.W.W.Q.Q.",
"Q.Q.W.W.W.W.W.W.W.W.W.W.W.W.W.W.W.W.B.- & b.W.W.W.W.W.W.W.W.W.W.W.W.W.W.W.W.W.W.W.W.W.W.W.G.+ a W.W.W.W.W.W.W.W.W.W.W.W.W.W.Q.Q.",
"Q.Q.Q.W.W.W.W.W.W.W.W.W.W.W.W.W.W.W.W.2.  f T.W.W.W.W.W.W.W.W.W.W.W.W.W.W.W.W.W.W.W.W.W.W.-.  +.W.W.W.W.W.W.W.W.W.W.W.W.W.Q.Q.Q.",
"Q.Q.Q.W.W.W.W.W.W.W.W.W.W.W.W.W.W.W.W.W.P   } W.W.W.W.W.W.W.W.W.W.W.W.W.W.W.W.W.W.W.W.W.W.v X V.W.W.W.W.W.W.W.W.W.W.W.W.W.Q.Q.Q.",
"Q.Q.Q.Q.W.W.W.W.W.W.W.W.W.W.W.W.W.W.W.W.J.& 3 E.W.W.W.W.W.W.W.W.W.W.W.W.W.W.W.W.W.W.W.W.S.o j W.W.W.W.W.W.W.W.W.W.W.W.W.Q.Q.Q.Q.",
"Q.Q.Q.Q.W.W.W.W.W.W.W.W.W.W.W.W.W.W.W.W.W.U   e.W.W.W.W.W.W.W.W.W.W.W.W.W.W.W.W.W.W.W.W.&.  %.W.W.W.W.W.W.W.W.W.W.W.W.W.Q.Q.Q.Q.",
"Q.Q.Q.Q.Q.W.W.W.W.W.W.W.W.W.W.W.W.W.W.W.W.u.  K W.W.W.W.W.W.W.W.W.W.W.W.W.W.W.W.W.W.W.W.k X A.W.W.W.W.W.W.W.W.W.W.W.W.Q.Q.Q.Q.Q.",
"Q.Q.Q.Q.Q.W.W.W.W.W.W.W.W.W.W.W.W.W.W.W.W.W.0 % K.W.W.W.W.W.W.W.W.W.W.W.W.W.W.W.W.W.W.J.X z W.W.W.W.W.W.W.W.W.W.W.W.W.Q.Q.Q.Q.Q.",
"Q.Q.Q.Q.Q.Q.W.W.W.W.W.W.W.W.W.W.W.W.W.W.W.W.|   ,.W.W.W.W.W.W.W.W.W.W.W.W.W.W.W.W.W.W.w.  ' W.W.W.W.W.W.W.W.W.W.W.W.Q.Q.Q.Q.Q.Q.",
"Q.Q.Q.Q.Q.Q.Q.W.W.W.W.W.W.W.W.W.W.W.W.W.W.W.k.  Y W.W.W.W.W.W.W.W.W.W.W.W.W.W.W.W.W.W.{   q.W.W.W.W.W.W.W.W.W.W.W.Q.Q.Q.Q.Q.Q.Q.",
"Q.Q.Q.Q.Q.Q.Q.Q.W.W.W.W.W.W.W.W.W.W.W.W.W.W.E.- 1 Q Q Q Q Q Q Q Q Q Q Q Q Q Q Q Q Q Q q . G.W.W.W.W.W.W.W.W.W.W.Q.Q.Q.Q.Q.Q.Q.Q.",
"Q.Q.Q.Q.Q.Q.Q.Q.W.W.W.W.W.W.W.W.W.W.W.W.W.W.W.E                                         N W.W.W.W.W.W.W.W.W.W.W.Q.Q.Q.Q.Q.Q.Q.Q.",
"Q.Q.Q.Q.Q.Q.Q.Q.Q.W.W.W.W.W.W.W.W.W.W.W.W.W.W.W.x.z.z.z.z.z.z.z.z.z.z.z.z.z.z.z.z.z.z.z.R.W.W.W.W.W.W.W.W.W.W.Q.Q.Q.Q.Q.Q.Q.Q.Q.",
"Q.Q.Q.Q.Q.Q.Q.Q.Q.Q.W.W.W.W.W.W.W.W.W.W.W.W.W.W.W.W.W.W.W.W.W.W.W.W.W.W.W.W.W.W.W.W.W.W.W.W.W.W.W.W.W.W.W.W.Q.Q.Q.Q.Q.Q.Q.Q.Q.Q.",
"Q.Q.Q.Q.Q.Q.Q.Q.Q.Q.Q.Q.W.W.W.W.W.W.W.W.W.W.W.W.W.W.W.W.W.W.W.W.W.W.W.W.W.W.W.W.W.W.W.W.W.W.W.W.W.W.W.W.Q.Q.Q.Q.Q.Q.Q.Q.Q.Q.Q.Q.",
"Q.Q.Q.Q.Q.Q.Q.Q.Q.Q.Q.Q.Q.W.W.W.W.W.W.W.W.W.W.W.W.W.W.W.W.W.W.W.W.W.W.W.W.W.W.W.W.W.W.W.W.W.W.W.W.W.W.Q.Q.Q.Q.Q.Q.Q.Q.Q.Q.Q.Q.Q.",
"Q.Q.Q.Q.Q.Q.Q.Q.Q.Q.Q.Q.Q.Q.W.W.W.W.W.W.W.W.W.W.W.W.W.W.W.W.W.W.W.W.W.W.W.W.W.W.W.W.W.W.W.W.W.W.W.W.Q.Q.Q.Q.Q.Q.Q.Q.Q.Q.Q.Q.Q.Q.",
"Q.Q.Q.Q.Q.Q.Q.Q.Q.Q.Q.Q.Q.Q.Q.Q.W.W.W.W.W.W.W.W.W.W.W.W.W.W.W.W.W.W.W.W.W.W.W.W.W.W.W.W.W.W.W.W.Q.Q.Q.Q.Q.Q.Q.Q.Q.Q.Q.Q.Q.Q.Q.Q.",
"Q.Q.Q.Q.Q.Q.Q.Q.Q.Q.Q.Q.Q.Q.Q.Q.Q.Q.W.W.W.W.W.W.W.W.W.W.W.W.W.W.W.W.W.W.W.W.W.W.W.W.W.W.W.W.Q.Q.Q.Q.Q.Q.Q.Q.Q.Q.Q.Q.Q.Q.Q.Q.Q.Q.",
"Q.Q.Q.Q.Q.Q.Q.Q.Q.Q.Q.Q.Q.Q.Q.Q.Q.Q.Q.Q.W.W.W.W.W.W.W.W.W.W.W.W.W.W.W.W.W.W.W.W.W.W.W.W.Q.Q.Q.Q.Q.Q.Q.Q.Q.Q.Q.Q.Q.Q.Q.Q.Q.Q.Q.Q.",
"Q.Q.Q.Q.Q.Q.Q.Q.Q.Q.Q.Q.Q.Q.Q.Q.Q.Q.Q.Q.Q.Q.Q.W.W.W.W.W.W.W.W.W.W.W.W.W.W.W.W.W.W.Q.Q.Q.Q.Q.Q.Q.Q.Q.Q.Q.Q.Q.Q.Q.Q.Q.Q.Q.Q.Q.Q.Q.",
"Q.Q.Q.Q.Q.Q.Q.Q.Q.Q.Q.Q.Q.Q.Q.Q.Q.Q.Q.Q.Q.Q.Q.Q.Q.Q.Q.W.W.W.W.W.W.W.W.W.W.Q.Q.Q.Q.Q.Q.Q.Q.Q.Q.Q.Q.Q.Q.Q.Q.Q.Q.Q.Q.Q.Q.Q.Q.Q.Q.Q."
};
