/* XPM */
static char *hflip[] = {
/* columns rows colors chars-per-pixel */
"48 48 114 2",
"   c #3124A37CFFC7",
".  c #2F2F9C9CF4F4",
"X  c #2C329507EB75",
"o  c #2B4A91FBE5D7",
"O  c #2B408F80E3E2",
"+  c #29108B2DDCA9",
"@  c #28068899D7C6",
"#  c #28838612D52A",
"$  c #264F8393D2AC",
"%  c #261380F8CCB7",
"&  c #24377E98CA84",
"*  c #23437A9FC448",
"=  c #20EE76A3C326",
"-  c #03035050C185",
";  c #2350794CBFEC",
":  c #222A74E2BB39",
">  c #21DD721CB45E",
",  c #204F6D72ADB8",
"<  c #1EFE6F60B9F2",
"1  c #1D0E6C78B613",
"2  c #1F266BAAAAA4",
"3  c #1C33661AAB25",
"4  c #1F456875A3AC",
"5  c #19D26362A69E",
"6  c #03034DDEBC17",
"7  c #03034A3AB41B",
"8  c #03034888AF2E",
"9  c #02954634AB99",
"0  c #023942F6A40B",
"q  c #1D3D62E99C22",
"w  c #18755B799A94",
"e  c #176F59D3984F",
"r  c #0FF051AD9A63",
"t  c #1C205F2696CC",
"y  c #159155499501",
"u  c #027B40B99DE9",
"i  c #1B635B7A8F56",
"p  c #1A44578E8A73",
"a  c #13C3500A895B",
"s  c #189C52B78367",
"d  c #11B74EBD8BC2",
"f  c #123D4BEE84A4",
"g  c #0D0749248F47",
"h  c #0C0C40408080",
"j  c #02153E649AF9",
"k  c #01B83B8593E9",
"l  c #01EA395E8D8D",
"z  c #010136798AAC",
"x  c #030338388747",
"c  c #014333FD8401",
"v  c #18004F7F7C7F",
"b  c #10DE45727909",
"n  c #17F44A29739D",
"m  c #164C4A547588",
"M  c #11EE43BB7489",
"N  c #0EE243767B05",
"B  c #183C454E6A4C",
"V  c #13FC44746B92",
"C  c #181843106532",
"Z  c #09093D3D7E7E",
"A  c #016532077D27",
"S  c #0CE63D83701B",
"D  c #090937377272",
"F  c #024230F17535",
"G  c #02022E95723F",
"H  c #13193F246238",
"J  c #0F003C0068FF",
"K  c #0B00370068FF",
"L  c #070733336D6D",
"P  c #0B80350060FF",
"I  c #070730306666",
"U  c #01E72CCE6C87",
"Y  c #01C9296264BA",
"T  c #018127276060",
"R  c #18403B3E5858",
"E  c #142C3AA35A4F",
"W  c #08F730CE5DA1",
"Q  c #0EFD33575151",
"!  c #05052AAA5C5C",
"~  c #01DD25DD5C13",
"^  c #09042C96532A",
"/  c #01DD22B5539C",
"(  c #188E36314E4E",
")  c #1A1431A84444",
"_  c #0A0A2A2A4B4B",
"`  c #02D022224E81",
"'  c #0CFA2C794545",
"]  c #0603219141A1",
"[  c #01341E5149E3",
"{  c #014A1BC042C3",
"}  c #21CC21CC21CC",
"|  c #1B2B2D173BBC",
" . c #1D192AAA3535",
".. c #0AFE24B03939",
"X. c #0A89221F35B6",
"o. c #1E29273A2F2F",
"O. c #015E19763CE0",
"+. c #0080169738B8",
"@. c #040419C4348A",
"#. c #01A215F63333",
"$. c #08561BED2BD6",
"%. c #01AC13132B81",
"&. c #0584146121F7",
"*. c #00000D8E21A1",
"=. c #1B911B911B91",
"-. c #134513451345",
";. c #058012171C1C",
":. c #01390C601AE2",
">. c #01C50A6A13EC",
",. c #000007071111",
"<. c #0B2B0B2B0B2B",
"1. c #0305098A0E8F",
"2. c #00BB054B0B51",
"3. c #007200750078",
/* pixels */
"3.3.3.3.3.3.3.3.3.3.3.3.3.3.3.3.3.3.3.3.3.3.3.3.3.3.3.3.3.3.3.3.3.3.3.3.3.3.3.3.3.3.3.3.3.3.3.3.",
"3.3.3.3.3.3.3.3.3.3.3.3.3.3.3.3.3.3.3.3.3.3.3.3.3.3.3.3.3.3.3.3.3.3.3.3.3.3.3.3.3.3.3.3.3.3.3.3.",
"3.3.3.3.3.3.3.3.3.3.3.3.3.3.3.3.3.3.3.3.3.3.3.3.3.3.3.3.3.3.3.3.3.3.3.3.3.3.3.3.3.3.3.3.3.3.3.3.",
"3.3.3.3.3.3.3.3.3.3.3.3.3.3.3.3.3.3.3.3.3.3.3.3.3.3.3.3.3.3.3.3.3.3.3.3.3.3.3.3.3.3.3.3.3.3.3.3.",
"3.3.3.3.3.3.3.3.3.3.3.3.3.3.3.3.3.3.3.3.3.3.3.3.3.3.3.3.3.3.3.3.3.3.3.3.3.3.3.3.3.3.3.3.3.3.3.3.",
"3.3.3.3.3.3.3.3.3.3.3.3.3.3.3.3.3.3.3.3.3.3.3.3.3.3.3.3.3.3.3.3.3.3.3.3.3.3.3.3.3.3.3.3.3.3.3.3.",
"3.3.3.3.3.3.3.3.3.3.3.3.3.3.3.3.3.3.1.3.3.3.3.3.3.3.3.3.>.3.3.3.3.3.3.3.3.3.3.3.3.3.3.3.3.3.3.3.",
"3.3.3.3.3.3.3.3.3.3.3.3.3.3.3.3.3.:.X 3.3.3.3.3.3.3.3.3.  ;.3.3.3.3.3.3.3.3.3.3.3.3.3.3.3.3.3.3.",
"3.3.3.3.3.3.3.3.3.3.3.3.3.3.3.3.&.O   3.3.3.3.3.3.3.3.3.  o $.3.3.3.3.3.3.3.3.3.3.3.3.3.3.3.3.3.",
"3.3.3.3.3.3.3.3.3.3.3.3.3.3.3.$.X W   3.3.3.3.3.3.3.3.3.  ] X X.3.3.3.3.3.3.3.3.3.3.3.3.3.3.3.3.",
"3.3.3.3.3.3.3.3.3.3.3.3.3.3...X _ 3.  3.3.3.3.3.3.3.3.3.  3.@.o ' 3.3.3.3.3.3.3.3.3.3.3.3.3.3.3.",
"3.3.3.3.3.3.3.3.3.3.3.3.3.' o O.#.3.  3.3.3.3.3.3.3.3.3.  3.O.@.O Q 3.3.3.3.3.3.3.3.3.3.3.3.3.3.",
"3.3.3.3.3.3.3.3.3.3.3.3.E O @.{ 8 3.  3.3.3.3.3.3.3.3.3.  2.j ` #.+ H 3.3.3.3.3.3.3.3.3.3.3.3.3.",
"3.3.3.3.3.3.3.3.3.3.3.V + %./ 7 8 3.  3.3.3.3.3.3.3.3.3.  2.u 0 T #.# m 3.3.3.3.3.3.3.3.3.3.3.3.",
"3.3.3.3.3.3.3.3.3.3.s $ :.T 7 8 9 3.  3.3.3.3.3.3.3.3.3.  ,.0 0 9 G #.& p 3.3.3.3.3.3.3.3.3.3.3.",
"3.3.3.3.3.3.3.3.3.t = >.G 6 7 9 0 3.  3.3.3.3.3.3.3.3.3.  :.0 9 8 7 x O.= q 3.3.3.3.3.3.3.3.3.3.",
"3.3.3.3.3.3.3.3.2 1 ,.A 6 7 8 0 0 3.                      :.0 9 8 7 6 k { 1 , 2.3.3.3.3.3.3.3.3.",
"3.3.3.3.3.3.2.: 5 ,.l 6 7 7 9 0 j 2.2.2.2.2.,.,.>.:.:.:.*.*.9 8 7 7 6 - u { 5 ; 2.3.3.3.3.3.3.3.",
"3.3.3.3.3.>.& y ,.k - 6 7 8 0 u j k z c A c z z k k j u 0 0 9 7 7 6 6 6 7 k { e % >.3.3.3.3.3.3.",
"3.3.3.3.:.@ f >.0 - 6 7 7 9 0 j k l z c c c z l k k j 0 0 9 8 7 6 6 - 7 9 u x { a @ ;.3.3.3.3.3.",
"3.3.3.&.o S :.9 - - 6 7 9 0 u j k z c A c z z k k j u 0 9 8 7 7 6 6 6 7 0 j l F O.b + &.3.3.3.3.",
"3.3.$.X P %.7 - - 6 7 8 9 0 j k l c A c c z l k j j 0 0 9 8 7 6 6 - 7 9 u k x F U +.J o $.3.3.3.",
"3...  ] +.7 - - 6 6 7 9 0 j k k z c A c z l k k j u 0 9 8 7 7 6 - 6 8 0 k l A G Y / #.^   ..3.3.",
"3.' . %.[ 6 - - 6 7 8 0 0 j k z c A c c z k k j j 0 0 9 7 7 6 6 6 7 0 u l c F U ~ / %._   ' 3.3.",
"3.3...X ^ [ 6 6 7 7 9 0 j k l z c c c z l k k j 0 0 9 8 7 7 6 - 6 9 0 k x A U Y / #.P o X.3.3.3.",
"3.3.3.$.o K { 8 7 9 0 u j k z c A c z z k k j u 0 0 9 7 7 6 6 6 7 0 j l c F Y ~ +.M o $.3.3.3.3.",
"3.3.3.3.&.O N { 0 9 0 j k l z c c c z l k j j 0 0 9 8 7 6 6 - 7 9 u k x A U ~ +.f + &.3.3.3.3.3.",
"3.3.3.3.3.:.@ d O.k j k k z c A c z l k k j u 0 9 8 7 7 6 - 6 8 0 k l A G ~ O.e $ :.3.3.3.3.3.3.",
"3.3.3.3.3.3.>.% w O.x k z c A c c +.O.{ { [ [ ` / ~ ~ T Y U 7 9 u l c F Y { 3 * 1.3.3.3.3.3.3.3.",
"3.3.3.3.3.3.3.2.: 3 O.A z c c c z O.                      U 9 0 k x A Y [ : > 2.3.3.3.3.3.3.3.3.",
"3.3.3.3.3.3.3.3.2., < { U A c z z {   3.3.3.3.3.3.3.3.3.  U 0 u l c Y / & 4 3.3.3.3.3.3.3.3.3.3.",
"3.3.3.3.3.3.3.3.3.3.q * { Y c z l [   2.2.2.2.2.2.2.2.2.  U u k x U ! # i 3.3.3.3.3.3.3.3.3.3.3.",
"3.3.3.3.3.3.3.3.3.3.3.s $ ` U z k `   <.<.<.<.<.<.<.<.<.  U j l U I + v 3.3.3.3.3.3.3.3.3.3.3.3.",
"3.3.3.3.3.3.3.3.3.3.3.3.n + ! U k /   <.<.<.<.<.<.<.<.<.  U l U D o B 2.3.3.3.3.3.3.3.3.3.3.3.3.",
"3.3.3.3.3.3.3.3.3.3.2.2.<.C o L G ~   -.-.-.-.-.-.-.-.-.  U F h X R <.<.2.2.3.3.3.3.3.3.3.3.3.3.",
"3.3.3.3.3.3.3.3.3.2.<.<.<.<.R X Z T   -.-.-.-.-.-.-.-.-.  U g X ( <.<.<.<.<.2.3.3.3.3.3.3.3.3.3.",
"3.3.3.3.3.3.3.3.2.<.<.<.<.<.-.( X g   =.=.=.=.=.=.=.=.=.  r X ) -.-.<.<.<.<.<.2.3.3.3.3.3.3.3.3.",
"3.3.3.3.3.3.3.3.2.<.<.<.<.-.-.-.) X   =.=.=.=.=.=.=.=.=.  X | -.-.-.-.<.<.<.<.2.3.3.3.3.3.3.3.3.",
"3.3.3.3.3.3.3.2.2.<.<.<.<.-.-.-.-.|   =.=.} } } } } } =.   .=.-.-.-.-.<.<.<.<.2.2.3.3.3.3.3.3.3.",
"3.3.3.3.3.3.3.2.2.<.<.<.<.-.-.-.-.=. .=.=.} } } } } } =.o.=.=.-.-.-.-.<.<.<.<.2.2.3.3.3.3.3.3.3.",
"3.3.3.3.3.3.3.3.2.<.<.<.<.-.-.-.-.-.=.=.=.=.=.=.=.=.=.=.=.=.-.-.-.-.-.<.<.<.<.2.3.3.3.3.3.3.3.3.",
"3.3.3.3.3.3.3.3.2.<.<.<.<.<.-.-.-.-.-.=.=.=.=.=.=.=.=.=.=.-.-.-.-.-.<.<.<.<.<.2.3.3.3.3.3.3.3.3.",
"3.3.3.3.3.3.3.3.3.2.<.<.<.<.<.<.-.-.-.-.-.-.-.-.-.-.-.-.-.-.-.-.<.<.<.<.<.<.2.3.3.3.3.3.3.3.3.3.",
"3.3.3.3.3.3.3.3.3.3.2.2.<.<.<.<.<.<.-.-.-.-.-.-.-.-.-.-.-.-.<.<.<.<.<.<.2.2.3.3.3.3.3.3.3.3.3.3.",
"3.3.3.3.3.3.3.3.3.3.3.3.2.2.<.<.<.<.<.<.<.<.<.<.<.<.<.<.<.<.<.<.<.<.2.2.3.3.3.3.3.3.3.3.3.3.3.3.",
"3.3.3.3.3.3.3.3.3.3.3.3.3.3.3.2.2.<.<.<.<.<.<.<.<.<.<.<.<.<.<.2.2.3.3.3.3.3.3.3.3.3.3.3.3.3.3.3.",
"3.3.3.3.3.3.3.3.3.3.3.3.3.3.3.3.3.3.3.2.2.2.2.2.2.2.2.2.2.3.3.3.3.3.3.3.3.3.3.3.3.3.3.3.3.3.3.3.",
"3.3.3.3.3.3.3.3.3.3.3.3.3.3.3.3.3.3.3.3.3.3.3.3.3.3.3.3.3.3.3.3.3.3.3.3.3.3.3.3.3.3.3.3.3.3.3.3."
};
