/* XPM */
static char *info[] = {
/* columns rows colors chars-per-pixel */
"24 24 207 2",
"   c #A4A1A0",
".  c #A3A1A0",
"X  c #7989D6",
"o  c #7484D5",
"O  c #7985C1",
"+  c #2B48E1",
"@  c #2A46DD",
"#  c #213DD9",
"$  c #223DD7",
"%  c #1E33C5",
"&  c #6F7AB3",
"*  c #504785",
"=  c #344281",
"-  c #2933A7",
";  c #152BBF",
":  c #1329BC",
">  c #1125B1",
",  c #0E24B7",
"<  c #0B1DB1",
"1  c #071BB2",
"2  c #0417B1",
"3  c #0416B0",
"4  c #0316B0",
"5  c #0B1CA3",
"6  c #343698",
"7  c #07179B",
"8  c #041598",
"9  c #021080",
"0  c #9C7546",
"q  c #987345",
"w  c #8E6B40",
"e  c #836641",
"r  c #89673E",
"t  c #84633B",
"y  c #7F7F7F",
"u  c #6F6F6F",
"i  c #6E6E6E",
"p  c #626262",
"a  c #64557A",
"s  c #6C5972",
"d  c #444B6A",
"f  c #7B6242",
"g  c #765E4B",
"h  c #745F4B",
"j  c #745A48",
"k  c #705B40",
"l  c #635340",
"z  c #585858",
"x  c #575757",
"c  c #555555",
"v  c #545454",
"b  c #535353",
"n  c #4E515E",
"m  c #4E4E4E",
"M  c #4A4A4A",
"N  c #494949",
"B  c #474747",
"V  c #454545",
"C  c #444444",
"Z  c #434343",
"A  c #424242",
"S  c #404040",
"D  c #35427D",
"F  c #364171",
"G  c #343F73",
"H  c #353E66",
"J  c #020D67",
"K  c #363A4C",
"L  c #34384B",
"P  c #333745",
"I  c #7D5F3C",
"U  c #7C5D3C",
"Y  c #7A5F3E",
"T  c #7F5F3A",
"R  c #7A5D38",
"E  c #7B5C38",
"W  c #7B5B3B",
"Q  c #795A3A",
"!  c #7A5B39",
"~  c #775B39",
"^  c #755838",
"/  c #7C5D35",
"(  c #7B5C36",
")  c #795A35",
"_  c #775935",
"`  c #775833",
"'  c #765734",
"]  c #725736",
"[  c #725536",
"{  c #725436",
"}  c #715536",
"|  c #765732",
" . c #755632",
".. c #755630",
"X. c #735633",
"o. c #725430",
"O. c #6F5335",
"+. c #6D5134",
"@. c #6F5232",
"#. c #6C5233",
"$. c #6D5133",
"%. c #6C5131",
"&. c #694D32",
"*. c #684D31",
"=. c #674D31",
"-. c #6F522E",
";. c #6C502F",
":. c #6B502F",
">. c #6B4F2E",
",. c #644B2F",
"<. c #634A2F",
"1. c #63492F",
"2. c #61492E",
"3. c #61482E",
"4. c #5A4A36",
"5. c #5B4A35",
"6. c #484139",
"7. c #4C4236",
"8. c #4D4234",
"9. c #4A4237",
"0. c #474037",
"q. c #5F462C",
"w. c #5D442B",
"e. c #5A4328",
"r. c #594229",
"t. c #594128",
"y. c #594028",
"u. c #413C36",
"i. c #403C36",
"p. c #433C34",
"a. c #413C34",
"s. c #473E33",
"d. c #413B33",
"f. c #523D2A",
"g. c #543D27",
"h. c #533D27",
"j. c #523C24",
"k. c #503B24",
"l. c #4F3B2A",
"z. c #4F3A25",
"x. c #4D3924",
"c. c #4E3A23",
"v. c #4D3923",
"b. c #4D3823",
"n. c #4A3823",
"m. c #4C3723",
"M. c #483520",
"N. c #463421",
"B. c #473420",
"V. c #463320",
"C. c #47341F",
"Z. c #42311F",
"A. c #42301E",
"S. c #42311D",
"D. c #43301C",
"F. c #3D3D3D",
"G. c #3C3C3C",
"H. c #3B3B3B",
"J. c #34353D",
"K. c #33353D",
"L. c #3F3A34",
"P. c #3D3833",
"I. c #383634",
"U. c #373737",
"Y. c #353535",
"T. c #343434",
"R. c #363533",
"E. c #343433",
"W. c #333333",
"Q. c #3F2E1D",
"!. c #3F2D1C",
"~. c #3F2E1B",
"^. c #3B291A",
"/. c #382818",
"(. c #37291E",
"). c #37291D",
"_. c #372818",
"`. c #36271A",
"'. c #352717",
"]. c #332415",
"[. c #312315",
"{. c #302215",
"}. c #302114",
"|. c #2E2316",
" X c #2D2116",
".X c #2D2215",
"XX c #2F2114",
"oX c #2C2115",
"OX c #2D1F14",
"+X c #2C1F13",
"@X c #2B1E12",
"#X c #271D12",
"$X c #261C12",
"%X c #241B10",
"&X c #23180E",
"*X c #20180F",
"=X c #22170D",
"-X c #1E170E",
";X c #1D150E",
":X c #1C150D",
">X c #1B140D",
",X c #1A130C",
"<X c #19130C",
"1X c #19120C",
"2X c #17110B",
"3X c #16100A",
"4X c None",
/* pixels */
"4X4X4X4X4X4X4X4X4X4XW.W.W.W.4X4X4X4X4X4X4X4X4X4X",
"4X4X4X4X4X4X4XW.W.W.E.s.d.W.W.W.W.4X4X4X4X4X4X4X",
"4X4X4X4X4XW.W.W.a.) o.;.>.-._ P.W.W.W.4X4X4X4X4X",
"4X4X4X4XW.W.W.5.| #.U { } ^ ,...4.W.W.W.4X4X4X4X",
"4X4X4XW.W.W.p.` Q *.|.;X:X.X<.$. .L.W.W.W.4X4X4X",
"4X4XW.W.W.W./ [ W  X>X,X<X<XoX+.2.R W.W.W.W.4X4X",
"4X4XW.W.W.R.| O.3.#X1X2X3X3X$X1.&.X.E.W.W.W.4X4X",
"4XW.W.W.W.8.' N.n.z.*X-X*X%XV.t.3.%.9.W.W.W.W.4X",
"4XW.W.W.W.7.' Z.h.q r k.S.:.0 e.r.@.0.W.W.W.W.4X",
"4XW.W.W.W.W.T =.3.w M.!./._.t B.m.I W.W.W.W.W.4X",
"W.W.W.W.W.W.Y q.w.j.A.'.@X+X( Q.c.k W.W.W.W.W.W.",
"W.W.W.W.W.W.u.E y.b.!.}.=X~.C.^.~ I.W.W.W.W.W.W.",
"W.W.W.W.W.W.W.e g.v.!.{.&XD.XX!.f W.W.W.W.W.W.W.",
"W.W.W.W.W.W.W.6.! x.Z.`.OX[.].] i.W.W.W.W.W.W.W.",
"4XW.W.W.W.W.W.W.h j l.(.).f.g l W.W.W.W.W.W.W.4X",
"4XW.W.W.W.W.W.W.H - * s a 6 % K.W.W.W.W.W.W.W.4X",
"4XW.W.W.W.W.W.W.D ; 7 4 4 4 # P W.W.W.W.W.W.W.4X",
"4X4XW.W.W.W.W.W.= 5 J 4 3 < + J.W.W.W.W.W.W.4X4X",
"4X4XW.W.W.W.W.W.F > 9 4 4 4 $ L W.W.W.W.W.W.4X4X",
"4X4X4XW.W.W.W.W.G : 8 2 1 , @ K W.W.W.W.W.4X4X4X",
"4X4X4X4XW.W.U.G.A d O o X & n N V S H.T.4X4X4X4X",
"4X4X4X4X4XU.F.Z N x i   . y u p v B C 4X4X4X4X4X",
"4X4X4X4X4X4X4XH.S B m c z x b M Z B 4X4X4X4X4X4X",
"4X4X4X4X4X4X4X4X4X4XT.T.Y.Y.4X4X4X4X4X4X4X4X4X4X"
};
