/* XPM */
static char *find[] = {
/* columns rows colors chars-per-pixel */
"48 48 61 1",
"  c #D1D1CBCBC9C9",
". c #CCCCC6C6C4C4",
"X c #C6FEC1FEBFFE",
"o c #C1B2BCDABBE2",
"O c #BABAB6B6B8B8",
"+ c #BDBDB8B8B6B6",
"@ c #BA93B635B605",
"# c #B777B3F3B4F4",
"$ c #AC55A95CAB5A",
"% c #A323A120A423",
"& c #A0A09E9EA3A3",
"* c #9C249A419DB0",
"= c #94CE9331965D",
"- c #911F8F23931D",
"; c #8E788CD79117",
": c #8D378BE18F8F",
"> c #86DC84848933",
", c #83EA8282861F",
"< c #81007E7E8202",
"1 c #7DFE7CFD8080",
"2 c #7C337A687D34",
"3 c #787876767B7B",
"4 c #767675757878",
"5 c #73B07350744A",
"6 c #71716EEF72F3",
"7 c #6F6F6E6E7070",
"8 c #6E456E2D6E54",
"9 c #691366BC6BC1",
"0 c #666663E368E8",
"q c #6382632C63F4",
"w c #60605E5E6262",
"e c #5E5E5BDC6060",
"r c #5BE25B7B5C3C",
"t c #5656555558AE",
"y c #584956795679",
"u c #54B7548954FD",
"i c #51514F4F5252",
"p c #4E4E4D4D5050",
"a c #4CFB4C544DDF",
"s c #4356430943F0",
"d c #3F3F3E3E4242",
"f c #3BA73B7C3C12",
"g c #363635353939",
"h c #332832FF337A",
"j c #30302F2F3232",
"k c #2DAE2BAB3030",
"l c #2CCE2C982D2E",
"z c #29C325F32D2D",
"x c #25A622A228FE",
"c c #22E2224D2377",
"v c #21211E8523F1",
"b c #1E491C9C2121",
"n c #1ABF1AAB1ADE",
"m c #184B167D1AB4",
"M c #16C1154E18E0",
"N c #1487147D14A1",
"B c #10100F0F1167",
"V c #0EE40E8E10E6",
"C c #0A740A690A97",
"Z c #070707070808",
"A c #011701170117",
/* pixels */
"AAAAAAAAAAAAAAAAAAAAAAAAAAAAAAAAAAAAAAAAAAAAAAAA",
"AAAAAAAAAAAAAAAAAAAAAAAAAAAAAAAAAAAAAAAAAAAAAAAA",
"AAAAAAAAAAAAAAAAAAAAAAAAAAAAAAAAAAAAAAAAAAAAAAAA",
"AAAAmauuuuuuuuuuuyyyyyyrrrrrr9sNAAAAAAAAAAAAAAAA",
"AAAAuNAAAAAAAZZZZZZZZZZZZZZZZqyqfAAAAAAAAAAAAAAA",
"AAAAyZncnnnnnnnnnnnnnnnnnnnnnsffyuZAAAAAAAAAAAAA",
"AAAAyZnccccnnnnnnnnnnnnnnnnnngfxguyZAAAAAAAAAAAA",
"AAAAyZncccnnnnnnnnnnnnnnnnnnnlfNhhayAAAAAAAAAAAA",
"AAAAyZnccnnnnnnnnnnnnnnnnnnnnlsZlhhuaAAAAAAAAAAA",
"AAAAyZnnnnnnnnnnnnnnnnnnnnnnnlfCllhhrhAAAAAAAAAA",
"AAAAyZnnnnnnnnnnnnnnnnnnnmmmmhlCxllhfqNAAAAAAAAA",
"AAAAyZnnnnnnnnnnnnnnnnmmmmMMMsmAAANlhsqAAAAAAAAA",
"AAAAyCnnnnnnnnnnnnnmmmmMMMMMMqqrq0999q5fAAAAAAAA",
"AAAAyCnnnnnnnnnnnnmmmMMMNNNNNnlfsayqqyq5AAAAAAAA",
"AAAArCnnnnnnnnnnmmmMMMNNNNNNNNxhhlcnMNZ5AAAAAAAA",
"AAAArCmnnnnnnnnmmMMMNNNNNNNNNNnNNNNNNNZ5AAAAAAAA",
"AAAArCmnnnnnnnmmMMNNNNNNNNNNNNNNNNNNNNZ5AAAAAAAA",
"AAAArCMnnnnnnmmMMNNNNNNNNNNNNNNNNNNNNNZ5AAAAAAAA",
"AAAArCMnnnnnmmMMNNNNNNht4,;>2rhNNNNNNNZ5AAAAAAAA",
"AAAArCMnnnnmmMMNNNNNg56axNCMlt,<hNNNNNZ5AAAAAAAA",
"AAAArCMnnnmmMMNNNNMt5jZMvxzxvMCs;rNNNNZ5AAAAAAAA",
"AAAArZMnnnmMMNNNNNqwCmzcnMNNmbxMM17NNNZ5AAAAAAAA",
"AAAArZNnnmmMNNNNNirZvxNCZZZZCCNbnN2rNNZ5AAAAAAAA",
"AAAArZNnnmMMNNNNl9CxcCZAAAAAAZCCmnM;lCZ5AAAAAAAA",
"AAAArZNnmmMNNNNN0xnxCZAAAAAAAAACCmMf2CZ5AAAAAAAA",
"AAAArCNnmMMNNNNlqCzNZAAAAAAAAAAZCVnV:lZ5AAAAAAAA",
"AAAArCNmmMNNNNNadmvCAAAAAAAAAAAZCCNNewZ5AAAAAAAA",
"AAAAqCNmMMNNNNN9nxMZAAAAAAAAAAAZZCBMg>Z5AAAAAAAA",
"AAAAqCNmMNNNNNN5CzNZAAAAAAAAAAAZZCCNx=C5AAAAAAAA",
"AAAAqCNmMNNNNNN3ZkNAAAAAAAAAAAAZZCCNm&C5AAAAAAAA",
"AAAAqCNMMNNNNNN5CzNZAAAAAAAAAAAZZCCNx=N5AAAAAAAA",
"AAAAqCNMNNNNNNN9bxNCAAAAAAAAAAZZZCCVg>N5AAAAAAAA",
"AAAAqCNMNNNNNNNpsmnCZAAAAAAAAZZZZCCVrqC5AAAAAAAA",
"AAAAqCNMNNNNNNNl0VxCZZZAAAAAAZZZZCCV:hC5AAAAAAAA",
"AAAAqCNMNNNNNNNN0lnnCZZZZZZZZZZZZZCf2mZ5AAAAAAAA",
"AAAA0CNMNNNNNNNNl9NvmCCZZZZZZZZZZZm;hNZ5AAAAAAAA",
"AAAA0CNMNNNNNNNNNueBbmCCCZZZZZZZCN3ynCZ5AAAAAAAA",
"AAAA0CNMNNNNNNNNNMqqNmbNCCZCCCCCn2O*qhC5AAAAAAAA",
"AAAA0CNMNNNNNNNNNCnt4gBMmMMNNNNs;r$=<**2AAAAAAAA",
"AAAA0CNMNNNNNNNNNCCmf55alnNbhu,2hn2*qa;%NAAAAAAA",
"AAAA0CNMNNNNNNNNNNCCNnhu5,:>4tknmCs#14r-=NAAAAAA",
"AAAA0CNMNNNNNNNNNNCCCCNnnnnnnmMNCCn.#*2r;=NAAAAA",
"AAAA9CNMNNNNNNNNNNCCCCCCCNNNCCCCCCCl+#*2r;=NAAAA",
"AAAAqCZZZZZZZZZZZZZZZZZZZZZZZZZZZZZCx+#*2r-$ZAAA",
"AAAAl888888888555558888888888888888882X#*26*ZZAA",
"AAAAAAZZZZCCCNNnnncccccccnnnnnmNNNNNMnl@O%$aZZAA",
"AAAAAAAAAAAAAAAAAAAAAAAAAAAAAAAZZZCCCCCn oyZZAAA",
"AAAAAAAAAAAAAAAAAAAAAAAAAAAAAAAAAAAZZZZZZAAAAAAA"
};
