/* XPM */
static char *next[] = {
/* columns rows colors chars-per-pixel */
"48 48 230 2",
"   c #DFDFB5B57878",
".  c #D8C0AFBE7336",
"X  c #D700AE537340",
"o  c #D608AC637248",
"O  c #D52AABB072C8",
"+  c #D381AB7E7254",
"@  c #D432ABB07155",
"#  c #D33CAAB970DA",
"$  c #D245AAB970DA",
"%  c #D0A6A8A26F78",
"&  c #D229A78C6D70",
"*  c #CFF1A86D6F07",
"=  c #CF60A8CB6DF5",
"-  c #CDFAA73D6E8C",
";  c #CF6FA6866D40",
":  c #CE87A5396D82",
">  c #CAC4A4686D9A",
",  c #CB84A4F06C07",
"<  c #CC59A59C6A88",
"1  c #CE27A45669FE",
"2  c #C9DAA4686BC7",
"3  c #CC59A3AC6A88",
"4  c #CA69A2B46A88",
"5  c #CB84A3026922",
"6  c #CAC0A06E665C",
"7  c #C5809E2E688F",
"8  c #C3C69EBC680F",
"9  c #CA329D60619C",
"0  c #C7819FCC66A9",
"q  c #C7589D886429",
"w  c #C1259CC46711",
"e  c #C3CD9C416547",
"r  c #C66B9BC26238",
"t  c #C27B9A9D6330",
"y  c #CBCB9A9A5B5B",
"u  c #CACA99995B5B",
"i  c #C9C999995A5A",
"p  c #C9C998985A5A",
"a  c #C6C69A9A5E5E",
"s  c #C4C498985E5E",
"d  c #C7C797975959",
"f  c #C6C696965959",
"g  c #C5C596965959",
"h  c #C4C495955858",
"j  c #C3C396965A5A",
"k  c #C0C093935A5A",
"l  c #C2C293935858",
"z  c #C2C293935757",
"x  c #C1C193935757",
"c  c #C0C093935757",
"v  c #C1C192925656",
"b  c #C0C092925656",
"n  c #BBE0995566C9",
"m  c #BB0096F163CA",
"M  c #BCDA942D5DF1",
"N  c #B803923D5DF1",
"B  c #B24B90905F92",
"V  c #BFBF91915656",
"C  c #BEBE91915656",
"Z  c #BCBC90905656",
"A  c #BEBE90905555",
"S  c #B55A8E245935",
"D  c #BCBC8F8F5454",
"F  c #BABA8E8E5555",
"G  c #BABA8D8D5454",
"H  c #B9B98C8C5353",
"J  c #B8B88C8C5252",
"K  c #B0B889AA55EB",
"L  c #B4B488885151",
"P  c #B0E1885E5204",
"I  c #B3B388885050",
"U  c #B2B287875050",
"Y  c #AECC8DBA5DB3",
"T  c #A78E88E35D80",
"R  c #A5EE8530588B",
"E  c #A8FA8173500A",
"W  c #A3708484579C",
"Q  c #B5B586864C4C",
"!  c #B4B485854C4C",
"~  c #B1B186864F4F",
"^  c #B0B085854F4F",
"/  c #B4B485854B4B",
"(  c #B2B284844B4B",
")  c #B1B183834B4B",
"_  c #AFAF85854F4F",
"`  c #AEAE84844E4E",
"'  c #ACFF82FF4EFF",
"]  c #ADAD83834D4D",
"[  c #ACAC82824D4D",
"{  c #ABAB82824D4D",
"}  c #AAAA81814C4C",
"|  c #A9A980804C4C",
" . c #AFAF82824A4A",
".. c #AFAF81814949",
"X. c #ACAC7F7F4848",
"o. c #A9A97F7F4B4B",
"O. c #A8A87F7F4B4B",
"+. c #AAAA7E7E4848",
"@. c #A8A87D7D4949",
"#. c #A6A67E7E4B4B",
"$. c #A6A67E7E4A4A",
"%. c #A5A57D7D4A4A",
"&. c #A3A37C7C4949",
"*. c #A1A17A7A4848",
"=. c #A8A87C7C4646",
"-. c #A7A77B7B4646",
";. c #A6A67B7B4646",
":. c #A5A57B7B4646",
">. c #A2A278784444",
",. c #A0A077774343",
"<. c #98427CB3514C",
"1. c #8F3F7687544D",
"2. c #9F5D7A8349B5",
"3. c #92D576644E0B",
"4. c #9F9F79794747",
"5. c #9E9E78784747",
"6. c #9C9C76764646",
"7. c #9B9B75754545",
"8. c #9A9A75754545",
"9. c #989873734444",
"0. c #9E9E75754242",
"q. c #999972724040",
"w. c #999971714040",
"e. c #979771714242",
"r. c #979770704141",
"t. c #969670704040",
"y. c #87BA6E8C4916",
"u. c #86536C6C4714",
"i. c #94946D6D3E3E",
"p. c #8D8D69693C3C",
"a. c #8D8D68683C3C",
"s. c #8D8D68683B3B",
"d. c #8C8C68683B3B",
"f. c #8B8B68683B3B",
"g. c #8B8B67673B3B",
"h. c #8A8A66663B3B",
"j. c #8A8A67673A3A",
"k. c #898966663A3A",
"l. c #898965653A3A",
"z. c #888865653A3A",
"x. c #888864643A3A",
"c. c #878764643939",
"v. c #868664643939",
"b. c #868663633939",
"n. c #868663633838",
"m. c #858563633939",
"M. c #858562623838",
"N. c #848462623838",
"B. c #838362623A3A",
"V. c #838362623838",
"C. c #838361613737",
"Z. c #828261613737",
"A. c #828260603737",
"S. c #818160603737",
"D. c #818160603636",
"F. c #80805F5F3636",
"G. c #797C6280411F",
"H. c #709A5F3E4572",
"J. c #727E5D593D5F",
"K. c #727E5C513D5F",
"L. c #7E7E5D5D3535",
"P. c #7D7D5D5D3535",
"I. c #7C7C5C5C3434",
"U. c #66425273365A",
"Y. c #6482517E3654",
"T. c #534E475A353E",
"R. c #5846472D2F51",
"E. c #524843522D41",
"W. c #516A423E2C0A",
"Q. c #48503A1C2618",
"!. c #3D1F33122421",
"~. c #38243016251A",
"^. c #3D2E32282112",
"/. c #3033291B2022",
"(. c #293A261C200C",
"). c #2626251A251A",
"_. c #242424",
"`. c #261424152216",
"'. c #222222222222",
"]. c #212121",
"[. c #202020202020",
"{. c #39522E101F38",
"}. c #304927311A33",
"|. c #2F32260E1916",
" X c #283421241618",
".X c #25341E181402",
"XX c #1F1F1F",
"oX c #1E1E1E1E1E1E",
"OX c #1D1D1D1D1D1D",
"+X c #1C1C1C",
"@X c #191919",
"#X c #191919191919",
"$X c #181818181818",
"%X c #1E1E18181010",
"&X c #1D1A1720101C",
"*X c #161616161616",
"=X c #151515151515",
"-X c #141414",
";X c #131313131313",
":X c #121212",
">X c #111111111111",
",X c #101010101010",
"<X c #1512111A0B0E",
"1X c #12080F0A0B06",
"2X c #110E0E100A06",
"3X c #10160D0A0900",
"4X c #10160D0A0802",
"5X c #0F0F0F",
"6X c #0E0E0E0E0E0E",
"7X c #0D0D0D",
"8X c #0C0C0C0C0C0C",
"9X c #0F0F0C0C0808",
"0X c #0B0B0B0B0B0B",
"qX c #0A0A0A",
"wX c #090909090909",
"eX c #080808",
"rX c #0A0C08030506",
"tX c #070707070707",
"yX c #060606060606",
"uX c #050505",
"iX c #040404040404",
"pX c #060905040301",
"aX c #050204040300",
"sX c #040404040202",
"dX c #030303",
"fX c #020202020202",
"gX c #030302020101",
"hX c #010101010101",
"jX c #010101010000",
"kX c #000000",
/* pixels */
"kXkXkXkXkXkXkXkXkXkXkXkXkXkXkXkXkXkXkXkXkXkXkXkXkXkXkXkXkXkXkXkXkXkXkXkXkXkXkXkXkXkXkXkXkXkXkXkX",
"kXkXkXkXkXkXkXkXkXkXkXkXkXkXkXkXkXkXkXkXkXkXkXkXkXkXkXkXkXkXkXkXkXkXkXkXkXkXkXkXkXkXkXkXkXkXkXkX",
"kXkXkXkXkXkXkXkXkXkXkXkXkXkXkXkXkXkXkXkXkXkXkXkXkXkXkXkXkXkXkXkXkXkXkXkXkXkXkXkXkXkXkXkXkXkXkXkX",
"kXkXkXkXkXkXkXkXkXkXkXkXkXkXkXkXkXkXkXkXkXkXkXkXkXkXkXkXkXkXkXkXkXkXkXkXkXkXkXkXkXkXkXkXkXkXkXkX",
"kXkXkXkXkXkXkXkXkXkXkXkXkXkXkXkXkXkXkXkXkXkXkXkXkXkXkXkXkXkXkXkXkXkXkXkXkXkXkXkXkXkXkXkXkXkXkXkX",
"kXkXkXkXkXkXkXkXkXkXkXkXkXkXkXkXkXkXkXkXkXkXkXkXkXkXkXkXkXkXkXkXkXkXkXkXkXkXkXkXkXkXkXkXkXkXkXkX",
"kXkXkXkXkXkXkXkXkXkXkXkXkXkXkXkXkXkXkXkXkXkXkXkXkXkXkXkXkXkXkXkXkXkXkXkXkXkXkXkXkXkXkXkXkXkXkXkX",
"kXkXkXkXkXkXkXkXkXkXkXkXkXkXkXkXkXkXkXkXkXkXkXkXkXkXkXkXkXkXkXkXkXkXkXkXkXkXkXkXkXkXkXkXkXkXkXkX",
"kXkXkXkXkXkXkXkXkXkXkXkXkXkXkXkXkXkXkXkXkXkX XkXkXkXkXkXkXkXkXkXkXkXkXkXkXkXkXkXkXkXkXkXkXkXkXkX",
"kXkXkXkXkXkXkXkXkXkXkXkXkXkXkXkXkXkXkXkXkXkX  ^.kXkXkXkXkXkXkXkXkXkXkXkXkXkXkXkXkXkXkXkXkXkXkXkX",
"kXkXkXkXkXkXkXkXkXkXkXkXkXkXkXkXkXkXkXkXkXkX  , R.kXkXkXkXkXkXkXkXkXkXkXkXkXkXkXkXkXkXkXkXkXkXkX",
"kXkXkXkXkXkXkXkXkXkXkXkXkXkXkXkXkXkXkXkXkXkX  B.t G.jXkXkXkXkXkXkXkXkXkXkXkXkXkXkXkXkXkXkXkXkXkX",
"kXkXkXkXkXkXkXkXkXkXkXkXkXkXkXkXkXkXkXkXkXkX  A.Z.N <.pXkXkXkXkXkXkXkXkXkXkXkXkXkXkXkXkXkXkXkXkX",
"kXkXkXkXkXkXkXkXkXkXkXkXkXkXkXkXkXkXkXkXkXkX  b.=.l.K B 4XkXkXkXkXkXkXkXkXkXkXkXkXkXkXkXkXkXkXkX",
"kXkXkXkXkXkXkXkXkXkXkXkXkXkXkXkXkXkXkXkXkXkX  x.(  .s.E 7 %XkXkXkXkXkXkXkXkXkXkXkXkXkXkXkXkXkXkX",
"kXkXkXkXkXkXkXkXkXkXkXkXkXkXkXkXkXkXkXkXkXkX  h.( Q ( i.2.- }.kXkXkXkXkXkXkXkXkXkXkXkXkXkXkXkXkX",
"kXkXkXkXkXkXkXkXkXkXkXkXkXkXkXkXkXkXkXkXkXkX  g.( Q Q ! q.7.; Q.kXkXkXkXkXkXkXkXkXkXkXkXkXkXkXkX",
"kXkXkXkXkXkXkX  X X X X X X X X X X X X X X   a.( Q Q Q Q ,.e.4 Y.kXkXkXkXkXkXkXkXkXkXkXkXkXkXkX",
"kXkXkXkXkXkXkX  P.S.C.V.N.m.v.c.z.k.j.g.f.d.p.l.( Q Q Q Q Q -.t.e u.gXkXkXkXkXkXkXkXkXkXkXkXkXkX",
"kXkXkXkXkXkXkX  I.) ) ) ) ) ) ) ) ) ( ( ( ( ( ( Q Q Q Q Q Q Q X.r.M W rXkXkXkXkXkXkXkXkXkXkXkXkX",
"kXkXkXkXkXkXkX  L.Q Q Q Q Q Q Q Q Q Q Q Q Q Q Q Q Q Q Q Q Q Q Q  .w.S m <XkXkXkXkXkXkXkXkXkXkXkX",
"kXkXkXkXkXkXkX  F.Q Q Q Q Q Q Q Q Q Q Q Q Q Q Q Q Q Q Q Q Q Q Q Q ( 0.P 2 .XkXkXkXkXkXkXkXkXkXkX",
"kXkXkXkXkXkXkX  D.Q Q Q Q Q Q Q Q Q Q Q Q Q Q Q Q Q Q Q Q Q Q Q Q Q / >.' % {.kXkXkXkXkXkXkXkXkX",
"kXkXkXkXkXkXkX  C.Q Q Q Q Q Q Q Q Q Q Q Q Q Q Q Q Q Q Q Q Q Q Q Q Q Q ! ;.o.= E.kXkXkXkXkXkXkXkX",
"kXkXkXkXkXkXkX  M.Q Q Q Q Q Q Q Q Q Q Q Q Q Q Q Q Q Q Q Q Q Q Q Q Q Q Q Q +.@.< K.kXkXkXkXkXkXkX",
"kXkXkXkXkXkXkX  n.Q Q Q Q Q Q Q Q Q Q Q Q Q Q Q Q Q Q Q Q Q Q Q Q Q Q Q Q Q ..:.0 R sXkXkXkXkXkX",
"kXkXkXkXkXkXkX  9.y y y y y y y y y y y y y y y y y y y y y y y y y y y y y f F 3 w rXkXkXkXkXkX",
"kXkXkXkXkXkXkX  8.y y y y y y y y y y y y y y y y y y y y y y y y y y y y h Z ; y.gXkXkXkXkXkXkX",
"kXkXkXkXkXkXkX  6.y y y y y y y y y y y y y y y y y y y y y y y y y y y x k # U.kXkXkXkXkXkXkXkX",
"kXkXkXkXkXkXkX  5.y y y y y y y y y y y y y y y y y y y y y y y y y u b s @ Q.kXkXkXkXkXkXkXkXkX",
"kXkXkXkXkXkXkX  4.y y y y y y y y y y y y y y y y y y y y y y y y i A r * |.kXkXkXkXkXkXkXkXkXkX",
"kXkXkXkXkXkXkX  *.y y y y y y y y y y y y y y y y y y y y y y y p A q 8 &XkXkXkXkXkXkXkXkXkXkXkX",
"kXkXkXkXkXkXkX  &.y y y y y y y y y y y y y y y y y y y y y y d C 5 Y 9XkXkXkXkXkXkXkXkXkXkXkXkX",
"kXkXkXkXkXkXkX  %.$.#.O.| } { [ ] ` _ ^ ~ U I L i y y y y y g c : 3.aXkXkXkXkXkXkXkXkXkXkXkXkXkX",
"kXkXkXkXkXkXkX  . . . . . . . . . . . . . .   J u y y y y h j $ J.jXkXkXkXkXkXkXkXkXkXkXkXkXkXkX",
"kXkXkXkXkXkXkX9X9X9X9X9X9X9X9X9X9X3X2X2X1X1X  H u y y y z a O W.kXkXkXkXkXkXkXkXkXkXkXkXkXkXkXkX",
"kXkXkXkXkXkXkXkXkXkXkXhXdXiXuXyXtXeXwXqXqX0X  G u y u v 9 + !.tXyXuXiXdXhXkXkXkXkXkXkXkXkXkXkXkX",
"kXkXkXkXkXkXkXkXfXdXuXtXeXqX0X8X6X5X,X>X:X:X  D u i v 6 > /.5X6X8X0XqXeXtXuXdXfXkXkXkXkXkXkXkXkX",
"kXkXkXkXkXkXfXiXyXeXwX0X7X5X,X:X-X=X*X$X#X#X  A d x 1 n (.*X=X-X:X,X5X7X0XwXeXyXiXfXkXkXkXkXkXkX",
"kXkXkXkXkXfXiXyXeXqX8X6X,X:X-X*X$X@X+XOXXX[.  V l & T `.OX+X@X$X*X-X:X,X6X8XqXeXyXiXfXkXkXkXkXkX",
"kXkXkXkXhXdXuXtXwX0X7X5X>X-X*X$X@X+XoX[.'._.  j @ 1.).'.[.oX+X@X$X*X-X>X5X7X0XwXtXuXdXhXkXkXkXkX",
"kXkXkXkXkXfXiXyXeXqX8X6X,X:X-X*X$X@X+XOXXX[.  o H.].[.XXOX+X@X$X*X-X:X,X6X8XqXeXyXiXfXkXkXkXkXkX",
"kXkXkXkXkXkXfXiXyXeXwX0X7X5X,X:X-X=X*X$X#X#X  T.@X@X#X#X$X*X=X-X:X,X5X7X0XwXeXyXiXfXkXkXkXkXkXkX",
"kXkXkXkXkXkXkXkXfXdXuXtXeXqX0X8X6X5X,X>X:X:X~.;X;X;X:X:X>X,X5X6X8X0XqXeXtXuXdXfXkXkXkXkXkXkXkXkX",
"kXkXkXkXkXkXkXkXkXkXkXhXdXiXuXyXtXeXwXqXqX0X0X0X0X0X0XqXqXwXeXtXyXuXiXdXhXkXkXkXkXkXkXkXkXkXkXkX",
"kXkXkXkXkXkXkXkXkXkXkXkXkXkXkXkXkXhXfXfXdXdXdXdXdXdXdXdXfXfXhXkXkXkXkXkXkXkXkXkXkXkXkXkXkXkXkXkX",
"kXkXkXkXkXkXkXkXkXkXkXkXkXkXkXkXkXkXkXkXkXkXkXkXkXkXkXkXkXkXkXkXkXkXkXkXkXkXkXkXkXkXkXkXkXkXkXkX",
"kXkXkXkXkXkXkXkXkXkXkXkXkXkXkXkXkXkXkXkXkXkXkXkXkXkXkXkXkXkXkXkXkXkXkXkXkXkXkXkXkXkXkXkXkXkXkXkX"
};
