/* XPM */
static char * no_access_xpm[] = {
"64 64 227 2",
"  	c None",
". 	c #222222",
"+ 	c #090A0A",
"@ 	c #0B0B0D",
"# 	c #0B0C0E",
"$ 	c #0B0C0F",
"% 	c #0C0D0F",
"& 	c #0C0D10",
"* 	c #0C0D11",
"= 	c #0C0E11",
"- 	c #0D0E11",
"; 	c #0D0E12",
"> 	c #0E0F12",
", 	c #0E0F13",
"' 	c #0E1013",
") 	c #0F1013",
"! 	c #0B0C0C",
"~ 	c #616161",
"{ 	c #19191B",
"] 	c #160E00",
"^ 	c #332500",
"/ 	c #352600",
"( 	c #362700",
"_ 	c #382900",
": 	c #392A00",
"< 	c #3B2B00",
"[ 	c #3C2C00",
"} 	c #3E2D00",
"| 	c #402F00",
"1 	c #413000",
"2 	c #433100",
"3 	c #443200",
"4 	c #463300",
"5 	c #483400",
"6 	c #493500",
"7 	c #4B3600",
"8 	c #4C3800",
"9 	c #4E3900",
"0 	c #4F3A00",
"a 	c #513B00",
"b 	c #523C00",
"c 	c #543E00",
"d 	c #563F00",
"e 	c #574000",
"f 	c #594100",
"g 	c #5B4200",
"h 	c #5D4400",
"i 	c #5E4500",
"j 	c #604600",
"k 	c #614700",
"l 	c #614800",
"m 	c #624800",
"n 	c #624900",
"o 	c #644A00",
"p 	c #564000",
"q 	c #000000",
"r 	c #595959",
"s 	c #1A1B1C",
"t 	c #281D00",
"u 	c #5B4300",
"v 	c #604700",
"w 	c #634900",
"x 	c #654B00",
"y 	c #684C00",
"z 	c #6B4F00",
"A 	c #6D5000",
"B 	c #705300",
"C 	c #725500",
"D 	c #765700",
"E 	c #785900",
"F 	c #7B5A00",
"G 	c #7D5C00",
"H 	c #7F5E00",
"I 	c #826000",
"J 	c #846200",
"K 	c #876400",
"L 	c #896500",
"M 	c #8C6700",
"N 	c #8E6900",
"O 	c #916C00",
"P 	c #936D00",
"Q 	c #976E00",
"R 	c #9A7100",
"S 	c #9C7400",
"T 	c #9E7600",
"U 	c #A17800",
"V 	c #A47A00",
"W 	c #8C6902",
"X 	c #050200",
"Y 	c #59595A",
"Z 	c #271C00",
"` 	c #533E00",
" .	c #584100",
"..	c #5D4500",
"+.	c #654A00",
"@.	c #684D00",
"#.	c #6A4E00",
"$.	c #FFFFFF",
"%.	c #836100",
"&.	c #856200",
"*.	c #886400",
"=.	c #8A6600",
"-.	c #8D6900",
";.	c #8F6A00",
">.	c #926B00",
",.	c #956E00",
"'.	c #977000",
").	c #997200",
"!.	c #9F7600",
"~.	c #886602",
"{.	c #1A1B1D",
"].	c #00FFFF",
"^.	c #1B1B1D",
"/.	c #9C7300",
"(.	c #9E7500",
"_.	c #A17700",
":.	c #A07700",
"<.	c #A47900",
"[.	c #1C1C1D",
"}.	c #150E00",
"|.	c #2F2300",
"1.	c #312400",
"2.	c #322500",
"3.	c #564002",
"4.	c #584202",
"5.	c #594302",
"6.	c #5B4503",
"7.	c #5C4503",
"8.	c #5C4504",
"9.	c #5C4604",
"0.	c #5D4605",
"a.	c #5D4705",
"b.	c #5E4706",
"c.	c #5F4807",
"d.	c #614A07",
"e.	c #534008",
"f.	c #010000",
"g.	c #595A5A",
"h.	c #1E1E1E",
"i.	c #000206",
"j.	c #010307",
"k.	c #020308",
"l.	c #020408",
"m.	c #030509",
"n.	c #04060A",
"o.	c #05070B",
"p.	c #06080C",
"q.	c #07090D",
"r.	c #080A0E",
"s.	c #090A0F",
"t.	c #0A0B10",
"u.	c #0A0C11",
"v.	c #5A5A5A",
"w.	c #060606",
"x.	c #070707",
"y.	c #080808",
"z.	c #090909",
"A.	c #0A0A0A",
"B.	c #0B0B0B",
"C.	c #0C0C0C",
"D.	c #0D0D0D",
"E.	c #0E0E0E",
"F.	c #0F0F0F",
"G.	c #101010",
"H.	c #151515",
"I.	c #191919",
"J.	c #131313",
"K.	c #1C1C1C",
"L.	c #181818",
"M.	c #111111",
"N.	c #1F1F1F",
"O.	c #1B1B1B",
"P.	c #1A1A1A",
"Q.	c #1D1D1D",
"R.	c #0000FF",
"S.	c #202020",
"T.	c #121212",
"U.	c #161616",
"V.	c #171717",
"W.	c #212121",
"X.	c #141414",
"Y.	c #232323",
"Z.	c #010101",
"`.	c #020202",
" +	c #040404",
".+	c #050505",
"++	c #030303",
"@+	c #242424",
"#+	c #252525",
"$+	c #5B5B5B",
"%+	c #262626",
"&+	c #343434",
"*+	c #3C3C3C",
"=+	c #3D3D3D",
"-+	c #3E3E3E",
";+	c #3F3F3F",
">+	c #414141",
",+	c #424242",
"'+	c #434343",
")+	c #454545",
"!+	c #363636",
"~+	c #6E6E6E",
"{+	c #464646",
"]+	c #525252",
"^+	c #A1A1A1",
"/+	c #2A2A2A",
"(+	c #959595",
"_+	c #2F2F2F",
":+	c #9C9C9C",
"<+	c #272727",
"[+	c #484848",
"}+	c #9B9B9B",
"|+	c #4A4A4A",
"1+	c #313131",
"2+	c #4B4B4B",
"3+	c #333333",
"4+	c #4D4D4D",
"5+	c #353535",
"6+	c #9A9A9A",
"7+	c #4F4F4F",
"8+	c #373737",
"9+	c #505050",
"0+	c #393939",
"a+	c #3B3B3B",
"b+	c #4C4C4C",
"c+	c #606060",
"d+	c #9D9D9D",
"                                                                                                                                ",
"      . + @ @ @ # # # # # # # # # # $ $ $ $ % $ $ % % & & & & & & & * * * = - - - ; ; ; ; ; > > > > > , ' ' , ) ! ~             ",
"      { ] ^ ^ / ( _ : < [ } | 1 2 3 4 5 6 7 8 9 0 a b c d e f g h i j k l l m m m m m m m m m n n n n n n n o p q r             ",
"      s t e p f u i v w x y z A B C D E F G H I J K L M N O P Q R S T U U U U U U U U U U U U U U U U U U U V W X Y             ",
"      s Z c ` d  .u ..v n +.@.#.$.$.$.$.$.$.$.$.$.%.&.*.=.-.;.>.,.'.).S S S S S S S S S S S S S S S S S S S !.~.X Y             ",
"      {.Z c ` d  .u ..v n $.$.$.].].].].].].].].].$.$.$.=.-.;.>.,.'.).S S S S S S S S S S S S S S S S S S S !.~.X Y             ",
"      ^.Z c ` d  .u ..v $.].].].].].].].].].].].].].].].$.-.;.>.,.'.).S S S S S S S S S S S S S S S S S S S !.~.X Y             ",
"      ^.t e p f u i $.$.].].].].].].].].].].].].].].].].].$.$.Q R /.(._._._._._._._._._._._._._._._._._.:.:.<.W X Y             ",
"      [.}.|.|.1.2.$.].].].].].].].].].].].].].].].].].].].].].$.3.4.5.6.6.7.7.8.8.9.9.0.0.0.a.a.b.b.b.b.c.c.d.e.f.g.            ",
"      h.q q q q $.].].].].].].].].].].].].].].].].].].].].].].].$.i.i.j.k.l.l.m.m.n.n.o.o.p.p.q.q.r.s.s.t.t.u.; q v.            ",
"      h.q q q q $.].].].].].].].].].].].].].].].].].].].].].].].$.w.x.x.y.y.y.z.z.A.B.B.B.C.C.D.D.E.E.F.F.G.G.H.q v.            ",
"      h.q q q $.].].].].].].].].].].].].].].].].].].].].].].].].].$.x.x.y.y.z.z.A.A.B.B.C.C.D.D.E.E.E.F.G.G.G.I.q v.            ",
"      h.q q $.].].].].].].].].].].].].].].].].].].].].].].].].].].].$.y.y.y.z.A.A.B.B.B.C.C.D.D.E.E.F.F.G.G.J.K.q v.            ",
"      h.q q $.].].].].].].].].].].].].].].].].].].].].].].].].].].].$.y.y.z.z.A.A.B.B.C.C.D.D.E.E.F.F.G.G.G.L.K.q v.            ",
"      h.q q $.].].].].].].].].].].].].].].].].].].].].].].].].].].].$.y.z.z.A.A.B.B.B.C.C.D.D.E.E.F.F.G.G.M.K.K.q v.            ",
"      N.q $.].].].].].].].].].].].].].].].].].].].].].].].].].].].].].$.z.z.A.A.B.B.C.C.D.D.E.E.F.F.G.G.G.H.h.O.q v.            ",
"      N.q $.].].].$.$.$.$.$.$.$.$.$.$.$.$.$.$.$.$.$.$.$.$.$.$.$.].].].$.z.A.A.B.B.B.C.C.D.D.E.E.F.F.G.G.M.P.Q.P.q v.            ",
"      N.q $.].].].$.R.R.R.R.R.R.R.R.R.R.R.R.R.R.R.R.R.R.R.R.R.$.].].].$.z.A.A.B.B.C.C.D.D.E.E.F.F.G.G.G.H.K.K.P.q v.            ",
"      S.q $.].].].$.R.R.R.R.R.R.R.R.R.R.R.R.R.R.R.R.R.R.R.R.R.$.].].].$.A.A.B.B.B.C.D.D.E.E.E.F.F.G.G.T.I.O.O.I.q v.            ",
"      S.q $.].].].$.R.R.R.R.R.R.R.R.R.R.R.R.R.R.R.R.R.R.R.R.R.$.].].].$.A.A.B.B.C.C.D.D.E.E.F.F.G.G.G.U.O.O.O.I.q v.            ",
"      S.q $.].].].$.R.R.R.R.R.R.R.R.R.R.R.R.R.R.R.R.R.R.R.R.R.$.].].].$.A.B.B.C.C.D.D.E.E.E.F.F.G.G.J.I.P.P.P.L.q v.            ",
"      S.q $.].].].$.R.R.R.R.R.R.R.R.R.R.R.R.R.R.R.R.R.R.R.R.R.$.].].].$.A.B.B.C.C.D.D.E.E.F.F.G.G.M.V.I.I.I.I.V.q v.            ",
"      W.q $.].].].$.R.R.R.R.R.R.R.R.R.R.R.R.R.R.R.R.R.R.R.R.R.$.].].].$.B.B.C.C.D.D.E.E.E.F.F.G.G.U.I.I.I.I.I.V.q v.            ",
"      W.q $.].].].$.$.$.$.$.$.$.$.$.$.$.$.$.$.$.$.$.$.$.$.$.$.$.].].].$.B.B.C.C.D.D.E.E.F.F.G.G.J.L.L.L.L.L.L.U.q v.            ",
"      W.q q $.].].].].].].].].].].].].].].].].].].].].].].].].].].].$.B.B.C.C.D.D.E.E.E.F.F.G.T.V.L.L.L.L.L.L.U.q v.            ",
"      W.q q $.].].].].].].].].].].].].].].].].].].].].].].].].].].].$.B.B.C.C.D.D.E.E.F.F.G.M.U.V.V.V.V.V.V.V.H.q v.            ",
"      . q q $.].].].].].].].].].].].].].].].].].].].].].].].].].].].$.B.C.C.D.D.E.E.E.F.F.M.H.U.U.U.U.U.U.U.U.X.q v.            ",
"      . q q q $.].].].].].].].].].].].].].].].].].].].].].].].].].$.B.B.C.C.D.D.E.E.F.F.M.H.U.U.U.U.U.U.U.U.U.X.q v.            ",
"      . q q q q $.].].].].].].].].].].].].].].].].].].].].].].].$.B.B.C.C.D.D.E.E.F.F.T.H.H.H.H.H.H.H.H.H.H.H.J.q v.            ",
"      Y.q q q q $.].].].].].].].].].].].].].].].].].].].].].].].$.B.B.C.C.D.D.E.E.G.T.X.H.H.H.H.H.H.H.H.H.H.H.J.q v.            ",
"      Y.q q q q q $.].].].].].].].].].].].].].].].].].].].].].$.B.B.C.C.D.D.E.E.G.J.X.X.X.X.X.X.X.X.X.X.X.X.X.T.q v.            ",
"      Y.q q q q q q $.$.].].].].].].].].].].].].].].].].].$.$.A.B.B.C.C.D.D.F.M.J.X.X.X.X.X.X.X.X.X.X.X.X.X.X.T.q v.            ",
"      Y.q q q q q q q Z.$.].].].].].].].].].].].].].].].$.A.A.B.B.C.C.D.D.G.T.J.J.J.J.J.J.J.J.J.J.J.J.J.J.J.J.M.q v.            ",
"      Y.q `.q q q q Z.Z.`.$.$.$.].].].].].].].].].$.$.$.z.A.B.B.B.C.D.F.M.J.J.J.T.T.T.T.T.T.T.T.T.T.T.T.T.T.T.M.q v.            ",
"      Y. +M.B..+Z.q q Z.`.`.++++$.$.$.$.$.$.$.$.$.y.z.z.A.A.B.B.D.F.M.T.T.T.T.T.T.T.T.T.T.T.T.T.T.T.T.T.T.T.T.M.q v.            ",
"      Y.++T.T.M.F.B.x. +++++`.++ + +.+.+w.x.x.y.y.y.z.A.A.C.E.G.M.M.M.M.M.M.M.M.M.M.M.M.M.M.M.M.M.M.M.M.M.M.M.G.q v.            ",
"      @+++T.M.M.M.T.M.G.E.C.A.z.y.x.x.x.x.y.z.A.B.C.E.F.G.M.M.M.M.M.M.M.M.M.M.M.M.M.M.M.M.M.M.M.M.M.M.M.M.M.M.G.q v.            ",
"      @+++M.G.G.G.G.G.G.G.M.M.G.G.G.G.G.G.G.G.G.G.G.G.G.G.G.G.G.G.G.G.G.G.G.G.G.G.G.G.G.G.G.G.G.G.G.G.G.G.G.G.F.q v.            ",
"      @+++M.G.G.G.G.G.G.G.G.G.G.G.G.G.G.G.G.G.G.G.G.G.G.G.G.G.G.G.G.G.G.G.G.G.G.G.G.G.G.G.G.G.G.G.G.G.G.G.G.G.F.q v.            ",
"      @+++G.F.F.F.F.F.F.F.F.F.F.F.F.F.F.F.F.F.F.F.F.F.F.F.F.F.F.F.F.F.F.F.F.F.F.F.F.F.F.F.F.F.F.F.F.F.F.F.F.F.E.q v.            ",
"      @+++G.F.F.F.F.F.F.F.F.F.F.F.F.F.F.F.F.F.F.F.F.F.F.F.F.F.F.F.F.F.F.F.F.F.F.F.F.F.F.F.F.F.F.F.F.F.F.F.F.F.E.q v.            ",
"      #+`.F.E.E.E.E.E.E.E.E.E.E.E.E.E.E.E.E.E.E.E.E.E.E.E.E.E.E.E.E.E.E.E.E.E.E.E.E.E.E.E.E.E.E.E.E.E.E.E.E.E.D.q v.            ",
"      #+Z.E.D.D.D.D.D.D.D.D.D.D.D.D.D.D.D.D.D.D.D.D.D.D.D.D.D.D.D.D.D.D.D.D.D.D.D.D.D.D.D.D.D.D.D.D.D.D.D.D.D.C.q v.            ",
"      #+Z.D.D.D.D.D.D.D.D.D.D.D.D.D.D.D.D.D.D.D.D.D.D.D.D.D.D.D.D.D.D.D.D.D.D.D.G.T.M.M.M.M.M.M.M.G.G.G.G.G.G.F.q $+            ",
"      %+Z.C.C.C.C.C.C.C.C.C.C.C.C.C.C.C.C.C.C.C.C.C.C.C.C.C.C.C.C.C.C.C.C.C.C.B.P.&+*+=+-+;+>+,+'+)+)+)+)+)+)+)+!+~+            ",
"      %+Z.C.C.C.C.C.C.C.C.C.C.C.C.C.C.C.C.C.C.C.C.C.C.C.C.C.C.C.C.C.C.C.C.C.C.B.P.{+. N.S.W.. @+#+%+%+%+%+%+%+W.]+^+            ",
"      %+Z.B.B.B.B.B.B.B.B.B.B.B.B.B.B.B.B.B.B.B.B.B.B.B.B.B.B.B.B.B.B.B.B.B.B.A.I.'+`.q q q q q q q q q q q q /+(+              ",
"      %+Z.B.B.B.B.B.B.B.B.B.B.B.B.B.B.B.B.B.B.B.B.B.B.B.B.B.B.B.B.B.B.B.B.B.B.A.I.{+x. +++++`.`.Z.Z.q q q q _+:+                ",
"      <+Z.A.A.A.A.A.A.A.A.A.A.A.A.A.A.A.A.A.A.A.A.A.A.A.A.A.A.A.A.A.A.A.A.A.A.z.L.[+y.x.w.w..+ + +++`.Z.q _+}+                  ",
"      <+q A.A.A.A.A.A.A.A.A.A.A.A.A.A.A.A.A.A.A.A.A.A.A.A.A.A.A.A.A.A.A.A.A.A.y.L.|+z.z.z.y.y.x.w.w..+q 1+}+                    ",
"      <+q z.z.z.z.z.z.z.z.z.z.z.z.z.z.z.z.z.z.z.z.z.z.z.z.z.z.z.z.z.z.z.z.z.z.x.V.2+B.C.B.B.A.A.z.y.++3+:+                      ",
"      <+q z.z.z.z.z.z.z.z.z.z.z.z.z.z.z.z.z.z.z.z.z.z.z.z.z.z.z.z.z.z.z.z.z.z.x.V.4+C.F.E.E.D.C.C.w.5+6+                        ",
"      <+q z.z.z.z.z.z.z.z.z.z.z.z.z.z.z.z.z.z.z.z.z.z.z.z.z.z.z.z.z.z.z.z.z.z.x.V.7+D.M.M.G.G.F.z.8+6+                          ",
"      <+q y.y.y.y.y.y.y.y.y.y.y.y.y.y.y.y.y.y.y.y.y.y.y.y.y.y.y.y.y.y.y.y.y.y.w.V.9+E.X.J.J.T.D.0+6+                            ",
"      <+q y.y.y.y.y.y.y.y.y.y.y.y.y.y.y.y.y.y.y.y.y.y.y.y.y.y.y.y.y.y.y.y.y.y.w.V.9+F.V.U.U.M.a+:+                              ",
"      <+q x.x.x.x.x.x.x.x.x.x.x.x.x.x.x.x.x.x.x.x.x.x.x.x.x.x.x.x.x.x.x.x.x.x..+H.9+G.P.I.X.=+}+                                ",
"      <+q x.x.x.x.x.x.x.x.x.x.x.x.x.x.x.x.x.x.x.x.x.x.x.x.x.x.x.x.x.x.x.x.x.x..+H.9+M.K.V.;+}+                                  ",
"      <+q w.w.w.w.w.w.w.w.w.w.w.w.w.w.w.w.w.w.w.w.w.w.w.w.w.w.w.w.w.w.w.w.w.w. +X.7+M.O.>+}+                                    ",
"      <+q w.w.w.w.w.w.w.w.w.w.w.w.w.w.w.w.w.w.w.w.w.w.w.w.w.w.w.w.w.w.w.w.w.w. +X.7+E.'+:+                                      ",
"      #+q Z.Z.Z.Z.Z.Z.Z.Z.Z.Z.Z.Z.Z.Z.Z.Z.Z.Z.Z.Z.Z.Z.Z.Z.Z.Z.Z.Z.Z.Z.Z.Z.Z.Z.q M.b+0+:+                                        ",
"      5+L.K.K.K.K.K.K.K.K.K.K.K.K.K.K.K.K.K.K.K.K.K.K.K.K.K.K.K.K.K.K.K.K.K.K.O.%+c+d+                                          ",
"                                                                                                                                ",
"                                                                                                                                ",
"                                                                                                                                "};
