/* XPM */
static char *options[] = {
/* columns rows colors chars-per-pixel */
"48 48 114 2",
"   c #DB5FB2DB7694",
".  c #D510ACB67248",
"X  c #CA5EA3A66BBB",
"o  c #C6339E2B6684",
"O  c #D6B9A1845252",
"+  c #D3449E6550FB",
"@  c #CDCD9A9A4EAE",
"#  c #CA4996964CCD",
"$  c #C58592B24B0B",
"%  c #C0C08D8D4848",
"&  c #BB349B976D01",
"*  c #BEF099CA6418",
"=  c #BDDE966B62E1",
"-  c #B1A691FF63B4",
";  c #AC7B905E699D",
":  c #AAB18D5E6342",
">  c #A2BA893D6302",
",  c #964F82B4654C",
"<  c #B51990AE5A8C",
"1  c #B41D8EB65990",
"2  c #B3F58B16555C",
"3  c #AC978BC85C06",
"4  c #ADFC8A0E548D",
"5  c #A69785945784",
"6  c #BC118D8D4848",
"7  c #B32083834343",
"8  c #AD4D83234BEC",
"9  c #AFAF81814141",
"0  c #878779796C6C",
"q  c #838375756A6A",
"w  c #A3F979794298",
"e  c #A54F77774040",
"r  c #93F27BA55CF0",
"t  c #834C71995757",
"y  c #929276764CF7",
"u  c #9E9E7B7B4545",
"i  c #ACAC7C7C3F3F",
"p  c #A32374CA3BE6",
"a  c #989872723A3A",
"s  c #959572723F3F",
"d  c #98986A6A358B",
"f  c #96DF69443535",
"g  c #86FF63FF3C00",
"h  c #8D376A4D3653",
"j  c #8E02610430BC",
"k  c #840362E23333",
"l  c #86DC5BB12E2E",
"z  c #7ACA7ACA7AE6",
"x  c #787F757F787F",
"c  c #772E758479D8",
"v  c #735273257382",
"b  c #6DE16C4E71C2",
"n  c #777771716F6F",
"m  c #6B046ABD6C16",
"M  c #676768686868",
"N  c #63B962EA6B01",
"B  c #638462D464AC",
"V  c #5D5D5D5D6767",
"C  c #72A965605133",
"Z  c #79A161C04040",
"A  c #5C365C1F5C7E",
"S  c #566C55AF5BEF",
"D  c #53545321548F",
"F  c #4DC14CC551B1",
"G  c #505C4F674E72",
"H  c #4AB24AB74B3E",
"J  c #474648404840",
"K  c #484847474C4C",
"L  c #44C344F549C4",
"P  c #484848484726",
"I  c #4A4546544044",
"U  c #41C842454318",
"Y  c #3FB840B341AE",
"T  c #74FF56FF3200",
"R  c #664C52343742",
"E  c #7B7B54292A2A",
"W  c #72F852E12BC7",
"Q  c #71714C4C2626",
"!  c #68E84CCD2B2B",
"~  c #659849E3295C",
"^  c #69694B4B2727",
"/  c #620C43EE2323",
"(  c #5DDE404020E1",
")  c #5CDD3F3F2020",
"_  c #44353B592D2D",
"`  c #5A5A3D931EC9",
"'  c #3D813CC63A5A",
"]  c #383837373C3C",
"[  c #34DF34DF39E4",
"{  c #399938F93673",
"}  c #38533734352F",
"|  c #339133BD3362",
" . c #31362F3E3008",
".. c #2EF22E8630D4",
"X. c #2A9E2B642C59",
"o. c #272729292A2A",
"O. c #2634261928A7",
"+. c #22D5231823B5",
"@. c #1DCD1D7520D3",
"#. c #393D2E271EE1",
"$. c #34FE2B3A1C95",
"%. c #2D3624991820",
"&. c #1B341B701BAB",
"*. c #161618181A1A",
"=. c #14AE167D1865",
"-. c #13D3146314C7",
";. c #0F0F10101144",
":. c #0D630EE41010",
">. c #1C18170E0F1E",
",. c #11160E04090E",
"<. c #0AF20B650BDB",
"1. c #070707070808",
"2. c #08B106AE04AB",
"3. c #002600250025",
/* pixels */
"3.3.3.3.3.3.3.3.3.3.3.3.3.3.3.3.3.3.3.3.3.3.3.3.3.3.3.3.3.3.3.3.3.3.3.3.3.3.3.3.3.3.3.3.3.3.3.3.",
"3.3.3.3.3.3.3.3.3.3.3.3.3.3.3.3.3.3.3.3.3.3.3.3.3.3.3.3.3.3.3.3.3.3.3.3.3.3.3.3.3.3.3.3.3.3.3.3.",
"3.3.3.3.3.3.3.3.3.3.3.3.3.3.3.3.3.3.3.3.3.3.3.3.3.3.3.3.3.3.3.3.3.3.3.3.3.3.3.3.3.3.3.3.3.3.3.3.",
"3.3.3.3.3.3.3.3.3.3.3.3.3.3.3.3.3.3.3.3.3.3.3.3.3.3.3.3.3.3.3.3.3.3.3.3.3.3.3.3.3.3.3.3.3.3.3.3.",
"3.3.3.3.3.3.3.3.3.3.3.3.3.3.3.3.3.3.3.3.3.3.3.3.3.3.3.3.3.3.3.3.3.3.3.3.3.3.3.3.3.3.3.3.3.3.3.3.",
"3.3.3.3.3.3.3.3.3.3.3.3.+.D M M D O.3.3.3.3.3.3.3.3.3.3.3.3.3.3.3.3.3.3.3.3.3.3.3.3.3.3.3.3.3.3.",
"3.3.3.3.3.3.3.3.3.3.3.A m +.<.<.&.D D 2.3.3.3.3.3.3.3.3.3.3.3.3.3.3.3.3.3.3.3.3.3.3.3.3.3.3.3.3.",
"3.3.3.3.3.3.3.3.3.3.3.v J 1.-.*.-.<.U A 2.3.3.3.3.3.3.3.3.3.3.3.3.3.3.3.3.@.c +.3.3.3.3.3.3.3.3.",
"3.3.3.3.3.3.3.3.3.3.3.2.B U <.=.*.=.<.U A 2.3.3.3.3.3.3.3.3.3.3.3.3.3.3.-.b H b +.3.3.3.3.3.3.3.",
"3.3.3.3.3.3.3.3.3.3.3.3.2.B U <.=.*.=.<.Y A 3.3.3.3.3.3.3.3.3.3.3.3.3.<.m L O.] b +.3.3.3.3.3.3.",
"3.3.3.3.3.3.3.S D 3.3.3.3.2.A U <.=.*.=.<.J ' 3.3.3.3.3.3.3.3.3.3.3.1.B F @.@.+.] b +.3.3.3.3.3.",
"3.3.3.3.3.3.O.m A H 3.3.3.3.2.A U 1.=.*.=.<.M 1.3.3.3.3.3.3.3.3.3.3.X.B +.:.-.&.+.D c 3.3.3.3.3.",
"3.3.3.3.3.3.A &.1.S H 3.3.3.3.2.z *.-.*.*.<.U X.3.3.3.3.3.3.3.3.3.3.S K <.1.<.&.K m =.3.3.3.3.3.",
"3.3.3.3.3.3.x <.-.<.S J 3.3.3.3.A &.-.*.*.<.] ' 3.3.3.3.3.3.3.3.3.| b [ O.<.&.D N <.3.3.3.3.3.3.",
"3.3.3.3.3.3.v <.*.-.<.A J 3.3.<.z -.-.*.*.1.D X.3.3.3.3.3.3.3.3.| m [ X.| L B A 1.3.3.3.3.3.3.3.",
"3.3.3.3.3.3.M -.=.*.-.<.A m H z ..<.=.*.-.;.z 1.3.3.3.3.3.3.3...b [ X.] v D ] 2.3.3.3.3.3.3.3.3.",
"3.3.3.3.3.3.} U <.=.*.-.<.O.O.*.<.=.*.*.<.-.z -.3.3.3.3.3.3...b [ X.] b O.3.3.3.3.3.3.3.3.3.3.3.",
"3.3.3.3.3.3.2.m | <.=.*.-.;.-.-.=.*.*.*.*.<.+.v -.3.3.3.3...m [ X.] b O.3.3.3.3.3.3.3.3.3.3.3.3.",
"3.3.3.3.3.3.3.<.m ..<.=.*.*.*.*.*.*.*.*.*.*.<.+.v -.3.3...b [ X.] b O.3.3.3.3.3.3.3.3.3.3.3.3.3.",
"3.3.3.3.3.3.3.3.<.m ..<.=.*.*.*.-.<.*.*.&.} } =.+.v -...b U ..] b O.3.3.3.3.3.3.3.3.3.3.3.3.3.3.",
"3.3.3.3.3.3.3.3.3.<.m } <.:.:.<.<.<.<.*.} ' ' ' =.+.x v S L L b O.3.3.3.3.3.3.3.3.3.3.3.3.3.3.3.",
"3.3.3.3.3.3.3.3.3.3.<.A B ' | J z z =.<.' ' ' ' ' =.+.z N S b O.3.3.3.3.3.3.3.3.3.3.3.3.3.3.3.3.",
"3.3.3.3.3.3.3.3.3.3.3.3.*.} ' | <.+.v =.&.' ' ' ' ' =.+.z v O.3.3.3.3.3.3.3.3.3.3.3.3.3.3.3.3.3.",
"3.3.3.3.3.3.3.3.3.3.3.3.3.3.3.3.3.3.+.v =.&.' ' ' ' ' =.+.x =.3.3.3.3.3.3.3.3.3.3.3.3.3.3.3.3.3.",
"3.3.3.3.3.3.3.3.3.3.3.3.3.3.3.3.3.3.3.+.v =.&.' ' ' ' ' =.+.v =.3.3.3.3.3.3.3.3.3.3.3.3.3.3.3.3.",
"3.3.3.3.3.3.3.3.3.3.3.3.3.3.3.3.,.>.3.3.+.v =.&.' ' ' ' { =.+.v =.3.3.3.3.3.3.3.3.3.3.3.3.3.3.3.",
"3.3.3.3.3.3.3.3.3.3.3.3.3.3.%.= * * X Z  .c x =.&.' ' ' { } -.+.v =.3.3.3.3.3.3.3.3.3.3.3.3.3.3.",
"3.3.3.3.3.3.3.3.3.3.3.3.3.$.X W ) ( ~ r x N m x =.&.' { { } | -.+.v =.3.3.3.3.3.3.3.3.3.3.3.3.3.",
"3.3.3.3.3.3.3.3.3.3.3.3.$.X ! / l j j v N V N c v =.&.} } | | | -.+.v =.3.3.3.3.3.3.3.3.3.3.3.3.",
"3.3.3.3.3.3.3.3.3.3.3.$.X ! / E j d p q b N x X.+.v =.&.| | | | X.-.+.v =.3.3.3.3.3.3.3.3.3.3.3.",
"3.3.3.3.3.3.3.3.3.3.$.X ! ( E j d p i 8 0 n > R 3.+.v =.&.| | X.X.X.;.+.v =.3.3.3.3.3.3.3.3.3.3.",
"3.3.3.3.3.3.3.3.3.#.X ~ ( E j d p 2 7 % # 6 s * 3.3.+.v =.*.X.X.X.X.o.;.+.v =.3.3.3.3.3.3.3.3.3.",
"3.3.3.3.3.3.3.3.#.X ~ ) E j f e = 8 7 # + O k   3.3.3.+.v =.*.X.X.o.o.o.;.+.v =.3.3.3.3.3.3.3.3.",
"3.3.3.3.3.3.3.#.X ~ ` E j f e = 8 7 $ + O @ h X 3.3.3.3.+.v -.=.o.o.o.o.O.<.+.v =.3.3.3.3.3.3.3.",
"3.3.3.3.3.3.%.X ~ ` E j f e = 8 7 $ + O @ h 2 Z 3.3.3.3.3.+.v -.=.o.o.o.O.=.<.+.v *.3.3.3.3.3.3.",
"3.3.3.3.3.3.5 T Q l j f e = 8 7 $ + O @ h 4 3 2.3.3.3.3.3.3.+.v -.=.o.O.&.*.=.<.+.v 1.3.3.3.3.3.",
"3.3.3.3.3.3.. ` j j f e = 8 9 $ + O @ h 4 3 2.3.3.3.3.3.3.3.3.+.v -.:.*.*.m M =.<.H X.3.3.3.3.3.",
"3.3.3.3.3.3.. ( l f p = 8 9 $ + O @ h 4 3 2.3.3.3.3.3.3.3.3.3.3.+.v -.:.*.M M *.<.H O.3.3.3.3.3.",
"3.3.3.3.3.3.y g W p 2 8 9 $ + O @ h 4 3 2.3.3.3.3.3.3.3.3.3.2.1.1.X.v -.:.*.*.<.+.m 1.3.3.3.3.3.",
"3.3.3.3.3.<._ X ^ f 7 7 $ + O @ h 4 - -.2.3.3.3.3.3.3.3.1.<.<.-.=.*.{ v -.<.<.+.v +.<.<.2.3.3.3.",
"3.3.3.1.=.+.X.r = W p $ + O @ h 2 & } O.&.<.3.3.3.3.3.1.<.-.=.&.+.+.o.U v } U v X.&.-.-.<.1.3.3.",
"3.3.3.-.&.X.{ P ; o k a 6 6 h 1 & H ' | +.-.1.3.3.3.3.1.<.-.=.&.+.O.X.X.{ H J o.+.&.=.-.<.1.3.3.",
"3.3.3.<.=.+.| ' H , . < w u = & G U | o.&.<.3.3.3.3.3.3.1.<.-.-.*.&.&.+.+.+.&.&.*.-.-.<.1.3.3.3.",
"3.3.3.3.2.-.&.+.X.| I t - : C { | o.&.-.1.3.3.3.3.3.3.3.3.3.1.1.<.<.-.-.-.-.-.<.<.1.2.3.3.3.3.3.",
"3.3.3.3.3.3.3.3.1.<.-.-.*.=.-.<.1.2.3.3.3.3.3.3.3.3.3.3.3.3.3.3.3.3.3.3.3.3.3.3.3.3.3.3.3.3.3.3.",
"3.3.3.3.3.3.3.3.3.3.3.3.3.3.3.3.3.3.3.3.3.3.3.3.3.3.3.3.3.3.3.3.3.3.3.3.3.3.3.3.3.3.3.3.3.3.3.3.",
"3.3.3.3.3.3.3.3.3.3.3.3.3.3.3.3.3.3.3.3.3.3.3.3.3.3.3.3.3.3.3.3.3.3.3.3.3.3.3.3.3.3.3.3.3.3.3.3.",
"3.3.3.3.3.3.3.3.3.3.3.3.3.3.3.3.3.3.3.3.3.3.3.3.3.3.3.3.3.3.3.3.3.3.3.3.3.3.3.3.3.3.3.3.3.3.3.3."
};
