/* XPM */
static char *pageblank[] = {
/* columns rows colors chars-per-pixel */
"16 18 5 1",
"  c #0100FF",
". c #0001FE",
"X c #0100FE",
"o c #0001FD",
"O c None",
/* pixels */
"OOOOOOOOOoOOOOOO",
"OOOOOOOOooOOOOOO",
"OOOOOOOOoooOOOOO",
"OOOOOOOOoXoOOOOO",
"OOOOOOoo. oooooo",
"OOOoooo.   XXooO",
"OOOOooX     ooOO",
"OOOOOooX   XoOOO",
"OOOOOOo.    oOOO",
"OOOOOOoXXooXoOOO",
"OOOOOOooooooooOO",
"OOOOOOooOOOOooOO",
"OOOOOOoOOOOOOOOO",
"OOOOOOOOOOOOOOOO",
"OOOOOOOOOOOOOOOO",
"OOOOOOOOOOOOOOOO",
"OOOOOOOOOOOOOOOO",
"OOOOOOOOOOOOOOOO"
};
