/* XPM */
static char * pages_xpm[] = {
"48 48 101 2",
"  	c None",
". 	c #000000",
"+ 	c #181818",
"@ 	c #4E4E4E",
"# 	c #535353",
"$ 	c #525252",
"% 	c #565656",
"& 	c #575757",
"* 	c #585858",
"= 	c #5B5B5B",
"- 	c #5C5C5C",
"; 	c #5D5D5D",
"> 	c #5E5E5E",
", 	c #696969",
"' 	c #464646",
") 	c #121212",
"! 	c #505050",
"~ 	c #101010",
"{ 	c #010101",
"] 	c #040404",
"^ 	c #050505",
"/ 	c #060606",
"( 	c #070707",
"_ 	c #636363",
": 	c #595959",
"< 	c #646464",
"[ 	c #3C3C3C",
"} 	c #020202",
"| 	c #1A1A1A",
"1 	c #202020",
"2 	c #1F1F1F",
"3 	c #1E1E1E",
"4 	c #1D1D1D",
"5 	c #1B1B1B",
"6 	c #434343",
"7 	c #3B3B3B",
"8 	c #3A3A3A",
"9 	c #080808",
"0 	c #1C1C1C",
"a 	c #212121",
"b 	c #363636",
"c 	c #262626",
"d 	c #2E2E2E",
"e 	c #3F3F3F",
"f 	c #161616",
"g 	c #303030",
"h 	c #343434",
"i 	c #4F4F4F",
"j 	c #191919",
"k 	c #414141",
"l 	c #2D2D2D",
"m 	c #4B4B4B",
"n 	c #454545",
"o 	c #444444",
"p 	c #090909",
"q 	c #2A2A2A",
"r 	c #313131",
"s 	c #353535",
"t 	c #323232",
"u 	c #0D0D0D",
"v 	c #272727",
"w 	c #333333",
"x 	c #656565",
"y 	c #404040",
"z 	c #171717",
"A 	c #424242",
"B 	c #111111",
"C 	c #2F2F2F",
"D 	c #5F5F5F",
"E 	c #616161",
"F 	c #626262",
"G 	c #676767",
"H 	c #686868",
"I 	c #6A6A6A",
"J 	c #707070",
"K 	c #3E3E3E",
"L 	c #393939",
"M 	c #4D4D4D",
"N 	c #737373",
"O 	c #727272",
"P 	c #151515",
"Q 	c #2C2C2C",
"R 	c #252525",
"S 	c #3D3D3D",
"T 	c #141414",
"U 	c #5A5A5A",
"V 	c #131313",
"W 	c #747474",
"X 	c #0F0F0F",
"Y 	c #0E0E0E",
"Z 	c #757575",
"` 	c #0A0A0A",
" .	c #0B0B0B",
"..	c #0C0C0C",
"+.	c #383838",
"@.	c #666666",
"#.	c #6C6C6C",
"$.	c #717171",
"%.	c #6F6F6F",
"&.	c #282828",
"*.	c #606060",
". . . . . . . . . . . . . . . . . . . . . . . . . . . . . . . . . . . . . . . . . . . . . . . . ",
". . . . . . . . . . . . . . . . . . . . . . . . . . . . . . . . . . . . . . . . . . . . . . . . ",
". . . . . . . . . . . . . . . . . . . . . . . . . . . . . . . . . . . . . . . . . . . . . . . . ",
". . . . . + @ # $ $ $ $ $ $ % & * = - ; > , ' ) . . . . . . . . . . . . . . . . . . . . . . . . ",
". . . . . ! ~ { ] ] ] ] ] ] ^ / / ( ( ( ( _ : < [ } . . . . . . . . . . . . . . . . . . . . . . ",
". . . . . % ( | 1 2 2 3 3 4 5 5 5 | | | | 6 7 8 % ! ( . . . . . . . . . . . . . . . . . . . . . ",
". . . . . % 9 0 a a 1 1 2 2 4 0 0 5 5 5 5 b 8 c b ! : / . . . . . . . . . . . . . . . . . . . . ",
". . . . . & 9 5 a 1 1 2 2 3 0 0 5 | | | | d e f g h i & ] . . . . . . . . . . . . . . . . . . . ",
". . . . . & 9 5 1 1 2 2 3 3 5 5 5 | | j j d k 9 l g h # m . . . . . . . . . . . . . . . . . . . ",
". . . . . & 9 | 2 2 k ' ' n o o o h j j j d 7 p q l r s = s . . . . . . . . . . . . . . . . . . ",
". . . . . & 9 | 2 3 3 4 4 4 | | j + + + + t l u v q d w 8 x f . . . . . . . . . . . . . . . . . ",
". . . . . & 9 | 3 3 y n n n 6 6 6 w z z z A + . . . B C s n D { . . . . . . . . . . . . . . . . ",
". . . . . * p | 3 4 4 0 0 5 j + + z z z z E F D E G , H I F J K . . . . . . . . . . . . . . . . ",
". . . . . * p j 4 4 e n o o 6 6 6 r f f f 0 C L o M * F F & F N m O . . . . . . . . . . . . . . ",
". . . . . : p j 4 0 0 5 5 | + z z f P P P P v g r Q R 0 z P ( O . O . . . . . . . . . . . . . . ",
". . . . . : p + 4 0 S A k k y y e g P P P P | f P P P P P T ( O . O m N . . . . . . . . . . . . ",
". . . . . U p + 0 5 0 4 4 0 j j j P T T T T T T T T T T P T ( O c O . N . . . . . . . . . . . . ",
". . . . . = p z 0 5 K o 6 6 A k k g T V V V V V V V T T T V ( O c O . N m N . . . . . . . . . . ",
". . . . . = p z 5 5 | j j + P P P V V V V V V V V V V V V V ( N c O c O . N . . . . . . . . . . ",
". . . . . - p z 5 | K 6 6 6 k k k e e e e e e e e e K T V ) ( N c O c O . N m N . . . . . . . . ",
". . . . . - p z | | j + + z T T V ) ) B B B B B B B B ) ) B ( N c N c O c O . N . . . . . . . . ",
". . . . . ; 9 z | j K 6 A A k y y e e e e K K K K e S V B B 9 N c N c O c O . N . . . . . . . . ",
". . . . . > 9 f | j + + z f V V ) ~ ~ ~ ~ ~ ~ ~ ~ ~ ~ ~ B ~ 9 W c N c N c O c O . . . . . . . . ",
". . . . . > 9 f j j S A A A y e e K K K K K K K K K [ ) ~ X 9 W c N c N c O c O . . . . . . . . ",
". . . . . D 9 f j + + z f f ) ) B X X X Y Y Y Y Y X X X X X 9 W c W c N c N c O . . . . . . . . ",
". . . . . D p f j + S A A k e e e S S S S S S S S S [ ~ X Y 9 Z c W c N c N c O . . . . . . . . ",
". . . . . _ ` P z f f P T T X Y Y ` ` p p p p p p p ` `  . .9 Z c W c W c N c N . . . . . . . . ",
". . . . . _ ` P z f 7 k k y K S S 7 7 7 8 8 8 8 8 7 L ..` ` 9 Z c Z c W c N c N . . . . . . . . ",
". . . . . < ` P z f P P T V X Y u ` p 9 9 ( ( ( 9 9 p p ` ` 9 Z c Z c W c W c N . . . . . . . . ",
". . . . . x ` P z f 7 k k y K S S 7 7 8 8 8 L 8 8 8 +. .` ` 9 Z c Z c Z c W c N . . . . . . . . ",
". . . . . x  .P z f P P T V X Y u p 9 9 ( / / / ( 9 9 p ` ` 9 Z c Z c Z c W c W . . . . . . . . ",
". . . . . @. .P z f 7 k k y K S S p 9 9 ( / ^ / ( ( 9 p ` ` 9 Z c Z c Z c Z c W . . . . . . . . ",
". . . . . @. .P z f P P T V X Y u p p 9 ( ( / / ( 9 9 p ` ` 9 Z c Z c Z c Z c W . . . . . . . . ",
". . . . } G  .P z f P P T V X Y u ` p 9 9 ( ( ( ( 9 p p ` ` 9 Z c Z c Z c Z c Z . . . . . . . . ",
". . . . ~ I  .P z f P P T V X Y u ` p p 9 9 9 9 9 9 p ` ` ` 9 Z c Z c Z c Z c Z . . . . . . . . ",
". . . . | I  .P z f f P T T X Y Y ` ` p p 9 9 9 p p ` `  .` 9 Z c Z c Z c Z c Z . . . . . . . . ",
". . . . 4 #...P z f f P T T X X Y  .` ` p p p p p ` `  . . .9 Z c Z c Z c Z c Z . . . . . . . . ",
". . . . | , u ( ( ( ( ( ( ( ( ( ( ( ( ( ( ( ( ( ( ( ( ( ( ( ( $.c Z c Z c Z c Z . . . . . . . . ",
". . . . ~ k J J J J J J J J J %.%.%.%.%.%.%.%.%.%.%.%.%.%.%.$.n 9 Z c Z c Z c Z . . . . . . . . ",
". . . . } X 0 c c &.&.&.&.&.&.&.&.&.&.&.&.&.&.&.&.&.&.&.c c 4 X ( $.c Z c Z c Z . . . . . . . . ",
". . . . . . ~ k J J J J J J J J J %.%.%.%.%.%.%.%.%.%.%.%.%.%.%.$.n 9 Z c Z c Z . . . . . . . . ",
". . . . . . } X 0 c c &.&.&.&.&.&.&.&.&.&.&.&.&.&.&.&.&.&.&.c c 4 X ( $.c Z c Z . . . . . . . . ",
". . . . . . . . ~ k J J J J J J J J J %.%.%.%.%.%.%.%.%.%.%.%.%.%.%.$.n 9 Z c Z . . . . . . . . ",
". . . . . . . . } X 0 c c &.&.&.&.&.&.&.&.&.&.&.&.&.&.&.&.&.&.&.c c 4 X ( $.c Z . . . . . . . . ",
". . . . . . . . . . ~ k J J J J J J J J J %.%.%.%.%.%.%.%.%.%.%.%.%.%.%.$.n ~ Z . . . . . . . . ",
". . . . . . . . . . } X 0 c c &.&.&.&.&.&.&.&.&.&.&.&.&.&.&.&.&.&.&.c c 4 X } $.. . . . . . . . ",
". . . . . . . . . . . . . k *.*.*.*.*.*.*.*.*.*.*.*.*.*.*.*.*.*.*.*.*.*.*.*.*.n . . . . . . . . ",
". . . . . . . . . . . . . . . . . . . . . . . . . . . . . . . . . . . . . . . . . . . . . . . . "};
