/* XPM */
static char * pnext_xpm[] = {
"48 48 214 2",
"  	c #000000",
". 	c #626262",
"+ 	c #B1B1B1",
"@ 	c #ACACAC",
"# 	c #ADADAD",
"$ 	c #A9A9A9",
"% 	c #A8A8A8",
"& 	c #A7A7A7",
"* 	c #A4A4A4",
"= 	c #A3A3A3",
"- 	c #A2A2A2",
"; 	c #A1A1A1",
"> 	c #969696",
", 	c #B9B9B9",
"' 	c #AFAFAF",
") 	c #EFEFEF",
"! 	c #FEFEFE",
"~ 	c #FBFBFB",
"{ 	c #FAFAFA",
"] 	c #F9F9F9",
"^ 	c #F8F8F8",
"/ 	c #9C9C9C",
"( 	c #A6A6A6",
"_ 	c #9B9B9B",
": 	c #C3C3C3",
"< 	c #E5E5E5",
"[ 	c #DFDFDF",
"} 	c #E0E0E0",
"| 	c #E1E1E1",
"1 	c #E2E2E2",
"2 	c #E4E4E4",
"3 	c #BCBCBC",
"4 	c #C4C4C4",
"5 	c #C5C5C5",
"6 	c #F7F7F7",
"7 	c #E3E3E3",
"8 	c #DEDEDE",
"9 	c #C9C9C9",
"0 	c #D9D9D9",
"a 	c #D1D1D1",
"b 	c #C0C0C0",
"c 	c #E9E9E9",
"d 	c #CFCFCF",
"e 	c #CBCBCB",
"f 	c #B0B0B0",
"g 	c #E6E6E6",
"h 	c #BEBEBE",
"i 	c #D2D2D2",
"j 	c #B4B4B4",
"k 	c #BABABA",
"l 	c #BBBBBB",
"m 	c #F6F6F6",
"n 	c #D5D5D5",
"o 	c #CECECE",
"p 	c #CACACA",
"q 	c #E7E7E7",
"r 	c #CDCDCD",
"s 	c #F2F2F2",
"t 	c #D8D8D8",
"u 	c #CCCCCC",
"v 	c #9A9A9A",
"w 	c #BFBFBF",
"x 	c #E8E8E8",
"y 	c #BDBDBD",
"z 	c #FFFFFF",
"A 	c #EEEEEE",
"B 	c #D0D0D0",
"C 	c #A0A0A0",
"D 	c #9E9E9E",
"E 	c #9D9D9D",
"F 	c #989898",
"G 	c #979797",
"H 	c #959595",
"I 	c #8F8F8F",
"J 	c #C1C1C1",
"K 	c #C6C6C6",
"L 	c #B2B2B2",
"M 	c #8C8C8C",
"N 	c #8D8D8D",
"O 	c #EAEAEA",
"P 	c #D3D3D3",
"Q 	c #DADADA",
"R 	c #C2C2C2",
"S 	c #EBEBEB",
"T 	c #A5A5A5",
"U 	c #ECECEC",
"V 	c #A4ABB5",
"W 	c #EDEDED",
"X 	c #5C7BA7",
"Y 	c #ABB9CC",
"Z 	c #50709B",
"` 	c #486FA0",
" .	c #768BA6",
"..	c #BCBDBE",
"+.	c #6282AE",
"@.	c #4976AF",
"#.	c #537CB0",
"$.	c #859CBC",
"%.	c #E7E9EB",
"&.	c #8B8B8B",
"*.	c #B5B8BD",
"=.	c #3E6192",
"-.	c #476A99",
";.	c #466998",
">.	c #466A99",
",.	c #466899",
"'.	c #446C9C",
").	c #3868A0",
"!.	c #416CA0",
"~.	c #5E799F",
"{.	c #B3B6BB",
"].	c #F0F0F0",
"^.	c #D5D9DE",
"/.	c #4B73A6",
"(.	c #4473AC",
"_.	c #4575AD",
":.	c #4675AD",
"<.	c #4675AE",
"[.	c #4574AE",
"}.	c #4E7AB0",
"|.	c #6283AF",
"1.	c #D6DBE3",
"2.	c #F1F1F1",
"3.	c #B3B7BC",
"4.	c #3C6498",
"5.	c #36659F",
"6.	c #3765A0",
"7.	c #3766A0",
"8.	c #3867A1",
"9.	c #3C6AA1",
"0.	c #496D9B",
"a.	c #A2AAB5",
"b.	c #8A8A8A",
"c.	c #F5F5F5",
"d.	c #D7DBE0",
"e.	c #476FA4",
"f.	c #4070AB",
"g.	c #4070AA",
"h.	c #4171AB",
"i.	c #4272AC",
"j.	c #4373AD",
"k.	c #4373AE",
"l.	c #4775AF",
"m.	c #4C74A8",
"n.	c #BFC9DA",
"o.	c #F4F4F4",
"p.	c #B5B9BE",
"q.	c #315992",
"r.	c #265896",
"s.	c #265897",
"t.	c #275897",
"u.	c #275998",
"v.	c #285998",
"w.	c #2C5B97",
"x.	c #4D6E9A",
"y.	c #ACB2BB",
"z.	c #F3F3F3",
"A.	c #D8DCE1",
"B.	c #3A649D",
"C.	c #2F61A0",
"D.	c #3061A0",
"E.	c #3062A1",
"F.	c #3162A1",
"G.	c #3163A2",
"H.	c #3263A2",
"I.	c #3363A2",
"J.	c #3866A2",
"K.	c #728EB5",
"L.	c #E8EBEF",
"M.	c #2F5992",
"N.	c #2D5C98",
"O.	c #2C5B98",
"P.	c #2C5B99",
"Q.	c #2C5C99",
"R.	c #285A97",
"S.	c #2E5B96",
"T.	c #6981A3",
"U.	c #C1C2C3",
"V.	c #C7C7C7",
"W.	c #DFE1E4",
"X.	c #748DB1",
"Y.	c #7891B4",
"Z.	c #7892B5",
"`.	c #7A93B7",
" +	c #7993B6",
".+	c #4069A0",
"++	c #3364A3",
"@+	c #39659F",
"#+	c #A0B1CA",
"$+	c #F5F5F7",
"%+	c #999999",
"&+	c #B8B8B8",
"*+	c #B7B7B7",
"=+	c #B5B5B5",
"-+	c #4E72A4",
";+	c #3465A3",
">+	c #3E689F",
",+	c #ADBACC",
"'+	c #DCDCDC",
")+	c #DBDBDB",
"!+	c #4A6EA0",
"~+	c #456C9F",
"{+	c #AEB8C6",
"]+	c #DDDDDE",
"^+	c #DDDDDD",
"/+	c #637FA5",
"(+	c #C2C8CF",
"_+	c #E4E5E7",
":+	c #939393",
"<+	c #8E8E8E",
"[+	c #909090",
"}+	c #D7D7D7",
"|+	c #FDFDFD",
"1+	c #9F9F9F",
"                                                                                                ",
"                                                                                                ",
"                                                                                                ",
"          . + @ # # # # # # $ % & * = - ; > ,                                                   ",
"          ' ) ! ~ ~ ~ ~ ~ ~ { ] ] ^ ^ ^ ^ / ( _ :                                               ",
"          $ ^ < [ } } | | 1 2 2 2 < < < < 3 4 5 $ '                                             ",
"          $ 6 7 8 8 [ [ } } 1 7 7 2 2 2 2 9 5 0 9 ' (                                           ",
"          % 6 2 8 [ [ } } | 7 7 2 < < < < a b c d e f %                                         ",
"          % 6 2 [ [ } } | | 2 2 2 < < g g a h 6 i d e @ j                                       ",
"          % 6 < } } h , , k l l l e g g g a 4 m n i o p * p                                     ",
"          % 6 < } | | 1 1 1 < < g q q q q r i s t n a u 5 v                                     ",
"          % 6 < | | w k k k 3 3 3 u x x x y q z z z A B p k C                                   ",
"          & m < | 1 1 7 7 2 g q q x x x x D E C D F > G H E I J                                 ",
"          & m g 1 1 b k l l 3 3 3 o c c c 7 B K l L & E E % E M j N                             ",
"          ( m g 1 7 7 2 2 < q x x c O O O O t d o P Q 7 x O ^ N z N                             ",
"          ( m q 1 7 R y h h w w b d O O O O < c O O O O O S ^ N z N j M                         ",
"          T m q 7 2 7 1 1 7 g g g O S S S S S S S S S S O S ^ N 0 N z M                         ",
"          * m x 7 2 J l 3 3 y h h d S U U U U U U U S S S U ^ N 0 N z M j M                     ",
"          * m x 2 2 < g g q O O O U U U U U U U U U U U U U ^ M 0 N 0 N z M                     ",
"          = m x 2 < J 3 3 3 h h h V b b b b b b b b J S U W ^ M 0 N 0 N z M j M                 ",
"          = m x < < g q q x S S U X Y A A A A A A A A W W A ^ M 0 M 0 N 0 N z M                 ",
"          - 6 x < g J 3 y y h w w Z `  ...J J J J b R U A A 6 M 0 M 0 N 0 N z M                 ",
"          ; 6 c < g q q x c U U W +.@.#.$.%.) ) ) ) ) ) A ) 6 &.0 M 0 M 0 N 0 N                 ",
"          ; 6 c g g *.=.-.;.>.>.,.'.).).!.~.{.J J J : W ) ].6 &.0 M 0 M 0 N 0 N                 ",
"          C 6 c g q ^./.(.(._._.:.<.[.[.[.}.|.1.2.].].].].].6 &.0 &.0 M 0 M 0 N                 ",
"          C m c g q 3.4.5.6.7.7.7.8.8.8.8.8.9.0.a.R : ) ].2.6 b.0 &.0 M 0 M 0 N                 ",
"          / c.O x c d.e.f.g.h.i.i.j.j.j.j.k.k.l.m.n.c.c.o.o.6 b.0 &.0 &.0 M 0 M                 ",
"          / c.O x c p.q.r.s.t.t.t.u.u.u.v.v.v.w.x.y.K z.c.c.6 b.0 b.0 &.0 M 0 M                 ",
"          _ c.O x c A.B.C.D.E.F.F.G.H.H.H.I.J.K.L.6 m m c.c.6 b.0 b.0 &.0 &.0 M                 ",
"          v c.O x c p.M.N.O.N.P.P.Q.u.v.R.S.T.U.5 5 V.o.c.c.6 b.0 b.0 b.0 &.0 M                 ",
"          v o.O x c W.X.Y.Z.`. + +.+H.++@+#+$+] ^ 6 6 m c.c.6 b.0 b.0 b.0 &.0 &.                ",
"          %+o.O x c 4 3 l , &+*+=+-+;+>+,+A s c.m ^ 6 m c.c.6 b.0 b.0 b.0 b.0 &.                ",
"          %+o.O x c q 1 [ '+)+t n !+~+{+]+1 x W ].o.6 m c.c.6 b.0 b.0 b.0 b.0 &.                ",
"          F o.O x c x 7 } ^+^+Q t /+(+'+[ 2 x W 2.c.m m c.c.6 b.0 b.0 b.0 b.0 b.                ",
"          H o.O x c O c c q c x q _+O S A ].s c.m 6 m c.c.c.6 b.0 b.0 b.0 b.0 b.                ",
"        &.H o.O x c c O S S ].2.2.o.o.m m 6 6 6 m m c.c.o.c.6 b.0 b.0 b.0 b.0 b.                ",
"        j :+z.O x c c O S S ].].2.o.c.c.m m m m m c.c.o.o.o.6 b.0 b.0 b.0 b.0 b.                ",
"        &.> s ^ ^ ^ ^ ^ ^ ^ ^ ^ ^ ^ ^ ^ ^ ^ ^ ^ ^ ^ ^ ^ ^ ^ ^ <+0 b.0 b.0 b.0 b.                ",
"          h I I I I I I I I I [+[+[+[+[+[+[+[+[+[+[+[+[+[+[+<+k 6 b.0 b.0 b.0 b.                ",
"            % 0 0 }+}+}+}+}+}+}+}+}+}+}+}+}+}+}+}+}+}+}+0 0 1 ].^ <+0 b.0 b.0 b.                ",
"              h I I I I I I I I I [+[+[+[+[+[+[+[+[+[+[+[+[+[+[+<+k 6 b.0 b.0 b.                ",
"                % 0 0 }+}+}+}+}+}+}+}+}+}+}+}+}+}+}+}+}+}+}+0 0 1 ].^ <+0 b.0 b.                ",
"                  h I I I I I I I I I [+[+[+[+[+[+[+[+[+[+[+[+[+[+[+<+k 6 b.0 b.                ",
"                    % 0 0 }+}+}+}+}+}+}+}+}+}+}+}+}+}+}+}+}+}+}+0 0 1 ].^ <+0 b.                ",
"                      h I I I I I I I I I [+[+[+[+[+[+[+[+[+[+[+[+[+[+[+<+k ) b.                ",
"                        % 0 0 }+}+}+}+}+}+}+}+}+}+}+}+}+}+}+}+}+}+}+0 0 1 ].|+<+                ",
"                          h 1+1+1+1+1+1+1+1+1+1+1+1+1+1+1+1+1+1+1+1+1+1+1+1+1+k                 ",
"                                                                                                "};
