/* XPM */
static char * pprev_xpm[] = {
"48 48 206 2",
"  	c #000000",
". 	c #626262",
"+ 	c #B1B1B1",
"@ 	c #ACACAC",
"# 	c #ADADAD",
"$ 	c #A9A9A9",
"% 	c #A8A8A8",
"& 	c #A7A7A7",
"* 	c #A4A4A4",
"= 	c #A3A3A3",
"- 	c #A2A2A2",
"; 	c #A1A1A1",
"> 	c #969696",
", 	c #B9B9B9",
"' 	c #AFAFAF",
") 	c #EFEFEF",
"! 	c #FEFEFE",
"~ 	c #FBFBFB",
"{ 	c #FAFAFA",
"] 	c #F9F9F9",
"^ 	c #F8F8F8",
"/ 	c #9C9C9C",
"( 	c #A6A6A6",
"_ 	c #9B9B9B",
": 	c #C3C3C3",
"< 	c #E5E5E5",
"[ 	c #DFDFDF",
"} 	c #E0E0E0",
"| 	c #E1E1E1",
"1 	c #E2E2E2",
"2 	c #E4E4E4",
"3 	c #BCBCBC",
"4 	c #C4C4C4",
"5 	c #C5C5C5",
"6 	c #F7F7F7",
"7 	c #E3E3E3",
"8 	c #DEDEDE",
"9 	c #C9C9C9",
"0 	c #D9D9D9",
"a 	c #D1D1D1",
"b 	c #C0C0C0",
"c 	c #E9E9E9",
"d 	c #CFCFCF",
"e 	c #CBCBCB",
"f 	c #B0B0B0",
"g 	c #E6E6E6",
"h 	c #BEBEBE",
"i 	c #D2D2D2",
"j 	c #B4B4B4",
"k 	c #BABABA",
"l 	c #BBBBBB",
"m 	c #F6F6F6",
"n 	c #D5D5D5",
"o 	c #CECECE",
"p 	c #CACACA",
"q 	c #E7E7E7",
"r 	c #CDCDCD",
"s 	c #F2F2F2",
"t 	c #D8D8D8",
"u 	c #CCCCCC",
"v 	c #9A9A9A",
"w 	c #BFBFBF",
"x 	c #E8E8E8",
"y 	c #BDBDBD",
"z 	c #FFFFFF",
"A 	c #EEEEEE",
"B 	c #D0D0D0",
"C 	c #A0A0A0",
"D 	c #9E9E9E",
"E 	c #9D9D9D",
"F 	c #989898",
"G 	c #979797",
"H 	c #959595",
"I 	c #8F8F8F",
"J 	c #C1C1C1",
"K 	c #C6C6C6",
"L 	c #B2B2B2",
"M 	c #8C8C8C",
"N 	c #8D8D8D",
"O 	c #EAEAEA",
"P 	c #D3D3D3",
"Q 	c #DADADA",
"R 	c #C2C2C2",
"S 	c #EBEBEB",
"T 	c #A5A5A5",
"U 	c #ECECEC",
"V 	c #EDEDED",
"W 	c #E6E7E9",
"X 	c #D0D6DE",
"Y 	c #B4B7BB",
"Z 	c #647E9F",
"` 	c #798BA5",
" .	c #D2D7DF",
"..	c #6987B1",
"+.	c #678CBA",
"@.	c #97A9C2",
"#.	c #8B8B8B",
"$.	c #A0A8B3",
"%.	c #51729D",
"&.	c #416CA2",
"*.	c #4771A3",
"=.	c #7A8CA5",
"-.	c #F0F0F0",
";.	c #B3BECF",
">.	c #5F82AF",
",.	c #4D7AB0",
"'.	c #4573AE",
").	c #5680B4",
"!.	c #4E73A5",
"~.	c #5378A9",
"{.	c #5377A8",
"].	c #5277A8",
"^.	c #5176A8",
"/.	c #7891B5",
"(.	c #BBBBBC",
"_.	c #8392A8",
":.	c #466B9C",
"<.	c #3C6AA1",
"[.	c #3766A0",
"}.	c #3867A1",
"|.	c #3C6AA2",
"1.	c #5E7A9F",
"2.	c #F1F1F1",
"3.	c #8A8A8A",
"4.	c #F5F5F5",
"5.	c #E6E6E7",
"6.	c #91A4BF",
"7.	c #577EB0",
"8.	c #4775AD",
"9.	c #4574AE",
"0.	c #4775B0",
"a.	c #4776B0",
"b.	c #4B79B1",
"c.	c #7692B8",
"d.	c #F4F4F4",
"e.	c #647C9F",
"f.	c #436C9E",
"g.	c #34639E",
"h.	c #34649E",
"i.	c #35649F",
"j.	c #3665A0",
"k.	c #5D79A0",
"l.	c #F3F3F3",
"m.	c #E8E9E9",
"n.	c #A7B5C9",
"o.	c #4D73A4",
"p.	c #3666A2",
"q.	c #3061A0",
"r.	c #3062A1",
"s.	c #3162A1",
"t.	c #3163A2",
"u.	c #3263A2",
"v.	c #3566A4",
"w.	c #718DB5",
"x.	c #C3C3C4",
"y.	c #98A2B0",
"z.	c #416596",
"A.	c #2D5B98",
"B.	c #275897",
"C.	c #275998",
"D.	c #285998",
"E.	c #2A5A98",
"F.	c #59759D",
"G.	c #C7C7C7",
"H.	c #CED4DC",
"I.	c #597BA9",
"J.	c #3A68A3",
"K.	c #3564A2",
"L.	c #3868A5",
"M.	c #3867A5",
"N.	c #3767A4",
"O.	c #3667A4",
"P.	c #6F8CB5",
"Q.	c #999999",
"R.	c #AEB2B8",
"S.	c #53719B",
"T.	c #2F5D98",
"U.	c #3B6AA6",
"V.	c #5878A5",
"W.	c #7B94B8",
"X.	c #7C95B9",
"Y.	c #7C96BA",
"Z.	c #7D96BB",
"`.	c #A1B2CB",
" +	c #E0E1E3",
".+	c #738CB0",
"++	c #3A67A1",
"@+	c #3B69A6",
"#+	c #92A4BD",
"$+	c #DCDCDC",
"%+	c #DBDBDB",
"&+	c #D3D4D5",
"*+	c #8095B2",
"=+	c #3E68A1",
"-+	c #899BB4",
";+	c #DDDDDD",
">+	c #D6D6D7",
",+	c #9AA9BE",
"'+	c #91A1B9",
")+	c #E5E6E7",
"!+	c #939393",
"~+	c #8E8E8E",
"{+	c #909090",
"]+	c #D7D7D7",
"^+	c #FDFDFD",
"/+	c #9F9F9F",
"                                                                                                ",
"                                                                                                ",
"                                                                                                ",
"          . + @ # # # # # # $ % & * = - ; > ,                                                   ",
"          ' ) ! ~ ~ ~ ~ ~ ~ { ] ] ^ ^ ^ ^ / ( _ :                                               ",
"          $ ^ < [ } } | | 1 2 2 2 < < < < 3 4 5 $ '                                             ",
"          $ 6 7 8 8 [ [ } } 1 7 7 2 2 2 2 9 5 0 9 ' (                                           ",
"          % 6 2 8 [ [ } } | 7 7 2 < < < < a b c d e f %                                         ",
"          % 6 2 [ [ } } | | 2 2 2 < < g g a h 6 i d e @ j                                       ",
"          % 6 < } } h , , k l l l e g g g a 4 m n i o p * p                                     ",
"          % 6 < } | | 1 1 1 < < g q q q q r i s t n a u 5 v                                     ",
"          % 6 < | | w k k k 3 3 3 u x x x y q z z z A B p k C                                   ",
"          & m < | 1 1 7 7 2 g q q x x x x D E C D F > G H E I J                                 ",
"          & m g 1 1 b k l l 3 3 3 o c c c 7 B K l L & E E % E M j N                             ",
"          ( m g 1 7 7 2 2 < q x x c O O O O t d o P Q 7 x O ^ N z N                             ",
"          ( m q 1 7 R y h h w w b d O O O O < c O O O O O S ^ N z N j M                         ",
"          T m q 7 2 7 1 1 7 g g g O S S S S S S S S S S O S ^ N 0 N z M                         ",
"          * m x 7 2 J l 3 3 y h h d S U U U U U U U S S S U ^ N 0 N z M j M                     ",
"          * m x 2 2 < g g q O O O U U U U U U U U U U U U U ^ M 0 N 0 N z M                     ",
"          = m x 2 < J 3 3 3 h h h b b b b b b b b b J S U V ^ M 0 N 0 N z M j M                 ",
"          = m x < < g q q x S S U W X A A A A A A A A V V A ^ M 0 M 0 N 0 N z M                 ",
"          - 6 x < g J 3 y y h w Y Z ` b b J J J J b R U A A 6 M 0 M 0 N 0 N z M                 ",
"          ; 6 c < g q q x c U  ...+.@.) ) ) ) ) ) ) ) ) A ) 6 #.0 M 0 M 0 N 0 N                 ",
"          ; 6 c g g R y y y $.%.&.*.=.J J J J J J J : V ) -.6 #.0 M 0 M 0 N 0 N                 ",
"          C 6 c g q q x c ;.>.,.'.).!.~.{.{.].^./.-.-.-.-.-.6 #.0 #.0 M 0 M 0 N                 ",
"          C m c g q R (._.:.<.[.[.}.}.}.}.}.}.|.1.R : ) -.2.6 3.0 #.0 M 0 M 0 N                 ",
"          / 4.O x c 5.6.7.8.9.9.9.0.0.a.a.a.a.b.c.m 4.4.d.d.6 3.0 #.0 #.0 M 0 M                 ",
"          / 4.O x x e.f.g.g.h.i.i.i.i.i.j.j.j.}.k.4 K l.4.4.6 3.0 3.0 #.0 M 0 M                 ",
"          _ 4.O x m.n.o.p.q.r.s.s.t.u.u.u.u.u.v.w.6 m m 4.4.6 3.0 3.0 #.0 #.0 M                 ",
"          v 4.O x c x.y.z.A.B.B.B.C.C.D.D.D.D.E.F.5 G.d.4.4.6 3.0 3.0 3.0 #.0 M                 ",
"          v d.O x c O O H.I.J.s.s.K.L.M.N.O.O.N.P.6 6 m 4.4.6 3.0 3.0 3.0 #.0 #.                ",
"          Q.d.O x c 4 h h R.S.T.B.U.V.W.X.Y.Z.Y.`.^ 6 m 4.4.6 3.0 3.0 3.0 3.0 #.                ",
"          Q.d.O x c O x q 2  +.+++@+#+q O V 2.4.m 6 6 m 4.4.6 3.0 3.0 3.0 3.0 #.                ",
"          F d.O x c q 1 [ $+%+&+*+=+-+0 ;+1 q U -.d.m m 4.4.6 3.0 3.0 3.0 3.0 3.                ",
"          H d.O x c x 7 } ;+;+Q >+,+'+%+[ 7 q U -.4.m 4.4.4.6 3.0 3.0 3.0 3.0 3.                ",
"        #.H d.O x c c c c g c x g c )+S V -.s 4.4.m 4.4.d.4.6 3.0 3.0 3.0 3.0 3.                ",
"        j !+l.O x c c O S S -.-.2.l.d.4.m m m m m 4.4.d.d.d.6 3.0 3.0 3.0 3.0 3.                ",
"        #.> s ^ ^ ^ ^ ^ ^ ^ ^ ^ ^ ^ ^ ^ ^ ^ ^ ^ ^ ^ ^ ^ ^ ^ ^ ~+0 3.0 3.0 3.0 3.                ",
"          h I I I I I I I I I {+{+{+{+{+{+{+{+{+{+{+{+{+{+{+~+k 6 3.0 3.0 3.0 3.                ",
"            % 0 0 ]+]+]+]+]+]+]+]+]+]+]+]+]+]+]+]+]+]+]+0 0 1 -.^ ~+0 3.0 3.0 3.                ",
"              h I I I I I I I I I {+{+{+{+{+{+{+{+{+{+{+{+{+{+{+~+k 6 3.0 3.0 3.                ",
"                % 0 0 ]+]+]+]+]+]+]+]+]+]+]+]+]+]+]+]+]+]+]+0 0 1 -.^ ~+0 3.0 3.                ",
"                  h I I I I I I I I I {+{+{+{+{+{+{+{+{+{+{+{+{+{+{+~+k 6 3.0 3.                ",
"                    % 0 0 ]+]+]+]+]+]+]+]+]+]+]+]+]+]+]+]+]+]+]+0 0 1 -.^ ~+0 3.                ",
"                      h I I I I I I I I I {+{+{+{+{+{+{+{+{+{+{+{+{+{+{+~+k ) 3.                ",
"                        % 0 0 ]+]+]+]+]+]+]+]+]+]+]+]+]+]+]+]+]+]+]+0 0 1 -.^+~+                ",
"                          h /+/+/+/+/+/+/+/+/+/+/+/+/+/+/+/+/+/+/+/+/+/+/+/+/+k                 ",
"                                                                                                "};
