/* XPM */
static char *prev[] = {
/* columns rows colors chars-per-pixel */
"48 48 218 2",
"   c #DFDFB5B57878",
".  c #D7E0AF0973B8",
"X  c #D608AD5B7340",
"o  c #D433ABB071D1",
"O  c #D321AB6C7150",
"+  c #D169AA077064",
"@  c #D057A8CB6DF5",
"#  c #D073A81B6E78",
"$  c #CFF1A86D6F07",
"%  c #CFB2A6BA6E84",
"&  c #CE69A6DD6DF5",
"*  c #CE69A6DD6C07",
"=  c #CE43A5616DA2",
"-  c #CB79A5616CB5",
";  c #CB84A3F96B10",
":  c #CA8EA3026A19",
">  c #C997A3026B10",
",  c #C9BAA2576AA0",
"<  c #C879A1BC6B80",
"1  c #C971A1BC6898",
"2  c #C665A1C16B3E",
"3  c #C735A12D6AD9",
"4  c #C5929ED467A0",
"5  c #C49A9CE567A0",
"6  c #C49A9CE566A9",
"7  c #C08A9A9D6521",
"8  c #C43F9B3D629C",
"9  c #CBCB9A9A5B5B",
"0  c #CACA99995B5B",
"q  c #C9C999995A5A",
"w  c #C9C998985A5A",
"e  c #C8C898985A5A",
"r  c #C7C797975959",
"t  c #C5C595955858",
"y  c #C2C295955A5A",
"u  c #C1C192925656",
"i  c #C0C092925656",
"p  c #BF679B316699",
"a  c #BDA899C665AA",
"s  c #BCC097E06187",
"d  c #BBE2952561D1",
"f  c #B78A94D06262",
"g  c #B4DA939A6221",
"h  c #B3FA9145600A",
"j  c #BC6F95625FAF",
"k  c #BF7996CC5D42",
"l  c #B9B990905959",
"z  c #BFBF91915656",
"x  c #BEBE90905555",
"c  c #BDBD90905555",
"v  c #BCBC90905555",
"b  c #B68C8EDD594A",
"n  c #B32B8D66591A",
"m  c #B0FB8C075976",
"M  c #BDBD8F8F5555",
"N  c #BCBC8F8F5454",
"B  c #BBBB8E8E5454",
"V  c #BABA8D8D5454",
"C  c #B9B98D8D5353",
"Z  c #B9B98C8C5353",
"A  c #B8B88C8C5252",
"S  c #B3B389895454",
"D  c #B7B78B8B5252",
"F  c #B6B68A8A5252",
"G  c #B6B68A8A5151",
"H  c #B5B589895151",
"J  c #B4B488885151",
"K  c #B3B388885050",
"L  c #B2B287875050",
"P  c #AF968E845DB3",
"I  c #A98E897A5A20",
"U  c #A6EF869957FA",
"Y  c #ADFF86FF52FF",
"T  c #ADAD84845050",
"R  c #A89C84575258",
"E  c #A6A681665062",
"W  c #B7B787874D4D",
"Q  c #B5B586864C4C",
"!  c #B4B485854C4C",
"~  c #B0B085854F4F",
"^  c #B3B384844B4B",
"/  c #B2B284844B4B",
"(  c #B0B082824A4A",
")  c #ABAB82824D4D",
"_  c #A9A980804C4C",
"`  c #AFAF82824A4A",
"'  c #ACAC80804848",
"]  c #A7A780804C4C",
"[  c #9DDA81AA5816",
"{  c #9FF181AE5503",
"}  c #A5A57F7F4D4D",
"|  c #A8A87D7D4747",
" . c #A6A67B7B4646",
".. c #A3A378784444",
"X. c #A1A177774444",
"o. c #9F5D7A834BB3",
"O. c #9E1B798B4B1A",
"+. c #9D9D79794949",
"@. c #9E9E75754242",
"#. c #9C9C74744242",
"$. c #9B9B73734141",
"%. c #999971714040",
"&. c #989870704040",
"*. c #96FF71FF44FF",
"=. c #959571714343",
"-. c #95FF70FF41FF",
";. c #8D9672294B42",
":. c #84926E484E04",
">. c #87BA6E8C4878",
",. c #815A684C4556",
"<. c #979770703F3F",
"1. c #96966F6F3F3F",
"2. c #94946E6E3E3E",
"3. c #94946D6D3E3E",
"4. c #92926C6C3D3D",
"5. c #90906B6B3E3E",
"6. c #90906B6B3D3D",
"7. c #8E8E6B6B3F3F",
"8. c #8F8F6A6A3C3C",
"9. c #8E8E69693C3C",
"0. c #8D8D69693B3B",
"q. c #8D8D68683B3B",
"w. c #8C8C68683B3B",
"e. c #8B8B67673C3C",
"r. c #8B8B67673B3B",
"t. c #8B8B67673A3A",
"y. c #8A8A66663A3A",
"u. c #898966663B3B",
"i. c #888866663B3B",
"p. c #898965653A3A",
"a. c #888864643A3A",
"s. c #888865653939",
"d. c #888864643939",
"f. c #878764643939",
"g. c #868663633A3A",
"h. c #868663633838",
"j. c #858563633939",
"k. c #858562623939",
"l. c #848462623939",
"z. c #838361613838",
"x. c #818160603939",
"c. c #80805F5F3737",
"v. c #7CAA65304287",
"b. c #7A5C6336410A",
"n. c #673658244238",
"m. c #7F7F5E5E3636",
"M. c #6E9E594A3B08",
"N. c #679853283748",
"B. c #60934F193401",
"V. c #5A7C494A3050",
"C. c #4B28415A3252",
"Z. c #585848482EFC",
"A. c #4F5E3F122A2A",
"S. c #48503A1C2618",
"D. c #455B384B2503",
"F. c #3E5532502143",
"G. c #33262C18230E",
"H. c #262626",
"J. c #242424",
"K. c #23232323222C",
"L. c #222222222222",
"P. c #212121",
"I. c #202020202020",
"U. c #35262C2C1F2E",
"Y. c #35502B3A1D0F",
"T. c #2A3224381D28",
"R. c #2D3E250E1828",
"E. c #243421101D2C",
"W. c #211020201F0E",
"Q. c #283421241618",
"!. c #272720111515",
"~. c #21101B14121A",
"^. c #1F1F1F",
"/. c #1E1E1E1E1E1E",
"(. c #1D1D1D1D1D1D",
"). c #1C1C1C",
"_. c #191919",
"`. c #191919191919",
"'. c #181818181818",
"]. c #161616161616",
"[. c #151515151515",
"{. c #141414",
"}. c #131313131313",
"|. c #121212",
" X c #111111111111",
".X c #101010101010",
"XX c #182414100D02",
"oX c #1722121E0C14",
"OX c #130E10060A0C",
"+X c #12080F0A0B06",
"@X c #110E0E100A06",
"#X c #10160D0A0900",
"$X c #0F0F0F",
"%X c #0E0E0E0E0E0E",
"&X c #0D0D0D",
"*X c #0C0C0C0C0C0C",
"=X c #0F0F0C0C0808",
"-X c #0B0B0B0B0B0B",
";X c #0A0A0A",
":X c #090909090909",
">X c #080808",
",X c #0B0E090F060A",
"<X c #0A0409060600",
"1X c #080B06060401",
"2X c #070707070707",
"3X c #060606060606",
"4X c #070606040400",
"5X c #050505",
"6X c #040404040404",
"7X c #060905040301",
"8X c #030303",
"9X c #030203020200",
"0X c #020202020202",
"qX c #030302020101",
"wX c #020201000100",
"eX c #010101010101",
"rX c #010101010000",
"tX c #000000",
/* pixels */
"tXtXtXtXtXtXtXtXtXtXtXtXtXtXtXtXtXtXtXtXtXtXtXtXtXtXtXtXtXtXtXtXtXtXtXtXtXtXtXtXtXtXtXtXtXtXtXtX",
"tXtXtXtXtXtXtXtXtXtXtXtXtXtXtXtXtXtXtXtXtXtXtXtXtXtXtXtXtXtXtXtXtXtXtXtXtXtXtXtXtXtXtXtXtXtXtXtX",
"tXtXtXtXtXtXtXtXtXtXtXtXtXtXtXtXtXtXtXtXtXtXtXtXtXtXtXtXtXtXtXtXtXtXtXtXtXtXtXtXtXtXtXtXtXtXtXtX",
"tXtXtXtXtXtXtXtXtXtXtXtXtXtXtXtXtXtXtXtXtXtXtXtXtXtXtXtXtXtXtXtXtXtXtXtXtXtXtXtXtXtXtXtXtXtXtXtX",
"tXtXtXtXtXtXtXtXtXtXtXtXtXtXtXtXtXtXtXtXtXtXtXtXtXtXtXtXtXtXtXtXtXtXtXtXtXtXtXtXtXtXtXtXtXtXtXtX",
"tXtXtXtXtXtXtXtXtXtXtXtXtXtXtXtXtXtXtXtXtXtXtXtXtXtXtXtXtXtXtXtXtXtXtXtXtXtXtXtXtXtXtXtXtXtXtXtX",
"tXtXtXtXtXtXtXtXtXtXtXtXtXtXtXtXtXtXtXtXtXtXtXtXtXtXtXtXtXtXtXtXtXtXtXtXtXtXtXtXtXtXtXtXtXtXtXtX",
"tXtXtXtXtXtXtXtXtXtXtXtXtXtXtXtXtXtXtXtXtXtXtXtXtXtXtXtXtXtXtXtXtXtXtXtXtXtXtXtXtXtXtXtXtXtXtXtX",
"tXtXtXtXtXtXtXtXtXtXtXtXtXtXtXtXtXtXtXtXtXtXtXtXR.tXtXtXtXtXtXtXtXtXtXtXtXtXtXtXtXtXtXtXtXtXtXtX",
"tXtXtXtXtXtXtXtXtXtXtXtXtXtXtXtXtXtXtXtXtXtXtXD.  tXtXtXtXtXtXtXtXtXtXtXtXtXtXtXtXtXtXtXtXtXtXtX",
"tXtXtXtXtXtXtXtXtXtXtXtXtXtXtXtXtXtXtXtXtXtXB.:   tXtXtXtXtXtXtXtXtXtXtXtXtXtXtXtXtXtXtXtXtXtXtX",
"tXtXtXtXtXtXtXtXtXtXtXtXtXtXtXtXtXtXtXtXwX,.s x.  tXtXtXtXtXtXtXtXtXtXtXtXtXtXtXtXtXtXtXtXtXtXtX",
"tXtXtXtXtXtXtXtXtXtXtXtXtXtXtXtXtXtXtX1X{ n m.c.  tXtXtXtXtXtXtXtXtXtXtXtXtXtXtXtXtXtXtXtXtXtXtX",
"tXtXtXtXtXtXtXtXtXtXtXtXtXtXtXtXtXtXOXf R z.| k.  tXtXtXtXtXtXtXtXtXtXtXtXtXtXtXtXtXtXtXtXtXtXtX",
"tXtXtXtXtXtXtXtXtXtXtXtXtXtXtXtXtX~.3 O.d.` / j.  tXtXtXtXtXtXtXtXtXtXtXtXtXtXtXtXtXtXtXtXtXtXtX",
"tXtXtXtXtXtXtXtXtXtXtXtXtXtXtXtXY.% *.0./ Q / a.  tXtXtXtXtXtXtXtXtXtXtXtXtXtXtXtXtXtXtXtXtXtXtX",
"tXtXtXtXtXtXtXtXtXtXtXtXtXtXtXA.; 7.3.! Q Q / u.  tXtXtXtXtXtXtXtXtXtXtXtXtXtXtXtXtXtXtXtXtXtXtX",
"tXtXtXtXtXtXtXtXtXtXtXtXtXtXM.4 i.$.Q Q Q Q / r.                                tXtXtXtXtXtXtXtX",
"tXtXtXtXtXtXtXtXtXtXtXtX9X;.d g...Q Q Q Q Q / h.f.s.p.y.t.w.q.9.8.8.6.4.4.3.2.  tXtXtXtXtXtXtXtX",
"tXtXtXtXtXtXtXtXtXtXtX,XI m j.| Q Q Q Q Q Q Q Q Q Q Q Q Q Q Q Q Q Q Q Q Q Q 1.  tXtXtXtXtXtXtXtX",
"tXtXtXtXtXtXtXtXtXtXXXp E d.' Q Q Q Q Q Q Q Q Q Q Q Q Q Q Q Q Q Q Q Q Q Q Q <.  tXtXtXtXtXtXtXtX",
"tXtXtXtXtXtXtXtXtXQ.- o.w.( Q Q Q Q Q Q Q Q Q Q Q Q Q Q Q Q Q Q Q Q Q Q Q Q %.  tXtXtXtXtXtXtXtX",
"tXtXtXtXtXtXtXtXF.# -.4.^ Q Q Q Q Q Q Q Q Q Q Q Q Q Q Q Q Q Q Q Q Q Q Q Q Q $.  tXtXtXtXtXtXtXtX",
"tXtXtXtXtXtXtXZ.> 5.&.! Q Q Q Q Q Q Q Q Q Q Q Q Q Q Q Q Q Q Q Q Q Q Q Q Q Q #.  tXtXtXtXtXtXtXtX",
"tXtXtXtXtXrXb.5 e.@.Q Q Q Q Q Q Q Q Q Q Q Q Q Q Q Q Q Q Q Q Q Q Q Q Q Q Q Q @.  tXtXtXtXtXtXtXtX",
"tXtXtXtX7XP s l. .W W W W W W W W W W W W W W W W W W W W W W W W W W W W W X.  tXtXtXtXtXtXtXtX",
"tXtXtXtX4Xh 7 =.N 9 9 9 9 9 9 9 9 9 9 9 9 9 9 9 9 9 9 9 9 9 9 9 9 9 9 9 9 9 J   tXtXtXtXtXtXtXtX",
"tXtXtXtXtXrXv.< +.G 9 9 9 9 9 9 9 9 9 9 9 9 9 9 9 9 9 9 9 9 9 9 9 9 9 9 9 9 G   tXtXtXtXtXtXtXtX",
"tXtXtXtXtXtXtXV.& } ~ 9 9 9 9 9 9 9 9 9 9 9 9 9 9 9 9 9 9 9 9 9 9 9 9 9 9 9 A   tXtXtXtXtXtXtXtX",
"tXtXtXtXtXtXtXtXF.+ Y ) q 9 9 9 9 9 9 9 9 9 9 9 9 9 9 9 9 9 9 9 9 9 9 9 9 9 C   tXtXtXtXtXtXtXtX",
"tXtXtXtXtXtXtXtXtX!.= b _ r 9 9 9 9 9 9 9 9 9 9 9 9 9 9 9 9 9 9 9 9 9 9 9 9 B   tXtXtXtXtXtXtXtX",
"tXtXtXtXtXtXtXtXtXtXoXa j ] t 9 9 9 9 9 9 9 9 9 9 9 9 9 9 9 9 9 9 9 9 9 9 9 M   tXtXtXtXtXtXtXtX",
"tXtXtXtXtXtXtXtXtXtXtX<XU 6 _ u 9 9 9 9 9 9 9 9 9 9 9 9 9 9 9 9 9 9 9 9 9 9 x   tXtXtXtXtXtXtXtX",
"tXtXtXtXtXtXtXtXtXtXtXtXqX>., T c 9 9 9 9 9 q ~ L L K H G F A Z C V N M x z i   tXtXtXtXtXtXtXtX",
"tXtXtXtXtXtXtXtXtXtXtXtXtXtXN.@ S V 9 9 9 9 q J   . . . . . . . . . . . . . .   tXtXtXtXtXtXtXtX",
"tXtXtXtXtXtXtXtXtXtXtXtXtXtXtXS.o l A 0 9 9 q G   +X+X+X@X@X#X=X=X=X=X=X=X=X=X=XtXtXtXtXtXtXtXtX",
"tXtXtXtXtXtXtXtXtXtXtXeX8X6X5X3XU.$ k F w 9 q D   -X-X;X;X:X>X2X3X5X6X8XeXtXtXtXtXtXtXtXtXtXtXtX",
"tXtXtXtXtXtXtXtX0X8X5X2X>X;X-X*X%XT.2 8 D e q A   }.|.|. X.X$X%X*X-X;X>X2X5X8X0XtXtXtXtXtXtXtXtX",
"tXtXtXtXtXtX0X6X3X>X:X-X&X$X.X|.{.[.E.g 1 Z t C   _.`.`.'.].[.{.|..X$X&X-X:X>X3X6X0XtXtXtXtXtXtX",
"tXtXtXtXtX0X6X3X>X;X*X%X.X|.{.].'._.).W.[ * v V   P.I.^.(.)._.'.].{.|..X%X*X;X>X3X6X0XtXtXtXtXtX",
"tXtXtXtXeX8X5X2X:X-X&X$X X{.].'._.)./.I.K.:.O y   H.J.L.I./.)._.'.].{. X$X&X-X:X2X5X8XeXtXtXtXtX",
"tXtXtXtXtX0X6X3X>X;X*X%X.X|.{.].'._.).(.^.I.n.X   P.I.^.(.)._.'.].{.|..X%X*X;X>X3X6X0XtXtXtXtXtX",
"tXtXtXtXtXtX0X6X3X>X:X-X&X$X.X|.{.[.].'.`.`._.C.  _.`.`.'.].[.{.|..X$X&X-X:X>X3X6X0XtXtXtXtXtXtX",
"tXtXtXtXtXtXtXtX0X8X5X2X>X;X-X*X%X$X.X X|.|.}.}.G.}.|.|. X.X$X%X*X-X;X>X2X5X8X0XtXtXtXtXtXtXtXtX",
"tXtXtXtXtXtXtXtXtXtXtXeX8X6X5X3X2X>X:X;X;X-X-X-X-X-X-X;X;X:X>X2X3X5X6X8XeXtXtXtXtXtXtXtXtXtXtXtX",
"tXtXtXtXtXtXtXtXtXtXtXtXtXtXtXtXtXeX0X0X8X8X8X8X8X8X8X8X0X0XeXtXtXtXtXtXtXtXtXtXtXtXtXtXtXtXtXtX",
"tXtXtXtXtXtXtXtXtXtXtXtXtXtXtXtXtXtXtXtXtXtXtXtXtXtXtXtXtXtXtXtXtXtXtXtXtXtXtXtXtXtXtXtXtXtXtXtX",
"tXtXtXtXtXtXtXtXtXtXtXtXtXtXtXtXtXtXtXtXtXtXtXtXtXtXtXtXtXtXtXtXtXtXtXtXtXtXtXtXtXtXtXtXtXtXtXtX"
};
