/* XPM */
static char *print[] = {
/* columns rows colors chars-per-pixel */
"48 48 53 1",
"  c #AAAAA8A8ACAC",
". c #A76FA570A96F",
"X c #A45DA266A655",
"o c #9C2E9A799E1E",
"O c #992697439B59",
"+ c #966794879950",
"@ c #94F0936696A9",
"# c #8B0889758C89",
"$ c #893287338AAF",
"% c #20203737C443",
"& c #7F7F7D7D8282",
"* c #777775757A7A",
"= c #706A6EAB7427",
"- c #6F2D6E2F726C",
"; c #6C646AB66D66",
": c #696967676D6D",
"> c #61EE6045649B",
", c #60485F186177",
"< c #5F195E24600F",
"1 c #5C7D5A4B5EAF",
"2 c #5555525258D8",
"3 c #530E518B5512",
"4 c #50D04D4D5454",
"5 c #4E4E4A4A5151",
"6 c #484845454C4C",
"7 c #454942424951",
"8 c #4408437F4496",
"9 c #40D33D624469",
"0 c #3E3E3B3B4242",
"q c #363633B34040",
"w c #3B3F3B3F3B3F",
"e c #390636363BD5",
"r c #358B33083A65",
"t c #32DD318D34D4",
"y c #30D12E8D33AA",
"u c #2CCA2959306F",
"i c #292927273333",
"p c #272726263131",
"a c #2B6F29DF2D91",
"s c #2A1226F02CCA",
"d c #263623B6296A",
"f c #22F22121255D",
"g c #205F1DE422F4",
"h c #1E941D4020B9",
"j c #1B541A451D3C",
"k c #181817171999",
"l c #165B1569183B",
"z c #133912C514A5",
"x c #10100EEA10C8",
"c c #0F0F0E751010",
"v c #0B820B500C48",
"b c #080807070808",
"n c #008E008D0090",
/* pixels */
"nnnnnnnnnnnnnnnnnnnnnnnnnnnnnnnnnnnnnnnnnnnnnnnn",
"nnnnnnnnnnnnnnnnnnaO        oannnnnnnnnnnnnnnnnn",
"nnnnnnnnnnnnnnnnnn+6yre097771+nnnnnnnnnnnnnnnnnn",
"nnnnnnnnnvduuuuuuuuuuuuuuuuuuuuuuuuuudvnnnnnnnnn",
"nnnnnnnnndbnnnnnnnnnnnnnnnnnnnnnnnnnnbdnnnnnnnnn",
"nnnnnnnnnunbbvvvvvvvvvvvvvvvvvcccxxxznunnnnnnnnn",
"nnnnnnnnnunvvvvvvvvvvvvcccxxxzzzzzzzznunnnnnnnnn",
"nnnnnnnnnunvvvvvcccxxxzzzzzzzzzzzzzzznunnnnnnnnn",
"nnnnnnnnnuncxxxzzzzzzzzzzzzzzzzzzllllnunnnnnnnnn",
"nnnnnnnnnunzzzzzzzzzzzzzzzlllllllkkkknunnnnnnnnn",
"nnnnnnnnnunzzzzzzzzlllllllkkkkkkkkjjjnunnnnnnnnn",
"nnnnnnnnnunzlllllllkkkkkkkkjjjjjjjjjjnunnnnnnnnn",
"nnnnnnnnnunlkkkkkkkkjjjjjjjjjjjjjjhhhnunnnnnnnnn",
"nnnnnnnnnunkkjjjjjjjjjjjjjjhhhhhhhgggnunnnnnnnnn",
"nnnnnnnnnynjjjjjjjjjhhhhhhhggggffffffnynnnnnnnnn",
"nnnnnnnnnenjjhhhhhhhggggfffffffffffffnennnnnnnnn",
"nnnnnnnnn9nhhggggfffffffffffffdddddddn9nnnnnnnnn",
"nnnnnnnnn7nffffffffffffdddddddddddddsn7nnnnnnnnn",
"nnnnnnnnn5nfffffdddddddddddddssssssssn5nnnnnnnnn",
"nnnnnnnnn2ndddddddddddssssssssaaaaaaan2nnnnnnnnn",
"nnnnnnnnn1nddddsssssssaaaaaaaaauuuuuun1nnnnnnnnn",
"nnnnnnnnn>nssssaaaaaaaaauuuuuuuuuuyyyn>nnnnnnnnn",
"nnnnnn;  :naaaaaauuuuuuuuuuyyyyyyytttn:  ;nnnnnn",
"nnnnn3=ns=nuuuuuuuuyyyyyyyyttttttttttn=sn-3nnnnn",
"nnnne#nl97777777777777777777777777777779ln#ennnn",
"nnnjOvbfdzzzzzzzzzzzzzzzzzzzzzzzzzzzzzzdfbv+knnn",
"nnn#fbzdzzzzzzzzzzzzzzzzzzzzzzzzzzzzzzzzdzbf$nnn",
"nn71nzzdbvvvvvvvvvvvvvvvvvvvvvvvvvvvvvvbdzzn18nn",
"nn@bvzzhnbbbbbbbbbbbbbbbbbbbbbbbbbbbbbbnhzzvb+nn",
"nt<nzzzjnnnnnnnnnnnnnnnnnnnnnnnnnnnnnnnnjzzzn>yn",
"n,dvlllynzjjjjjjjjjjjjjjjjjjjjjjjjjjjjznulllvd,n",
"n$vljjjydbnnnnnnnnnnnnnnnnnnnnnnnnnnnnvdujjjzv$n",
"nObjhhhht977777777777777777777777777779thhhhjbOn",
"n.ngffffffffffffffffffffffffffffffffffffffffgnXn",
"n nddddddddddddddddddddddddddddddddddddddddddn n",
"n nssssssssssssssssssssssssssssssssssssssq77qn n",
"n nuuuuuu2=**************************-2uur%%tn n",
"n nuuuuu43jzzzzzzzzzzzzzzzzzzzzzzzzzzj34uiffpn n",
"n nuuuuu-jgddddddddddddddddddddddddddgj-uuuuun n",
"n nuuuuu*zffffffffffffffffffffffffffffz*ur77rn n",
"n nuuuuu&xggggggggggggggggggggggggggggx&urfftn n",
"n nuuuuu$vjjjjjjjjjjjjjjjjjjjjjjjjjjjjv$uf77gn n",
"n nuuuuu@vkkkkkkkkkkkkkkkkkkkkkkkkkkkkv@ugzzhn n",
"n nnnnnnovllllllllllllllllllllllllllllvonnnnnn n",
"v ++++++.bbbbbbbbbbbbbbbbbbbbbbbbbbbbbb.++++++ v",
"zjfdaatw                                wttadfjz",
"nbvvzljjfdsattrwww888888888888wwwrttaadfjjlzvvbn",
"nnnnnnnnnnnbbbvvvzzzzzllllzzzzzvvvbbbnnnnnnnnnnn"
};
