/* XPM */
static char *rleft[] = {
/* columns rows colors chars-per-pixel */
"48 48 116 2",
"   c #312FA395FFEE",
".  c #309D9FBAF904",
"X  c #2ECF9BEBF557",
"o  c #2C1494CCEAF6",
"O  c #2B109191E5B3",
"+  c #2A878F87E2A5",
"@  c #298F8B37DC7D",
"#  c #2AE98876D3FC",
"$  c #2B9287D6D229",
"%  c #26A98469D425",
"&  c #295C81C3C921",
"*  c #243E808CCFCD",
"=  c #2AC68053C68A",
"-  c #24D97E1BC8A0",
";  c #22AC79E6C4CF",
":  c #03035050C140",
">  c #28457992BC6F",
",  c #216274AFBB51",
"<  c #293A7687B5D7",
"1  c #256B7040ADEA",
"2  c #24D16A82A265",
"3  c #1F717160BABC",
"4  c #1E336DC3B69B",
"5  c #1D3C69B9AE6A",
"6  c #1BBE6568A954",
"7  c #1A96613CA306",
"8  c #03035050BFBF",
"9  c #03034DFABC43",
"0  c #03034A5DB449",
"q  c #03034848AF2E",
"w  c #02A6462FAB8E",
"e  c #023142FFA43B",
"r  c #2057623F99C6",
"t  c #22D7604293A2",
"y  c #1D2762E19C8F",
"u  c #189B5A8C988E",
"i  c #1B335B7091D7",
"p  c #179F579991AA",
"a  c #026C407C9DCA",
"s  c #0EF14CB2916C",
"d  c #158353218D55",
"f  c #1D525559836D",
"g  c #13D84D6282F5",
"h  c #0D0042FF80FF",
"j  c #02023E3E9B38",
"k  c #01A23B669444",
"l  c #01B939428D3A",
"z  c #010136528A53",
"x  c #030338388787",
"c  c #012E3399838B",
"v  c #1E44508C7A88",
"b  c #12ED49B57F7E",
"n  c #0FF041BD720B",
"m  c #1649473B6E8F",
"M  c #180442246336",
"N  c #012631AB7E28",
"B  c #01E231117616",
"V  c #01012F2F78F8",
"C  c #01572E2E721C",
"Z  c #12223D58613A",
"A  c #0B00380068FF",
"S  c #080832326969",
"D  c #0D003800607F",
"F  c #09A632ED6434",
"G  c #01A62C1A6BD9",
"H  c #01AC293E653A",
"J  c #0101264B62AB",
"K  c #11C03AD95C48",
"L  c #10AE34F15252",
"P  c #09002E0059FF",
"I  c #020228285F5F",
"U  c #016824D85ADA",
"Y  c #0A0A2E2E5656",
"T  c #070729295252",
"R  c #013A21B05353",
"E  c #170A34104C4C",
"W  c #193430124242",
"Q  c #0EAE30E84CB3",
"!  c #182A2F4A4242",
"~  c #0E2C2E344848",
"^  c #070729294F4F",
"/  c #060624244949",
"(  c #0D0C2C3E4505",
")  c #040420204343",
"_  c #01011F1F5050",
"`  c #01571E74499F",
"'  c #01681BB5420F",
"]  c #203729173131",
"[  c #202024102828",
"{  c #1A202AA93838",
"}  c #1D122A2C3434",
"|  c #1922262C3030",
" . c #0B2626183B3B",
".. c #060620203F3F",
"X. c #0B0B23143737",
"o. c #1A1223362B2B",
"O. c #1B8A20982424",
"+. c #02821ABF3C73",
"@. c #010117173838",
"#. c #0404191933B3",
"$. c #018115B633F4",
"%. c #090D1D9C2E2E",
"&. c #01B913812C07",
"*. c #03D7131424BE",
"=. c #01410E8F2323",
"-. c #1A091A1A1A2A",
";. c #17081B0C1E1E",
":. c #12F312FA12FE",
">. c #053E11E31BB5",
",. c #00720B441AC5",
"<. c #02320B3E1447",
"1. c #000006061010",
"2. c #0B030B030B03",
"3. c #03030A0A0F0F",
"4. c #000006060D8E",
"5. c #006B006C006E",
/* pixels */
"5.5.5.5.5.5.5.5.5.5.5.5.5.5.5.5.5.5.5.5.5.5.5.5.5.5.5.5.5.5.5.5.5.5.5.5.5.5.5.5.5.5.5.5.5.5.5.5.",
"5.5.5.5.5.5.5.5.5.5.5.5.5.5.5.5.5.5.5.5.5.5.5.5.5.5.5.5.5.5.5.5.5.5.5.5.5.5.5.5.5.5.5.5.5.5.5.5.",
"5.5.5.5.5.5.5.5.5.5.5.5.5.5.5.5.5.5.5.5.5.5.5.5.5.5.5.5.5.5.5.5.5.5.5.5.5.5.5.5.5.5.5.5.5.5.5.5.",
"5.5.5.5.5.5.5.5.5.5.5.5.5.5.5.5.5.5.5.5.5.5.5.5.5.5.5.5.5.5.5.5.5.5.5.5.5.5.5.5.5.5.5.5.5.5.5.5.",
"5.5.5.5.5.5.5.5.5.5.5.5.5.5.5.5.5.5.5.5.5.5.5.5.5.5.5.5.5.5.3.Q i ; O X                       5.",
"5.5.5.5.5.5.5.5.5.5.5.5.5.5.5.5.5.5.5.5.5.5.5.5.5.5.5.5.Q , o 7 A +.=.,.<.,.=.&.$.@.+.' ` R   5.",
"5.5.5.5.5.5.5.5.5.5.5.5.5.5.5.5.5.5.5.5.5.5.5.5.5.5.L @ 4 ^ 4.$.H l w 0 9 9 9 9 9 0 0 0 0 R   5.",
"5.5.5.5.5.5.5.5.5.5.5.5.5.5.5.5.5.5.5.5.5.5.5.5.>.; , #.,.G 0 : : 9 9 9 9 0 0 0 0 0 q w w U   5.",
"5.5.5.5.5.5.5.5.5.5.5.5.5.5.5.5.5.5.5.5.5.5.5.~ o F 1.B 9 9 9 9 9 0 0 0 0 0 q w w w e e e U   5.",
"5.5.5.5.5.5.5.5.5.5.5.5.5.5.5.5.5.5.5.5.5.5.Z @ &.+.q 9 9 0 0 0 0 q q w w w e e e e a j j I   5.",
"5.5.5.5.5.5.5.5.5.5.5.5.5.5.5.5.5.5.5.5.5.K * ,.H 0 0 0 0 q q w w w e e e e a j j j j k k J   5.",
"5.5.5.5.5.5.5.5.5.5.5.5.5.5.5.5.5.5.5.5.~ @ ,.G 0 q q w w w e e e e a j j j k k k k k l l J   5.",
"5.5.5.5.5.5.5.5.5.5.5.5.5.5.5.5.5.5.5.>.O &.H w w e e e e e a j j j k k k k k l l z z c c J   5.",
"5.5.5.5.5.5.5.5.5.5.5.5.5.5.5.5.5.5.5., F ' e e e e a j j j k k k k l l l z z c c c c N N H   5.",
"5.5.5.5.5.5.5.5.5.5.5.5.5.5.5.5.5.5.Q 3 ,.j a j j j k k k k l l l z z c c c c N N N c c c G   5.",
"5.5.5.5.5.5.5.5.5.5.5.5.5.5.5.5.5.5.@ #.G j k k k k l l z z z c c c c N N N c c c c c z z B   5.",
"5.5.5.5.5.5.5.5.5.5.5.5.5.5.5.5.5.Q 6 ,.k k l l z z z c c c c N V J R _ _ R U J H G C V N c   5.",
"5.5.5.5.5.5.5.5.5.5.5.5.5.5.5.5.5., +.U z z z c c c c N N c c J ` h 4 + .                     5.",
"5.5.5.5.5.5.5.5.5.5.5.5.5.5.5.5.<.+ 1.c c c c N N c c c c c U S @ , L >.4.5.5.5.5.5.5.5.5.5.5.5.",
"5.5.5.5.5.5.5.5.5.5.5.5.5.5.5.5.K d &.N N c c c c c c z z H S O ( 5.5.5.5.5.5.5.5.5.5.5.5.5.5.5.",
"5.5.5.5.5.5.5.5.5.5.5.5.5.5.5.5.y Y _ c c c z z z z l l z R @ X.5.5.5.5.5.5.5.5.5.5.5.5.5.5.5.5.",
"5.5.5.5.5.5.5.5.5.5.5.5.5.5.5.5.- +.G z z z l l l k k k C s y 5.5.5.5.5.5.5.5.5.5.5.5.5.5.5.5.5.",
"5.5.5.5.5.5.5.5.5.5.5.5.5.5.5.5.o *.c l l k k k k k k j H ; ( 5.5.5.5.5.5.5.5.5.5.5.5.5.5.5.5.5.",
"5.5.5.5.5.5.5.5.5.5.5.5.5.5.5.5.X *.l k k k k j j j j j H o <.5.5.5.5.5.5.5.5.5.5.5.5.5.5.5.5.5.",
"5.5.5.5.5.5.5.5.5.5.5.5.5.5.5.5.  =.k j j j j j a a e e G   5.5.5.5.5.5.5.5.5.5.5.5.5.5.5.5.5.5.",
"5.5.5.5.5.5.5.5.5.5.5.5.5.5.5.5.  &.j j a a e e e e e e B   5.5.5.5.5.5.5.5.5.5.5.5.5.5.5.5.5.5.",
"5.5.5.5.5.5.5.5.5.5.5.5.5.5.5.5.  @.e e e e e e w w w w c   5.5.5.5.5.5.5.5.5.5.5.5.5.5.5.5.5.5.",
"5.5.5.5.5.5.>.                    ' e e w w w w q q 0 0 l                   X <.5.5.5.5.5.5.5.5.",
"5.5.5.5.5.5.5.*.o ..5.5.5.5.5.5.5.4.w q q q 0 0 0 0 0 0 ,.5.5.5.5.5.5.5.P O >.5.5.5.5.5.5.5.5.5.",
"5.5.5.5.5.5.5.5.%.o #.' w w w q q q 0 0 0 0 0 0 9 9 9 9 9 9 : : 8 9 ' T o *.5.5.5.5.5.5.5.5.5.5.",
"5.5.5.5.5.5.5.5.5. .O &.R q 0 0 0 0 0 0 9 9 9 9 9 9 : : 8 9 9 0 0 R / o %.5.5.5.5.5.5.5.5.5.5.5.",
"5.5.5.5.5.5.5.5.5.5.Q @ *.J 0 0 9 9 9 9 9 9 : : 9 9 9 0 0 q w w I ) O ( 5.5.5.5.5.5.5.5.5.5.5.5.",
"5.5.5.5.5.5.5.5.5.5.5.K % ,.B 9 9 9 : : 9 9 9 0 0 q w w e e a H ' O L 5.5.5.5.5.5.5.5.5.5.5.5.5.",
"5.5.5.5.5.5.5.5.5.5.5.5.m * =.l 9 9 9 0 0 q w w e e a a j k G +.@ M 2.2.2.5.5.5.5.5.5.5.5.5.5.5.",
"5.5.5.5.5.5.5.5.5.5.5.2.2.f ; &.l q w e e e a a k k l l x G +.% v 2.2.2.2.2.2.5.5.5.5.5.5.5.5.5.",
"5.5.5.5.5.5.5.5.5.2.2.2.2.2.r , @.x a a k k l l x x c N G +.; t :.:.2.2.2.2.2.2.2.5.5.5.5.5.5.5.",
"5.5.5.5.5.5.5.5.2.2.2.2.2.2.:.1 5 +.c l x x c N N B B H +., 2 :.:.:.:.:.2.2.2.2.2.2.5.5.5.5.5.5.",
"5.5.5.5.5.5.5.5.2.2.2.2.2.:.:.:.> 7 ' B N B B C G G I +.5 < -.-.-.:.:.:.:.2.2.2.2.2.5.5.5.5.5.5.",
"5.5.5.5.5.5.5.2.2.2.2.2.2.:.:.:.;.& u ' G G H H I U +.7 = O.-.-.-.:.:.:.:.2.2.2.2.2.2.5.5.5.5.5.",
"5.5.5.5.5.5.5.2.2.2.2.2.2.:.:.:.:.O.# d ' U U R R @.p $ [ -.-.-.-.:.:.:.:.2.2.2.2.2.2.5.5.5.5.5.",
"5.5.5.5.5.5.5.5.2.2.2.2.2.:.:.:.:.-.o.@ b +.` ` $.g @ ] -.-.-.-.-.:.:.:.:.2.2.2.2.2.5.5.5.5.5.5.",
"5.5.5.5.5.5.5.5.2.2.2.2.2.2.:.:.:.:.:.| O n $.$.n O } -.-.-.-.:.:.:.:.:.2.2.2.2.2.2.5.5.5.5.5.5.",
"5.5.5.5.5.5.5.5.5.2.2.2.2.2.2.2.:.:.:.:.{ o D D o { -.:.:.:.:.:.:.:.2.2.2.2.2.2.2.5.5.5.5.5.5.5.",
"5.5.5.5.5.5.5.5.5.5.5.2.2.2.2.2.2.2.2.:.:.!     W :.:.:.:.:.:.2.2.2.2.2.2.2.2.5.5.5.5.5.5.5.5.5.",
"5.5.5.5.5.5.5.5.5.5.5.5.5.2.2.2.2.2.2.2.2.2.E E 2.2.2.2.2.2.2.2.2.2.2.2.2.5.5.5.5.5.5.5.5.5.5.5.",
"5.5.5.5.5.5.5.5.5.5.5.5.5.5.5.5.2.2.2.2.2.2.2.2.2.2.2.2.2.2.2.2.2.2.5.5.5.5.5.5.5.5.5.5.5.5.5.5.",
"5.5.5.5.5.5.5.5.5.5.5.5.5.5.5.5.5.5.5.5.5.5.2.2.2.2.2.2.5.5.5.5.5.5.5.5.5.5.5.5.5.5.5.5.5.5.5.5.",
"5.5.5.5.5.5.5.5.5.5.5.5.5.5.5.5.5.5.5.5.5.5.5.5.5.5.5.5.5.5.5.5.5.5.5.5.5.5.5.5.5.5.5.5.5.5.5.5."
};
