/* XPM */
static char *rright[] = {
/* columns rows colors chars-per-pixel */
"48 48 114 2",
"   c #312FA399FFEE",
".  c #2EB99C38F5C2",
"X  c #2C1894BCEAEA",
"o  c #2B5B920CE65C",
"O  c #29D58FB0E444",
"+  c #29FD8BAFDCFD",
"@  c #26E688A0DB2C",
"#  c #278C8800D905",
"$  c #2B9288B0D3DE",
"%  c #26A185EDD669",
"&  c #2AC68121C8F5",
"*  c #23B08049CD72",
"=  c #295C8023C781",
"-  c #23F47DFDCA59",
";  c #240A7A37C3DC",
":  c #20B5764FC1F7",
">  c #03035050C185",
",  c #284578D0BBAD",
"<  c #21BA747FBB23",
"1  c #293A7744B80D",
"2  c #20F47180B367",
"3  c #256B6F8EAC88",
"4  c #24D16A82A45D",
"5  c #1EDD70DAB64C",
"6  c #1E446F4EB982",
"7  c #1F1E6DE2B2EC",
"8  c #1BBE693CB007",
"9  c #1BD36608ABDA",
"0  c #1AFC6343A495",
"q  c #03035050BFBF",
"w  c #03034DF4BC1A",
"e  c #03034A78B45C",
"r  c #19895F47A291",
"t  c #03034868AF2E",
"y  c #02A84641AB90",
"u  c #023742ECA417",
"i  c #219761D79612",
"p  c #1C40606C998A",
"a  c #17CF594A97CA",
"s  c #13D8565097CA",
"d  c #026C407C9DF8",
"f  c #1AD45A328F48",
"g  c #1D5255598261",
"h  c #12E34E088A2C",
"j  c #10EF49B5807D",
"k  c #0E0048FF8AFF",
"l  c #020A3E5C9B0B",
"z  c #01B33B859445",
"x  c #01DD39458D50",
"c  c #010136798A74",
"v  c #02AD38388731",
"b  c #014E340783B6",
"n  c #1E4451867B82",
"m  c #0E0041FF797F",
"M  c #0F0041FF76FF",
"N  c #1649465B6D40",
"B  c #180442246336",
"V  c #016F32577DC6",
"C  c #01D730B175CB",
"Z  c #01012F2F7A7A",
"A  c #02022EC171BA",
"S  c #12223E1E613A",
"D  c #0B00380068FF",
"F  c #0B00370068FF",
"G  c #0BF435C9629B",
"H  c #070731316363",
"J  c #01B92C9A6BFE",
"K  c #01D329E46565",
"L  c #010127276262",
"P  c #11AB3BD15CC3",
"I  c #108235055292",
"U  c #09F62ED059A5",
"Y  c #07072B2B5B5B",
"T  c #01B9256E5BC9",
"R  c #08042A1451A7",
"E  c #068728A852D2",
"W  c #01C9237954FF",
"Q  c #170A34104C4C",
"!  c #193430124242",
"~  c #0EC330D64C0C",
"^  c #182A2F4A4242",
"/  c #0E2C2E344848",
"(  c #028221614CCC",
")  c #0D3B2C3C4578",
"_  c #0606232345C6",
"`  c #014E1E514A4A",
"'  c #01B91C6543B1",
"]  c #203729173131",
"[  c #202024102828",
"{  c #1A202AA93838",
"}  c #1D122A2C3434",
"|  c #1922262C3030",
" . c #0B0E25A83ABA",
".. c #1A1223362B2B",
"X. c #1B8A20982424",
"o. c #02951AAD3CAA",
"O. c #000016973939",
"+. c #0343195934F5",
"@. c #00EC14EA331E",
"#. c #090D1D9C2E2E",
"$. c #014112F32C0C",
"%. c #0716171A2424",
"&. c #01010F0F2525",
"*. c #1A091A1A1A2A",
"=. c #17081B0C1E1E",
"-. c #12F312FA12FE",
";. c #050D11D61BDC",
":. c #012B0BB51999",
">. c #01B70AC0153A",
",. c #000006061010",
"<. c #0B030B030B03",
"1. c #0308090A0E0E",
"2. c #0000055B0BB6",
"3. c #006A006C006D",
/* pixels */
"3.3.3.3.3.3.3.3.3.3.3.3.3.3.3.3.3.3.3.3.3.3.3.3.3.3.3.3.3.3.3.3.3.3.3.3.3.3.3.3.3.3.3.3.3.3.3.3.",
"3.3.3.3.3.3.3.3.3.3.3.3.3.3.3.3.3.3.3.3.3.3.3.3.3.3.3.3.3.3.3.3.3.3.3.3.3.3.3.3.3.3.3.3.3.3.3.3.",
"3.3.3.3.3.3.3.3.3.3.3.3.3.3.3.3.3.3.3.3.3.3.3.3.3.3.3.3.3.3.3.3.3.3.3.3.3.3.3.3.3.3.3.3.3.3.3.3.",
"3.3.3.3.3.3.3.3.3.3.3.3.3.3.3.3.3.3.3.3.3.3.3.3.3.3.3.3.3.3.3.3.3.3.3.3.3.3.3.3.3.3.3.3.3.3.3.3.",
"3.3.3.3.                      . o ; f ~ 1.3.3.3.3.3.3.3.3.3.3.3.3.3.3.3.3.3.3.3.3.3.3.3.3.3.3.3.",
"3.3.3.3.  3.3.3.3.3.3.3.3.3.3.2.:.o.D 0 X < ~ 3.3.3.3.3.3.3.3.3.3.3.3.3.3.3.3.3.3.3.3.3.3.3.3.3.",
"3.3.3.3.  3.> > > > > > > > w e y x K @.2.R 5 + I 3.3.3.3.3.3.3.3.3.3.3.3.3.3.3.3.3.3.3.3.3.3.3.",
"3.3.3.3.  3.> > > > > > > > > w w w w w y K >.+.: < ;.3.3.3.3.3.3.3.3.3.3.3.3.3.3.3.3.3.3.3.3.3.",
"3.3.3.3.  3.> > > > > w w w w w e e e e e e y K ,.G o / 3.3.3.3.3.3.3.3.3.3.3.3.3.3.3.3.3.3.3.3.",
"3.3.3.3.  2.> w w w w w e e e e e e t t y y y u l @.$.# S 3.3.3.3.3.3.3.3.3.3.3.3.3.3.3.3.3.3.3.",
"3.3.3.3.  ,.w w e e e e e t t t y y y u u u u u d d W :.* P 3.3.3.3.3.3.3.3.3.3.3.3.3.3.3.3.3.3.",
"3.3.3.3.  :.e e e t t t y y y u u u u u d l l l l l z T >.# ) 3.3.3.3.3.3.3.3.3.3.3.3.3.3.3.3.3.",
"3.3.3.3.  &.t y y y y u u u u u d l l l l l z z z z z x ` $.o :.3.3.3.3.3.3.3.3.3.3.3.3.3.3.3.3.",
"3.3.3.3.  $.u u u u u u d l l l l z z z z z z x x c c c c @.U 2 3.3.3.3.3.3.3.3.3.3.3.3.3.3.3.3.",
"3.3.3.3.  @.u u d l l l l z z z z z z x c c c c c b b b b Z >.< / 3.3.3.3.3.3.3.3.3.3.3.3.3.3.3.",
"3.3.3.3.  O.l l l z z z z z x x c c c c b b b b b V V V b b T +.# 3.3.3.3.3.3.3.3.3.3.3.3.3.3.3.",
"3.3.3.3.  ' o.O.O.O.@.@.@.$.$.@.' T V b b V V V b b b b b b b $.8 ~ 3.3.3.3.3.3.3.3.3.3.3.3.3.3.",
"3.3.3.3.                    . + 0 F @.W V b b b b b b c c c c L E < 3.3.3.3.3.3.3.3.3.3.3.3.3.3.",
"3.3.3.3.3.3.3.3.3.3.3.3.3.3.2.;.I < @ E ` b b c c c c c c x x c $.o >.3.3.3.3.3.3.3.3.3.3.3.3.3.",
"3.3.3.3.3.3.3.3.3.3.3.3.3.3.3.3.3.3./ o Y L c c x x x z z z z z ` 0 I 3.3.3.3.3.3.3.3.3.3.3.3.3.",
"3.3.3.3.3.3.3.3.3.3.3.3.3.3.3.3.3.3.3. .@ ` c z z z z z z z z l J m p 3.3.3.3.3.3.3.3.3.3.3.3.3.",
"3.3.3.3.3.3.3.3.3.3.3.3.3.3.3.3.3.3.3.3.0 k A z z z z l l l l l b H - 3.3.3.3.3.3.3.3.3.3.3.3.3.",
"3.3.3.3.3.3.3.3.3.3.3.3.3.3.3.3.3.3.3.3.) : K l l l l l l d d u l W X 3.3.3.3.3.3.3.3.3.3.3.3.3.",
"3.3.3.3.3.3.3.3.3.3.3.3.3.3.3.3.3.3.3.3.:.o K l d d u u u u u u u T . 3.3.3.3.3.3.3.3.3.3.3.3.3.",
"3.3.3.3.3.3.3.3.3.3.3.3.3.3.3.3.3.3.3.3.3.  J u u u u u u u y y y T   3.3.3.3.3.3.3.3.3.3.3.3.3.",
"3.3.3.3.3.3.3.3.3.3.3.3.3.3.3.3.3.3.3.3.3.  C u u u y y y y y t t K   3.3.3.3.3.3.3.3.3.3.3.3.3.",
"3.3.3.3.3.3.3.3.3.3.3.3.3.3.3.3.3.3.3.3.3.  b y y y t t t t e e e C   3.3.3.3.3.3.3.3.3.3.3.3.3.",
"3.3.3.3.3.3.3.3.3.3.3.>..                   z t t e e e e e e e e b                     ;.3.3.3.",
"3.3.3.3.3.3.3.3.3.3.3.3.;.O R 3.3.3.3.3.3.3.:.e e e e e e w w w w :.3.3.3.3.3.3.3._ X %.3.3.3.3.",
"3.3.3.3.3.3.3.3.3.3.3.3.3.%.X _ O.t e e e e e e e w w w w w w w w > > q w w e ` +.X #.3.3.3.3.3.",
"3.3.3.3.3.3.3.3.3.3.3.3.3.3.#.X o.` e e e w w w w w w w > > > w w w e e e t W $.o  .3.3.3.3.3.3.",
"3.3.3.3.3.3.3.3.3.3.3.3.3.3.3.) o o.K w w w w w > > > w w w e e e t y y u L @.+ ~ 3.3.3.3.3.3.3.",
"3.3.3.3.3.3.3.3.3.3.3.3.3.3.3.3.I o ' C > > > w w w e e e t y y u u u d J @.# P 3.3.3.3.3.3.3.3.",
"3.3.3.3.3.3.3.3.3.3.3.3.3.3.2.<.<.B + ( v w e e e t y y u u u d d l z A +.% N 3.3.3.3.3.3.3.3.3.",
"3.3.3.3.3.3.3.3.3.3.3.3.<.<.<.<.<.<.n % ( x y y u u u d d l z z z x A O.- g <.<.3.3.3.3.3.3.3.3.",
"3.3.3.3.3.3.3.3.3.3.2.<.<.<.<.<.<.-.-.i - ( v d d l z z x x x v v A ' < i <.<.<.<.2.3.3.3.3.3.3.",
"3.3.3.3.3.3.3.3.3.2.<.<.<.<.<.-.-.-.-.-.4 : W b x x x v v b V V A ' 7 3 -.<.<.<.<.<.2.3.3.3.3.3.",
"3.3.3.3.3.3.3.3.3.<.<.<.<.<.-.-.-.-.*.*.*.1 6 W V b V V C C C J ' 9 , -.-.-.<.<.<.<.<.3.3.3.3.3.",
"3.3.3.3.3.3.3.3.2.<.<.<.<.<.-.-.-.-.*.*.*.X.& 8 W A C A J J K ` r = =.-.-.-.<.<.<.<.<.2.3.3.3.3.",
"3.3.3.3.3.3.3.3.2.<.<.<.<.<.-.-.-.-.*.*.*.*.[ $ r W K K K T ` a $ X.-.-.-.-.<.<.<.<.<.2.3.3.3.3.",
"3.3.3.3.3.3.3.3.3.<.<.<.<.<.-.-.-.-.*.*.*.*.*.] + s ( T W ` h + ..*.-.-.-.-.<.<.<.<.<.3.3.3.3.3.",
"3.3.3.3.3.3.3.3.3.2.<.<.<.<.<.-.-.-.-.-.*.*.*.*.} o h ` ` j o | -.-.-.-.-.<.<.<.<.<.2.3.3.3.3.3.",
"3.3.3.3.3.3.3.3.3.3.2.<.<.<.<.<.<.-.-.-.-.-.-.-.*.{ X m M X { -.-.-.-.<.<.<.<.<.<.2.3.3.3.3.3.3.",
"3.3.3.3.3.3.3.3.3.3.3.3.<.<.<.<.<.<.<.<.-.-.-.-.-.-.!     ^ -.-.<.<.<.<.<.<.<.<.3.3.3.3.3.3.3.3.",
"3.3.3.3.3.3.3.3.3.3.3.3.3.3.2.<.<.<.<.<.<.<.<.<.<.<.<.Q Q <.<.<.<.<.<.<.<.2.3.3.3.3.3.3.3.3.3.3.",
"3.3.3.3.3.3.3.3.3.3.3.3.3.3.3.3.3.2.<.<.<.<.<.<.<.<.<.<.<.<.<.<.<.<.2.3.3.3.3.3.3.3.3.3.3.3.3.3.",
"3.3.3.3.3.3.3.3.3.3.3.3.3.3.3.3.3.3.3.3.3.3.3.2.2.2.2.2.2.3.3.3.3.3.3.3.3.3.3.3.3.3.3.3.3.3.3.3.",
"3.3.3.3.3.3.3.3.3.3.3.3.3.3.3.3.3.3.3.3.3.3.3.3.3.3.3.3.3.3.3.3.3.3.3.3.3.3.3.3.3.3.3.3.3.3.3.3."
};
