/* XPM */
static char *scan_go[] = {
/* columns rows colors chars-per-pixel */
"48 48 218 2",
"   c #F4F2F2",
".  c #F0EEED",
"X  c #EAE9E8",
"o  c #E5E4E4",
"O  c #DBDBDB",
"+  c #DED9D7",
"@  c #DBD6D4",
"#  c #D5D5D5",
"$  c #D3C2DB",
"%  c #D7CED1",
"&  c #D2C4D3",
"*  c #D7D1CF",
"=  c #D3CDCC",
"-  c #CFCFCF",
";  c #C8C7C6",
":  c #C4C3C3",
">  c #D6B6F2",
",  c #CCB6E2",
"<  c #C9A4E9",
"1  c #CCAEE1",
"2  c #C293EF",
"3  c #C5B8D2",
"4  c #BC8BE9",
"5  c #B886E8",
"6  c #B782EB",
"7  c #B783E7",
"8  c #A58BE4",
"9  c #B9BAD1",
"0  c #B793DC",
"q  c #B89AD5",
"w  c #AB89CB",
"e  c #9B94DB",
"r  c #959BD4",
"t  c #9E96D6",
"y  c #9481D2",
"u  c #8984C8",
"i  c #898DC5",
"p  c #868AC5",
"a  c #BBBABA",
"s  c #B6B4B9",
"d  c #B4B3B4",
"f  c #B0AFB2",
"g  c #AEACB1",
"h  c #B0AEAD",
"j  c #ABA9AC",
"k  c #A9A7AB",
"l  c #A5A4AB",
"z  c #A9A6A6",
"x  c #A3A2A3",
"c  c #A99ABA",
"v  c #A19FA3",
"b  c #8085BE",
"n  c #9897A8",
"m  c #9F9EA1",
"M  c #8388AF",
"N  c #A19B9D",
"B  c #9C9B9D",
"V  c #98969B",
"C  c #96939A",
"Z  c #9A9694",
"A  c #939295",
"S  c #938E99",
"D  c #908E94",
"F  c #8E8D91",
"G  c #8C8793",
"H  c #89898A",
"J  c #88868B",
"K  c #868489",
"L  c #838285",
"P  c #B872FD",
"I  c #B773FD",
"U  c #BA7AF6",
"Y  c #AF73F3",
"T  c #B070EE",
"R  c #A879ED",
"E  c #AF7DE0",
"W  c #A67CE5",
"Q  c #A660E9",
"!  c #A568E7",
"~  c #A64EFD",
"^  c #A35AEA",
"/  c #A25EE5",
"(  c #9E54E5",
")  c #994FE2",
"_  c #AB7BDB",
"`  c #A679D2",
"'  c #A473D3",
"]  c #9B64D5",
"[  c #9C71C9",
"{  c #9965CB",
"}  c #9A6CC6",
"|  c #9465C5",
" . c #8F60C0",
".. c #985DD2",
"X. c #9756D7",
"o. c #964DDD",
"O. c #8A42D2",
"+. c #8C53C3",
"@. c #8C49CF",
"#. c #8240C4",
"$. c #913EE3",
"%. c #8F3CE0",
"&. c #8C3BDD",
"*. c #8836D8",
"=. c #893AD7",
"-. c #8333D2",
";. c #843DC9",
":. c #8037C9",
">. c #9A79B9",
",. c #8C6AAD",
"<. c #8964AC",
"1. c #895AB7",
"2. c #824DB6",
"3. c #8C7A9C",
"4. c #867895",
"5. c #807F83",
"6. c #7E36C3",
"7. c #7D2DCB",
"8. c #7A2BC7",
"9. c #7728C3",
"0. c #7527C1",
"q. c #7C48B2",
"w. c #7C45B4",
"e. c #7F51AD",
"r. c #7C4BAB",
"t. c #7744AA",
"y. c #7648A4",
"u. c #7E7C81",
"i. c #745295",
"p. c #72489D",
"a. c #7F3EBF",
"s. c #7932BE",
"d. c #732BB9",
"f. c #7124BC",
"g. c #722FB5",
"h. c #6E21B9",
"j. c #6B21B4",
"k. c #763EAF",
"l. c #713DA5",
"z. c #6F36A9",
"x. c #6E3FA0",
"c. c #6D33A4",
"v. c #6D2CAD",
"b. c #6A25AE",
"n. c #6721AD",
"m. c #692CA3",
"M. c #672CA1",
"N. c #6220A3",
"B. c #6A1EB4",
"V. c #671CB1",
"C. c #681EAF",
"Z. c #641AAE",
"A. c #6A3B9B",
"S. c #6A3D94",
"D. c #643493",
"F. c #632A9B",
"G. c #60239C",
"H. c #622F95",
"J. c #633A8C",
"K. c #60338C",
"L. c #5F239A",
"P. c #5D2891",
"I. c #5B2392",
"U. c #5D318C",
"Y. c #5A2A8A",
"T. c #5A268C",
"R. c #57238A",
"E. c #572884",
"W. c #552485",
"Q. c #5E1E9C",
"!. c #561E8D",
"~. c #531F86",
"^. c #7C7C7D",
"/. c #79767C",
"(. c #77757A",
"). c #737274",
"_. c #706E72",
"`. c #6D6971",
"'. c #6B6B6B",
"]. c #68656A",
"[. c #666468",
"{. c #666666",
"}. c #685F72",
"|. c #625470",
" X c #5E5B60",
".X c #5A4C69",
"XX c #5D5D5D",
"oX c #58565A",
"OX c #57545A",
"+X c #535354",
"@X c #504F52",
"#X c #4E4D50",
"$X c #4B4A4C",
"%X c #49444F",
"&X c #454545",
"*X c #50227E",
"=X c #4E217A",
"-X c #4A1A7A",
";X c #481F70",
":X c #411A67",
">X c #3C3E59",
",X c #33184D",
"<X c #3B3B3B",
"1X c #383738",
"2X c #363538",
"3X c #353535",
"4X c #302F30",
"5X c #2E2D30",
"6X c #2B2B2B",
"7X c #282728",
"8X c #242424",
"9X c #1F1F21",
"0X c #1B1B1B",
"qX c #131313",
"wX c #140B1E",
"eX c #0A0B10",
"rX c #0B0B0C",
"tX c #000000",
/* pixels */
"tXtXtXtXtXtXtXtXtXtXtXtXtXtXtXtXtXtXtXtXtXtXtXtXtXtXtXtXtXtXtXtXtXtXtXtXtXtXtXtXtXtXtXtXtXtXtXtX",
"tXtXtXtXtXtXtXtXtXtXtXtXtXtXtXtXtXtXtXtXtXtXtXtXtXtXtXtXtXtXtXtXtXtXtXtXtXtXtXtXtXtXtXtXtXtXtXtX",
"tXtXtXtXtXtXtXtXtXtXtXtXtXtXtXtXtXtXtXtXtXtXtXtXtXtXtXtXtXtXtXtXtXtXtXtXtXtXtXtXtXtXtXtXtXtXtXtX",
"tXtXrXL l j j j j j j j j j j j j j j j j j j j j j j j j j j j j j j j j j k L rXtXtXtXtXtXtXtX",
"tXtX$XF $X$X$X$X$X$X$X$X$X$X$X$X$X$X$X$X$X$X$X$X$X$X$X#X#X@X@X+X+X+X+X+XOXOXoXD  XtXtXtXtXtXtXtX",
"tXtX0Xv /.).).).).).).).).).).).).).).).(.(././.^.^.^.u.u.5.L L L K K J J H F v 1XtXtXtXtXtXtXtX",
"tXtXtX$XB /.(.(.(.(.(.(.(.(.(.(./././.^.u.u.u.5.L L L K K J H H H F F F D A m {.tXtXtXtXtXtXtXtX",
"tXtXtXtX(.A (.(.(.(.(.(.(./././.^.u.u.u.5.L L L K K J H H H F F D A A A C B L tXtXtXtXtXtXtXtXtX",
"tXtXtXtXrXV J (.(.(././.^.^.u.u.5.5.L L K K J J J H H F F D A A A C C C B V rXtXtXtXtXtXtXtXtXtX",
"tXtXtXtXtX8Xv 5./.^.^.u.u.5.L L L K K J J H H F F F D A A A C C C C C V x 9XtXtXtXtXtXtXtXtXtXtX",
"tXtXtXtXtXtX$XB u.u.5.L L L K K J H H H F F F D A A A C C C C C C C V v <XtXtXtXtXtXtXtXtXrXtXtX",
"tXtXtXtXtXtXtX5.V L L K K J H H H F F D A A A C C C C C C C C C C / ^ ) O.~ ,XtXtXtXtXtXtX0XtXtX",
"tXtXtXtXtXtXrXk l A H F D A A C C V V B B B B B B B V V V V C C ] c.W.=X*X;.tXtXtXtXtXtXtX8XtXtX",
"tXtXtXtXtXtX5XH [.j j g g g f f d s s s s s s s d d d d d f g w #.M.$.T.O.wXtXtXtXtXtXtXrX8XtXtX",
"tXtXtXtXtXtXXX^.`.J G j j g S S C C C C C C C C C S S D D j c o.P.$.v.a.i.+X3XtXtXtXtXtX0X8XtXtX",
"tXtXtXtXtXtXH ].(.K J G C S S S C C C V V V C C C C S D F G ( T.=.=.P.^ rXrX1X<XtXtXtXtX6X0XtXtX",
"tXtXtXtXtXrXx +X/.u.k # # # # # # # # # # # # # # # # # # 6 c.6.$.F.O.3.1XtXtX<X7XtXtXqX$XtXtXtX",
"tXtXtXtXtX3XJ OX(./.a o O O O O O O O O O O O @ # # # # , @.F.$.:.M.+.'.'.tXtXrX$X7X7X+X0XtXtXtX",
"tXtXtXtXtXXX_.oX`._.; O a a a a s a s a a a s d d d d s ^ T.&.$.P.o.}.#XB tXtXtXrX1X3XqXtXtXtXtX",
"tXtXtXtXtXH +XoX[.].- # d d d j j j j d d d j j j j j _ c.:.$.6.z.1. X&XA 0XtXtXtXtXtXtXtXtXtXtX",
"tXtXtXtXrXx <X+XoX{.# ; j z z x x x x x x x x x j a 3 X.F.%.$.P.Q  X+X&X'.#XtXtXtXtXtXtXtXtXtXtX",
"tXtXtXtX3Xu.3X$X$X'.- d x B B V Z Z A B h : # X     U T.-.&.s.k.0 OX&X<X&XL tXtXtXtXtXtXtXtXtXtX",
"tXtXtXtXXXXX1X&X$X/.# z B B x j a = o . . . . . . > w.v.*.=.T.T f '.&X<X7Xx rXtXtXtXtXtXtXtXtXtX",
"tXtXtXtXH <X1X&X&XH P I Y Y Y Y R e r r r r r r e ! W.-.-.g.w.8 l L &X<X7X/.3XtXtXtXtXtXtXtXtXtX",
"tXtXtXrXx 8X1X<X&XB t ] l.;XT.R.Y.2.p.eXrXrXrXrXr.H.d.-.-.W...>XM B <X1X6X+X].tXtXtXtXtXtXtXtXtX",
"tXtXtX3X^.7X1X1X1Xd 9 p W t.m.-.7.L.x.W b b b u ] T.7.7.v.q.y i n s 1X1X3X3XV tXtXtXtXtXtXtXtXtX",
"tXtXtXXXXX6X1X1X1Xa @ @ @ 2 D.d.7.7.G.r.< + + 2 Y.d.8.7.W.6 @ @ z : 1X1X1X8XD 0XtXtXtXtXtXtXtXtX",
"tXtXtXH <X3X1X1X<X; * * * % 5 Y.8.8.9.R.{ $ $ { I.0.9.b.t.1 * * h h +X1X1X6X{.$XtXtXtXtXtXtXtXtX",
"tXtXrXx 8X3X1X1X$X: = = = = & } L.9.0.f.*X7 4 W.j.f.0.W.E N B Z H x {.1X1X3X&X5.tXtXtXtXtXtXtXtX",
"tXtX3X^.7X1X1X1X&X: a a s d d q S.j.f.f.N.y.' !.h.f.b.A.q d d d d : OX1X1X3X7Xv rXtXtXtXtXtXtXtX",
"tXtXXXoX6X1X1X1X1X&X+X+X+X+X+X+X' W.f.h.B.-X:XC.j.h.~.' XX+X+X+X+X$X1X1X1X1X7X^.3XtXtXtXtXtXtXtX",
"tXtXJ <X3X1X1X1X1X1X1X1X1X1X1X1X.Xe.L.h.B.Q.-XV.B.n.D.<.1X1X1X1X1X1X1X1X1X1X6X+X[.tXtXtXtXtXtXtX",
"tXrXv 7X<X<X<X<X<X<X<X<X<X<X<X<X<X} E.j.B.Z.Z.V.B.!.| %X<X<X<X<X<X<X<X<X<X<X3X3XV tXtXtXtXtXtXtX",
"tX3XL 3X&X3X3X&X&X&X&X&X&X&X&X&X&XOX .!.B.V.V.V.B.E.[ &X&X&X&X&X&X&X&X&X&X&X&X6XB qXtXtXtXtXtXtX",
"tX<X^.<X+X<X<X+X3X3X3X3X3X3X3X3X3X3X<.U.j.B.B.B.Q.r..X3X3X3X3X3X3X3X3X3X3X3X<X1XF 8XtXtXtXtXtXtX",
"tX2X5.&XXXXXXXXXXXoX'.$X).).3XoX'.$X/.| I.h.h.h.W.' XXoXoXoXoXoXoXoXoXoXoXoXXX<XD 8XtXtXtXtXtXtX",
"tX3XK $X{.{.{.{.{.{.'.+X'.{.1X{.'.+X'.` J.K.K.K.S.` {.{.{.{.{.{.{.{.{.{.{.{.{.&XA 8XtXtXtXtXtXtX",
"tX3XH $X).).).).).).'.XX+X&X$X).'.XX+X|.,.>.>.>.>.4.).).).).).).).).).).).).).$XC 0XtXtXtXtXtXtX",
"tX7XD +X^.^.^.^.^.^.^.^.^.^.^.^.^.^.^.^.^.^.^.^.^.^.^.^.^.^.^.^.^.^.^.^.^.^.^.+XB 0XtXtXtXtXtXtX",
"tX8XV oXK H H H H H H H H H H H H H H H H H H H H H H H H H H H H H H H H H K OXv qXtXtXtXtXtXtX",
"tXtXB ).XXXXXXXXXXXXXXXXXXXXXXXXXXXXXXXXXXXXXXXXXXXXXXXXXXXXXXXXXXXXXXXXXXXXXX).v tXtXtXtXtXtXtX",
"tXtX3Xx m B B B B B B B B B m m m m m m m m m m m m m m m B B B B B B B B B m x 3XtXtXtXtXtXtXtX",
"tXtXtXtXqX0X0X8X8X7X6X6X6X3X3X3X3X1X1X1X1X1X1X1X1X1X3X3X3X4X6X6X7X7X8X8X0X0XqXtXtXtXtXtXtXtXtXtX",
"tXtXtXtXtXtXtXtXrXrXrXrXqXqXqX0X0X0X0X0X0X0X0X0X0X0X0X0XqXqXqXrXrXrXrXtXtXtXtXtXtXtXtXtXtXtXtXtX",
"tXtXtXtXtXtXtXtXtXtXtXrXrXrXrXrXrXrXqXqXqXqXqXqXqXrXrXrXrXrXrXtXtXtXtXtXtXtXtXtXtXtXtXtXtXtXtXtX",
"tXtXtXtXtXtXtXtXtXtXtXtXtXtXtXtXtXtXtXtXtXtXtXtXtXtXtXtXtXtXtXtXtXtXtXtXtXtXtXtXtXtXtXtXtXtXtXtX",
"tXtXtXtXtXtXtXtXtXtXtXtXtXtXtXtXtXtXtXtXtXtXtXtXtXtXtXtXtXtXtXtXtXtXtXtXtXtXtXtXtXtXtXtXtXtXtXtX",
"tXtXtXtXtXtXtXtXtXtXtXtXtXtXtXtXtXtXtXtXtXtXtXtXtXtXtXtXtXtXtXtXtXtXtXtXtXtXtXtXtXtXtXtXtXtXtXtX"
};
