/* XPM */
static char * scan_xpm[] = {
"48 48 100 2",
"  	c #000000",
". 	c #7C7D7A",
"+ 	c #5A5B55",
"@ 	c #565854",
"# 	c #939492",
"$ 	c #71736E",
"% 	c #B4B5B3",
"& 	c #B1B2AF",
"* 	c #AFB0AD",
"= 	c #ACACAB",
"- 	c #A8AAA6",
"; 	c #6E716B",
"> 	c #A3A3A3",
", 	c #5E605C",
"' 	c #878983",
") 	c #8C8D8B",
"! 	c #888A85",
"~ 	c #838382",
"{ 	c #81837E",
"] 	c #7F817C",
"^ 	c #797B76",
"/ 	c #777973",
"( 	c #767675",
"_ 	c #0D0D0D",
": 	c #636462",
"< 	c #6C6D6A",
"[ 	c #61625F",
"} 	c #999A99",
"| 	c #696B65",
"1 	c #676964",
"2 	c #5B5D5C",
"3 	c #474747",
"4 	c #999B97",
"5 	c #545552",
"6 	c #51534E",
"7 	c #4E504C",
"8 	c #4B4C4B",
"9 	c #494B47",
"0 	c #92968E",
"a 	c #74796E",
"b 	c #6C7166",
"c 	c #979A94",
"d 	c #A7A9A5",
"e 	c #CBCBCB",
"f 	c #2A2A2A",
"g 	c #84887F",
"h 	c #444444",
"i 	c #1A1B1B",
"j 	c #232424",
"k 	c #9FA19C",
"l 	c #949594",
"m 	c #9C9C9B",
"n 	c #8F928D",
"o 	c #343839",
"p 	c #3B3C3C",
"q 	c #333333",
"r 	c #A1A39F",
"s 	c #BABABA",
"t 	c #C4C4C4",
"u 	c #565959",
"v 	c #111314",
"w 	c #A6A7A4",
"x 	c #CACACA",
"y 	c #B7B8B6",
"z 	c #65696B",
"A 	c #4E5253",
"B 	c #0C0D0E",
"C 	c #0D0F10",
"D 	c #C7C8C7",
"E 	c #2C3133",
"F 	c #0F1112",
"G 	c #4C4F50",
"H 	c #D8D8D7",
"I 	c #403F2D",
"J 	c #67622B",
"K 	c #6A652B",
"L 	c #655F2B",
"M 	c #DBDCDB",
"N 	c #676233",
"O 	c #D4D3C0",
"P 	c #F5F5F3",
"Q 	c #C5C2A8",
"R 	c #7C7750",
"S 	c #D4D4D4",
"T 	c #46452E",
"U 	c #79753B",
"V 	c #807B42",
"W 	c #7F7A41",
"X 	c #76723A",
"Y 	c #676857",
"Z 	c #252B2D",
"` 	c #212628",
" .	c #282E30",
"..	c #303638",
"+.	c #393F41",
"@.	c #3D4345",
"#.	c #414648",
"$.	c #424849",
"%.	c #5A5E60",
"&.	c #5F6465",
"                                                                                                ",
"                                                                                                ",
"                                                                                                ",
"      . + @ @ @ @ @ @ @ @ @ @ @ @ @ @ @ @ @ @ @ @ @ @ @ @ @ @ @ @ @ @ @ @ @ @ .                 ",
"    # $ % % % % % % % % % % % % % % % % % % % % % % % & & * * = = = = = - - - ; >               ",
"      , ' ) ) ) ) ) ) ) ) ) ) ) ) ) ) ) ! ! ' ' ~ ~ ~ { { ] . . . ^ ^ ^ / ( $ , _               ",
"      # : ' ! ! ! ! ! ! ! ! ! ! ' ' ' ~ { { { ] . . . ^ ^ / ( ( ( $ $ $ ; < [ }                 ",
"        ! ; ! ! ! ! ! ! ! ' ' ' ~ { { { ] . . . ^ ^ / ( ( ( $ $ ; < < < | : .                   ",
"          1 / ! ! ! ' ' ~ ~ { { ] ] . . ^ ^ ^ / / ( ( $ $ ; < < < | | | : 1                     ",
"            , ] ' ~ ~ { { ] . . . ^ ^ / / ( ( $ $ $ ; < < < | | | | | 1 2                       ",
"            # : { { ] . . . ^ ^ / ( ( ( $ $ $ ; < < < | | | | | | | 1 , 3                       ",
"              ] | . . ^ ^ / ( ( ( $ $ ; < < < | | | | | | | | | | | : }                         ",
"              @ + < ( $ ; < < | | 1 1 : : : : : : : 1 1 1 1 | | | , @                           ",
"              ( 4 5 5 6 6 6 7 7 8 9 9 9 9 9 9 9 9 8 8 8 8 7 6 6 @ @ ] =                         ",
"            > ~ 0 / a 5 5 6 b b | | | | | | | | | b b ; ; 5 @ @ a ! c 1 = =                     ",
"            ( c ! ^ / a | b b b | | | 1 1 1 | | | | b ; $ a b / ^ ] d 2     e 3                 ",
"            2 = ' { @ f f f f f f f f f f f f f f f f f f f f f a g d . _     3         #       ",
"            / - ! ' h i j j j j j j j j j j j j f f f f j j i f 1 ) k c l       m     =         ",
"          > n d 0 n o j h h h 9 9 9 9 9 9 9 9 9 9 9 9 9 h h p j + l } & :         e e           ",
"          ( = d } c q f 8 8 8 5 5 5 5 8 8 8 5 5 5 5 5 5 5 8 8 f h } r s <                       ",
"          2 t = d } f o 5 u u 2 2 2 2 2 2 2 2 2 5 h o f j i v j o - = s l w                     ",
"          { x y % l q 9 2 : : 1 z z < : A p f v B B B B B B C i h - y t s .                     ",
"        > > D s % ' f u : : 2 5 h E i F F F F F F F v v v v v v G l s t H ,                     ",
"        / t D s s ( I J K K K K K K K K K K K K K K K K K K K L + . s t H '                     ",
"        , M D t s : N O P P P P P P P P P P P P P P P P P P P Q R : t D S = 4                   ",
"        ~ H D D D 8 T U V W W W W W W W W W W W W W W W W V V X Y 9 D D x x 1                   ",
"      > d S D D D h Z ` ` ` ` ` ` ` ` ` ` ` ` ` ` ` ` ` ` ` ` Z u p D D D M ;                   ",
"      ( t x D D t o  . . . . .Z Z Z Z Z Z Z Z Z Z Z Z  . . . . .A A = D D S } m                 ",
"      , M x D D % p E E E E E ..o p +.@.#.$.8 G A 5 u 2 %.&.: z ( 2 } D D x s ]                 ",
"      ~ H D D D s p h h 9 8 8 8 8 8 8 8 8 8 8 8 8 8 8 8 8 8 8 8 8 p - D D x H ,                 ",
"    > d S D D D D s = = = = = = = = = = = = = = = = = = = = = = = % D D D D H ~                 ",
"    / t x D D D D D D D D D D D D D D D D D D D D D D D D D D D D D D D D D S = }               ",
"    , H t t t t t t t t t t t t t t t t t t t t t t t t t t t t t t t t t t x x 1               ",
"    . x s x x s s s s s s s s s s s s s s s s s s s s s s s s s s s s s s s s S :               ",
"  3 ~ t = t t = x x x x x x x x x x x x x x x x x x x x x x x x x x x x x x t D (               ",
"    ] s > > > > > d l % ) ) x d l % ) ) x d d d d d d d d d d d d d d d d d > t ;               ",
"    ^ y } } } } } } l = l } D } l = l } D } } } } } } } } } } } } } } } } } } s <               ",
"    ( % ) ) ) ) ) ) l > = s % ) l > = s % ) ) ) ) ) ) ) ) ) ) ) ) ) ) ) ) ) ) % |               ",
"    $ = ~ ~ ~ ~ ~ ~ ~ ~ ~ ~ ~ ~ ~ ~ ~ ~ ~ ~ ~ ~ ~ ~ ~ ~ ~ ~ ~ ~ ~ ~ ~ ~ ~ ~ ~ = :               ",
"    1 d ^ ( ( ( ( ( ( ( ( ( ( ( ( ( ( ( ( ( ( ( ( ( ( ( ( ( ( ( ( ( ( ( ( ( ^ - [               ",
"    : ) > > > > > > > > > > > > > > > > > > > > > > > > > > > > > > > > > > > ) [               ",
"      2 [ : : : : : : : : : [ [ [ [ [ [ [ [ [ [ [ [ [ [ [ : : : : : : : : : [ 2                 ",
"                                  _ _ _ _ _ _ _ _ _                                             ",
"                                                                                                ",
"                                                                                                ",
"                                                                                                ",
"                                                                                                ",
"                                                                                                "};
