/* XPM */
static char *scanmode[] = {
/* columns rows colors chars-per-pixel */
"64 64 93 2",
"   c #F3F1F1",
".  c #F2F0EF",
"X  c #F1EFEE",
"o  c #EBEAE9",
"O  c #E3E3E3",
"+  c #D4D5E5",
"@  c #DDDDDD",
"#  c #DAD4D3",
"$  c #D4D4D3",
"%  c #C7C7D8",
"&  c #CCCBD1",
"*  c #C6C5D4",
"=  c #D6D0CF",
"-  c #D2CDCB",
";  c #CAC9CA",
":  c #C8C6C9",
">  c #C7C7C8",
",  c #CCC8C6",
"<  c #C9C6C5",
"1  c #C4C3C4",
"2  c #C0BFC1",
"3  c #BBBBD3",
"4  c #BABCC9",
"5  c #BEBEC0",
"6  c #B4B5C4",
"7  c #AEB0C0",
"8  c #898FC8",
"9  c #8489C1",
"0  c #C3C0BF",
"q  c #C2BDBB",
"w  c #BBBBBA",
"e  c #B9B8B7",
"r  c #BBB4B3",
"t  c #B3B3B2",
"y  c #B2B0AF",
"u  c #B2ADAB",
"i  c #ABAAA9",
"p  c #A8A7AB",
"a  c #A6A5A9",
"s  c #A9A7A6",
"d  c #A4A2A4",
"f  c #A19FA3",
"g  c #8389BC",
"h  c #8185BF",
"j  c #9E9CA1",
"k  c #9C9A9D",
"l  c #99969D",
"z  c #959499",
"x  c #939295",
"c  c #938E99",
"v  c #908E94",
"b  c #8E8C92",
"n  c #8C8691",
"m  c #8B8A8E",
"M  c #88878B",
"N  c #868489",
"B  c #858486",
"V  c #837D8A",
"C  c #807E83",
"Z  c #7E7B81",
"A  c #5E638B",
"S  c #7A797B",
"D  c #78777A",
"F  c #77757A",
"G  c #727173",
"H  c #706E72",
"J  c #6F6D71",
"K  c #6C6B6D",
"L  c #69676B",
"P  c #666568",
"I  c #636363",
"U  c #605F62",
"Y  c #53587B",
"T  c #53577B",
"R  c #4E5173",
"E  c #5E5B62",
"W  c #414460",
"Q  c #5C5C5C",
"!  c #58565A",
"~  c #555555",
"^  c #504F51",
"/  c #40435F",
"(  c #4F4F50",
")  c #4B4B4B",
"_  c #474748",
"`  c #424242",
"'  c #3F3F40",
"]  c #3C3C3C",
"[  c #333333",
"{  c #2F2F30",
"}  c #2B2B2B",
"|  c #262626",
" . c None",
/* pixels */
" . . . . . . . . . . . . . . . . . . . . . . . . . . .[ [ [ [ [ [ [ [ [ [  . . . . . . . . . . . . . . . . . . . . . . . . . . .",
" . . . . . . . . . . . . . . . . . . . . . . .[ [ [ [ [ [ [ [ [ [ [ [ [ [ [ [ [ [  . . . . . . . . . . . . . . . . . . . . . . .",
" . . . . . . . . . . . . . . . . . . . .[ [ [ [ [ [ [ [ [ [ [ [ [ [ [ [ [ [ [ [ [ [ [ [  . . . . . . . . . . . . . . . . . . . .",
" . . . . . . . . . . . . . . . . . .[ [ [ [ [ [ [ [ [ [ [ [ [ [ [ [ [ [ [ [ [ [ [ [ [ [ [ [  . . . . . . . . . . . . . . . . . .",
" . . . . . . . . . . . . . . . .[ [ [ [ [ [ [ [ [ [ [ [ [ [ [ [ [ [ [ [ [ [ [ [ [ [ [ [ [ [ [ [  . . . . . . . . . . . . . . . .",
" . . . . . . . . . . . . . .[ [ [ [ [ [ [ [ [ [ [ [ [ [ [ [ [ [ [ [ [ [ [ [ [ [ [ [ [ [ [ [ [ [ [ [  . . . . . . . . . . . . . .",
" . . . . . . . . . . . . .[ [ [ [ [ [ [ [ [ [ [ [ [ [ [ [ [ [ [ [ [ [ [ [ [ [ [ [ [ [ [ [ [ [ [ [ [ [  . . . . . . . . . . . . .",
" . . . . . . . . . . . .[ [ [ [ [ [ [ [ [ [ [ [ [ [ [ [ [ [ [ [ [ [ [ [ [ [ [ [ [ [ [ [ [ [ [ [ [ [ [ [  . . . . . . . . . . . .",
" . . . . . . . . . .[ [ [ [ [ [ [ [ [ [ [ [ [ [ [ [ [ [ [ [ [ [ [ [ [ [ [ [ [ [ [ [ [ [ [ [ [ [ [ [ [ [ [ [  . . . . . . . . . .",
" . . . . . . . . .[ [ [ [ [ [ [ [ [ [ [ [ [ [ [ [ [ [ [ [ [ [ [ [ [ [ [ [ [ [ [ [ [ [ [ [ [ [ [ [ [ [ [ [ [ [  . . . . . . . . .",
" . . . . . . . .[ [ [ [ [ [ [ [ [ [ [ [ [ [ [ [ [ [ [ [ [ [ [ [ [ [ [ [ [ [ [ [ [ [ [ [ [ [ [ [ [ [ [ [ [ [ [ [  . . . . . . . .",
" . . . . . . . .[ [ [ [ [ [ [ [ [ [ [ [ [ [ [ [ [ [ [ [ [ [ [ [ [ [ [ [ [ [ [ [ [ [ [ [ [ [ [ [ [ [ [ [ [ [ [ [  . . . . . . . .",
" . . . . . . .[ [ [ [ [ [ [ [ [ ) F D D D D D D D D D D D D D D D D D D D D D D D D D D D D D D G _ [ [ [ [ [ [ [  . . . . . . .",
" . . . . . .[ [ [ [ [ [ [ [ [ ) j J P P P P P P P P P P P P P P P P P P P L L L L K K K K K K J S d ) [ [ [ [ [ [ [  . . . . . .",
" . . . . .[ [ [ [ [ [ [ [ [ [ _ j J L L L L L L L L L L L L L L K K J J H G G G G F F D S S S Z B f _ [ [ [ [ [ [ [ [  . . . . .",
" . . . . .[ [ [ [ [ [ [ [ [ [ [ J z F F F F F F F F F F F D S S Z Z C C B B N N M M m m b b v x j K [ [ [ [ [ [ [ [ [  . . . . .",
" . . . .[ [ [ [ [ [ [ [ [ [ [ [ [ m m F F F F F F D D S S Z Z C B B B N N M m m m b b v x x z k B [ [ [ [ [ [ [ [ [ [ [  . . . .",
" . . . .[ [ [ [ [ [ [ [ [ [ [ [ [ ] j C F F D S S S Z Z C B B B N M M m m b b b x x x z z z l l ] [ [ [ [ [ [ [ [ [ [ [  . . . .",
" . . .[ [ [ [ [ [ [ [ [ [ [ [ [ [ [ ~ f S S Z Z Z C B B N N M M m m b b v x x z z z z z z l f ` [ [ [ [ [ [ [ [ [ [ [ [ [  . . .",
" . . .[ [ [ [ [ [ [ [ [ [ [ [ [ [ [ [ J z C C B B N N M M m m b b v x x z z z z z z z z z f ~ [ [ [ [ [ [ [ ] [ [ [ [ [ [  . . .",
" . .[ [ [ [ [ [ [ [ [ [ [ [ [ [ [ [ [ ` j x N N M m m m b b v x x z z z z z z z z z z z f G [ [ [ [ [ [ [ [ ] [ [ [ [ [ [ [  . .",
" . .[ [ [ [ [ [ [ [ [ [ [ [ [ [ [ [ [ I N d k k j f d d d a a a p p a a a a d d d f j f j G [ [ [ [ [ [ [ [ ` [ [ [ [ [ [ [  . .",
" . .[ [ [ [ [ [ [ [ [ [ [ [ [ [ [ [ [ N P Z v f j a l l l l l k l l l l l l z l f k l n E l _ _ [ [ [ [ [ [ _ [ [ [ [ [ [ [  . .",
" .[ [ [ [ [ [ [ [ [ [ [ [ [ [ [ [ [ [ j ! V N n j l b c c c z z z z z z c c v b l j n N E z ) _ ~ ] [ [ [ ] _ [ [ [ [ [ [ [ [  .",
" .[ [ [ [ [ [ [ [ [ [ [ [ [ [ [ [ [ _ m E Z N 2 1 1 > > : : ; ; ; ; ; ; : : > > 1 1 p Z P S U [ ] ~ ] [ [ _ ` [ [ [ [ [ [ [ [  .",
" .[ [ [ [ [ [ [ [ [ [ [ [ [ [ [ [ [ I G U G M $ O O O O @ @ @ @ @ @ @ @ @ @ @ @ @ o > F K E B [ [ ] ~ ` ) ) [ [ [ [ [ [ [ [ [  .",
" .[ [ [ [ [ [ [ [ [ [ [ [ [ [ [ [ [ B ! U K x @ 1 1 1 w w w w w w w w e e w w w 1 @ ; H L ) j [ [ [ ] ) ` [ [ [ [ [ [ [ [ [ [  .",
"[ [ [ [ [ [ [ [ [ [ [ [ [ [ [ [ [ [ k ` E I k @ w e t t t t t t t t t t t y t t t < > F U ) C ) [ [ [ [ [ [ [ [ [ [ [ [ [ [ [ [ ",
"[ [ [ [ [ [ [ [ [ [ [ [ [ [ [ [ [ _ B ] ~ ! i # t i i i s s s s i s i w ; $ @ O o   > B ~ _ Q G [ [ [ [ [ [ [ [ [ [ [ [ [ [ [ [ ",
"[ [ [ [ [ [ [ [ [ [ [ [ [ [ [ [ [ P I ] _ ) w ; s d k k k k i 0 $ O           . . X ; k ) _ ] x [ [ [ [ [ [ [ [ [ [ [ [ [ [ [ [ ",
"[ [ [ [ [ [ [ [ [ [ [ [ [ [ [ [ [ B ` ] _ ) > & 7 6 6 4 % + + + + + + + + + + + + + 1 t _ ` } v ] [ [ [ [ [ [ [ [ [ [ [ [ [ [ [ ",
"[ [ [ [ [ [ [ [ [ [ [ [ [ [ [ [ [ k | ] ` ) 4 8 T T Y Y Y Y Y Y Y Y Y Y Y Y Y Y T A g 5 ` ] } P U [ [ [ [ [ [ [ [ [ [ [ [ [ [ [ ",
"[ [ [ [ [ [ [ [ [ [ [ [ [ [ [ [ _ B | [ ] ~ 6 9 / / / / / W W W W W W W W / / / / R h t ` [ [ ' B [ [ [ [ [ [ [ [ [ [ [ [ [ [ [ ",
"[ [ [ [ [ [ [ [ [ [ [ [ [ [ [ [ P Q } [ [ I < * 3 3 3 3 3 3 3 3 3 3 3 3 3 3 3 3 3 3 : d Q [ [ | k [ [ [ [ [ [ [ [ [ [ [ [ [ [ [ ",
"[ [ [ [ [ [ [ [ [ [ [ [ [ [ [ [ B ] [ [ [ S - # # # # # # # # # # # # # # # # # # # = k F [ [ } D ) [ [ [ [ [ [ [ [ [ [ [ [ [ [ ",
"[ [ [ [ [ [ [ [ [ [ [ [ [ [ [ [ k | [ [ [ x ; - - - - - - - - , < 0 q w r r y u i s d x l [ [ } ^ H [ [ [ [ [ [ [ [ [ [ [ [ [ [ ",
"[ [ [ [ [ [ [ [ [ [ [ [ [ [ [ ) B | [ [ [ m 1 w e e t y i i i i i i i i i i i i i i i e x [ [ [ { x [ [ [ [ [ [ [ [ [ [ [ [ [ [ ",
" .[ [ [ [ [ [ [ [ [ [ [ [ [ [ P Q } [ [ [ ] ~ ~ ~ ~ ~ ~ ~ ~ ~ ~ ~ ~ ~ ~ ~ ~ ~ ~ ~ ~ ~ ~ ] [ [ [ | v ] [ [ [ [ [ [ [ [ [ [ [ [  .",
" .[ [ [ [ [ [ [ [ [ [ [ [ [ [ B ] [ [ [ [ [ [ [ [ [ [ [ [ [ [ [ [ [ [ [ [ [ [ [ [ [ [ [ [ [ [ [ } P U [ [ [ [ [ [ [ [ [ [ [ [  .",
" .[ [ [ [ [ [ [ [ [ [ [ [ [ [ k } ] ] ] ] ] ] ] ] ] ] ] ] ] ] ] ] ] ] ] ] ] ] ] ] ] ] ] ] ] ] ] ] ` B [ [ [ [ [ [ [ [ [ [ [ [  .",
" .[ [ [ [ [ [ [ [ [ [ [ [ [ ` M [ _ } ] ) ` ` ` ` ` ` ` ` ` ` ` ` ` ` ` ` ` ` ` ` ` ` ` ` ` ` ` _ [ k [ [ [ [ [ [ [ [ [ [ [ [  .",
" . .[ [ [ [ [ [ [ [ [ [ [ [ ` m ] ~ _ ) ~ ` ) _ ! ~ ] ` ) ~ ~ ) ] ` ` ` ` ` ` ` ` ` ` ` ` ` ` ` ~ ] k [ [ [ [ [ [ [ [ [ [ [  . .",
" . .[ [ [ [ [ [ [ [ [ [ [ [ ` v _ I I I I I L _ G G ] I I ~ G ! ) I I I I I I I I I I I I I I I I ` k ] [ [ [ [ [ [ [ [ [ [  . .",
" . .[ [ [ [ [ [ [ [ [ [ [ [ ] z ) K K K K K K Q Q ) ] K L Q ~ ` ! K K K K K K K K K K K K K K K K ) k ] [ [ [ [ [ [ [ [ [ [  . .",
" . . .[ [ [ [ [ [ [ [ [ [ [ ] k ~ S S S S S S G K L G S D G K L S S S S S S S S S S S S S S S S D ~ k ] [ [ [ [ [ [ [ [ [  . . .",
" . . .[ [ [ [ [ [ [ [ [ [ [ [ d ~ B B B B B B B B B B B B B B B B B B B B B B B B B B B B B B B B I l ] [ [ [ [ [ [ [ [ [  . . .",
" . . . .[ [ [ [ [ [ [ [ [ [ [ x G I I I I I I I I I I I I I I I I I I I I I I I I I I I I I I I I S S [ [ [ [ [ [ [ [ [  . . . .",
" . . . .[ [ [ [ [ [ [ [ [ [ [ ( z k l l l l k k k k k k k k k k k k k k k k k k k k k k k l l l f z _ [ [ [ [ [ [ [ [ [  . . . .",
" . . . . .[ [ [ [ [ [ [ [ [ [ [ [ ] ` _ _ ) ) ~ ~ ~ ! ! Q Q Q Q Q Q Q Q Q Q Q ! ~ ~ ~ ~ ) ) _ _ ] [ [ [ [ [ [ [ [ [ [  . . . . .",
" . . . . .[ [ [ [ [ [ [ [ [ [ [ [ [ [ [ [ ] ] ` ` _ _ _ _ ) ) ) ) ) ) ) ) ) _ _ _ ` ` ] ] ] [ [ [ [ [ [ [ [ [ [ [ [ [  . . . . .",
" . . . . . .[ [ [ [ [ [ [ [ [ [ [ [ [ [ [ [ [ [ ] ] ] ] ` ` ` ` ` ` ` ` ` ` ` ] ] ] [ [ [ [ [ [ [ [ [ [ [ [ [ [ [ [  . . . . . .",
" . . . . . . .[ [ [ [ [ [ [ [ [ [ [ [ [ [ [ [ [ [ [ [ [ [ [ [ [ [ [ [ [ [ [ [ [ [ [ [ [ [ [ [ [ [ [ [ [ [ [ [ [ [  . . . . . . .",
" . . . . . . . .[ [ [ [ [ [ [ [ [ [ [ [ [ [ [ [ [ [ [ [ [ [ [ [ [ [ [ [ [ [ [ [ [ [ [ [ [ [ [ [ [ [ [ [ [ [ [ [  . . . . . . . .",
" . . . . . . . .[ [ [ [ [ [ [ [ [ [ [ [ [ [ [ [ [ [ [ [ [ [ [ [ [ [ [ [ [ [ [ [ [ [ [ [ [ [ [ [ [ [ [ [ [ [ [ [  . . . . . . . .",
" . . . . . . . . .[ [ [ [ [ [ [ [ [ [ [ [ [ [ [ [ [ [ [ [ [ [ [ [ [ [ [ [ [ [ [ [ [ [ [ [ [ [ [ [ [ [ [ [ [ [  . . . . . . . . .",
" . . . . . . . . . .[ [ [ [ [ [ [ [ [ [ [ [ [ [ [ [ [ [ [ [ [ [ [ [ [ [ [ [ [ [ [ [ [ [ [ [ [ [ [ [ [ [ [ [  . . . . . . . . . .",
" . . . . . . . . . . . .[ [ [ [ [ [ [ [ [ [ [ [ [ [ [ [ [ [ [ [ [ [ [ [ [ [ [ [ [ [ [ [ [ [ [ [ [ [ [ [  . . . . . . . . . . . .",
" . . . . . . . . . . . . .[ [ [ [ [ [ [ [ [ [ [ [ [ [ [ [ [ [ [ [ [ [ [ [ [ [ [ [ [ [ [ [ [ [ [ [ [ [  . . . . . . . . . . . . .",
" . . . . . . . . . . . . . .[ [ [ [ [ [ [ [ [ [ [ [ [ [ [ [ [ [ [ [ [ [ [ [ [ [ [ [ [ [ [ [ [ [ [ [  . . . . . . . . . . . . . .",
" . . . . . . . . . . . . . . . .[ [ [ [ [ [ [ [ [ [ [ [ [ [ [ [ [ [ [ [ [ [ [ [ [ [ [ [ [ [ [ [  . . . . . . . . . . . . . . . .",
" . . . . . . . . . . . . . . . . . .[ [ [ [ [ [ [ [ [ [ [ [ [ [ [ [ [ [ [ [ [ [ [ [ [ [ [ [  . . . . . . . . . . . . . . . . . .",
" . . . . . . . . . . . . . . . . . . . .[ [ [ [ [ [ [ [ [ [ [ [ [ [ [ [ [ [ [ [ [ [ [ [  . . . . . . . . . . . . . . . . . . . .",
" . . . . . . . . . . . . . . . . . . . . . . .[ [ [ [ [ [ [ [ [ [ [ [ [ [ [ [ [ [  . . . . . . . . . . . . . . . . . . . . . . .",
" . . . . . . . . . . . . . . . . . . . . . . . . . . .[ [ [ [ [ [ [ [ [ [  . . . . . . . . . . . . . . . . . . . . . . . . . . ."
};
