/* XPM */
static char *swap[] = {
/* columns rows colors chars-per-pixel */
"48 48 253 2",
"   c #978692",
".  c #917B8A",
"X  c #88668D",
"o  c #826384",
"O  c #465BD3",
"+  c #4557C4",
"@  c #3858ED",
"#  c #3551E9",
"$  c #334FE2",
"%  c #3351DB",
"&  c #3852D3",
"*  c #3249D3",
"=  c #2E4BD8",
"-  c #2D46D3",
";  c #2741D3",
":  c #3951CC",
">  c #2D49CB",
",  c #2A44CA",
"<  c #2B45C3",
"1  c #2640C5",
"2  c #122BFE",
"3  c #122AF4",
"4  c #1128EC",
"5  c #1429E0",
"6  c #1027E1",
"7  c #0D25E5",
"8  c #2034DC",
"9  c #2539D2",
"0  c #233CCE",
"q  c #233CC5",
"w  c #202FCF",
"e  c #1D33D8",
"r  c #1026DF",
"t  c #1025D4",
"y  c #0E25DD",
"u  c #0E24D4",
"i  c #1E35C9",
"p  c #1C32C2",
"a  c #1329C7",
"s  c #1125C2",
"d  c #0D22CB",
"f  c #0E23C3",
"g  c #4558B7",
"h  c #4758A7",
"j  c #474AA2",
"k  c #7A6C86",
"l  c #58609A",
"z  c #615D98",
"x  c #684687",
"c  c #634282",
"v  c #44559E",
"b  c #564B95",
"n  c #475387",
"m  c #3446B9",
"M  c #2943BB",
"N  c #3045AA",
"B  c #2F45AD",
"V  c #3C449B",
"C  c #374388",
"Z  c #433A94",
"A  c #243EBA",
"S  c #233BB1",
"D  c #2035B1",
"F  c #233AAE",
"G  c #2137AB",
"H  c #283DA4",
"J  c #233AA6",
"K  c #2235A0",
"L  c #1F36BC",
"P  c #1D33B1",
"I  c #1427BF",
"U  c #1A2FB7",
"Y  c #1124B3",
"T  c #0E21BC",
"R  c #1D33A8",
"E  c #1B30A2",
"W  c #1122AA",
"Q  c #192CA5",
"!  c #172AA1",
"~  c #1324A1",
"^  c #0C1EB2",
"/  c #091AAD",
"(  c #071AAD",
")  c #0B1BA5",
"_  c #0718A1",
"`  c #23399A",
"'  c #23369A",
"]  c #203595",
"[  c #273A8C",
"{  c #20348E",
"}  c #232F84",
"|  c #1E329D",
" . c #1D3294",
".. c #192D99",
"X. c #12229E",
"o. c #162895",
"O. c #142595",
"+. c #1E328D",
"@. c #1D3084",
"#. c #1A2D8C",
"$. c #15268F",
"%. c #1C2E83",
"&. c #142481",
"*. c #0B1A99",
"=. c #0C1A92",
"-. c #051493",
";. c #06148D",
":. c #CAA674",
">. c #D1A76F",
",. c #CDA065",
"<. c #C69C65",
"1. c #C3995F",
"2. c #BC9464",
"3. c #BC935E",
"4. c #B48D5F",
"5. c #AE885D",
"6. c #87767B",
"7. c #A47844",
"8. c #9A7A51",
"9. c #997753",
"0. c #96774D",
"q. c #966D41",
"w. c #8C6E4A",
"e. c #9A6F3D",
"r. c #8C6336",
"t. c #825C33",
"y. c #73687E",
"u. c #7D617B",
"i. c #7E6F71",
"p. c #706F71",
"a. c #6B6471",
"s. c #6F6D6F",
"d. c #69646F",
"f. c #626262",
"g. c #785E73",
"h. c #685976",
"j. c #60407F",
"k. c #735D6E",
"l. c #615B67",
"z. c #5B5B77",
"x. c #5E407B",
"c. c #5B4175",
"v. c #5F5E60",
"b. c #595465",
"n. c #5A4C67",
"m. c #7D684A",
"M. c #796546",
"N. c #625655",
"B. c #715F44",
"V. c #5B5B5B",
"C. c #57515F",
"Z. c #545454",
"A. c #554E5C",
"S. c #54475E",
"D. c #504A56",
"F. c #4D4B55",
"G. c #4D4D51",
"H. c #5E514D",
"J. c #4D4D4D",
"K. c #4A464F",
"L. c #434343",
"P. c #3E4461",
"I. c #5D3F7A",
"U. c #593D74",
"Y. c #573B71",
"T. c #4B3771",
"R. c #553B6D",
"E. c #503769",
"W. c #513A65",
"Q. c #4C3868",
"!. c #4E3763",
"~. c #4C385C",
"^. c #4A365D",
"/. c #443455",
"(. c #393F7D",
"). c #21307E",
"_. c #283365",
"`. c #1B2D7B",
"'. c #192979",
"]. c #1A2B6D",
"[. c #172666",
"{. c #0B187B",
"}. c #09177F",
"|. c #03117C",
" X c #0A1972",
".X c #031075",
"XX c #030E72",
"oX c #0F1D69",
"OX c #03106B",
"+X c #091666",
"@X c #030E6C",
"#X c #020D62",
"$X c #3F3354",
"%X c #2B3254",
"&X c #3F304D",
"*X c #3B3942",
"=X c #2F334E",
"-X c #3A2D45",
";X c #252B48",
":X c #1C2658",
">X c #15225E",
",X c #142057",
"<X c #1D2548",
"1X c #121D51",
"2X c #0D195F",
"3X c #030D5C",
"4X c #030A51",
"5X c #111B4A",
"6X c #101942",
"7X c #08124E",
"8X c #0F1840",
"9X c #030C4B",
"0X c #020844",
"qX c #705C3D",
"wX c #6F5B3C",
"eX c #67543B",
"rX c #614F34",
"tX c #77532C",
"yX c #604425",
"uX c #473F31",
"iX c #593D1F",
"pX c #3D3D3D",
"aX c #34333B",
"sX c #323232",
"dX c #342A3D",
"fX c #282938",
"gX c #2E2735",
"hX c #3D3427",
"jX c #2B2B2B",
"kX c #27272A",
"lX c #242424",
"zX c #0E163B",
"xX c #0C1433",
"cX c #080F3E",
"vX c #01093E",
"bX c #01073D",
"nX c #181B28",
"mX c #15182B",
"MX c #101321",
"NX c #0B112E",
"BX c #0A0F29",
"VX c #090D22",
"CX c #2E2519",
"ZX c #1B1B1B",
"AX c #141619",
"SX c #131313",
"DX c #0A0C1C",
"FX c #070A1A",
"GX c #060815",
"HX c #050712",
"JX c #0C0C0C",
"KX c #02060B",
"LX c #010101",
/* pixels */
"LXLXLXLXLXLXLXLXLXLXLXLXLXLXLXLXLXLXLXLXLXLXLXLXLXLXLXLXLXLX6X% KXLXLXLXLXLXLXLXLXLXLXLXLXLXLXLX",
"LXLXLXLXLXLXLXLXLXLXLXLXLXLXLXLXLXLXLXLXLXLXLXLXLXLXLXLXLX,X+.% KXLXLXLXLXLXLXLXLXLXLXLXLXLXLXLX",
"LXLXLXLXKXkXkXkXkXjXjXjXsXAXLXLXLXLXLXLXLXLXLXLXLXLXLXLX>X .cX< KXLXLXLXLXLXLXLXLXLXLXLXLXLXLXLX",
"LXLXLXLXkXJXSXSXSXSXSXSXsXJ.pXLXLXLXLXLXLXLXLXLXLXLXGX`.#.vXbX< KXLXLXLXLXLXLXLXLXLXLXLXLXLXLXLX",
"LXLXLXLXjXSXlXlXZXZXZXZXlXjXpXL.LXLXLXLXLXLXLXLXLXHX+.'.9X3X0X< KXLXLXLXLXLXLXLXLXLXLXLXLXLXLXLX",
"LXLXLXLXjXSXZXsXsXjXjXZXlXlXjXpXaXLXLXLXLXLXLXLXFX` oX9X3X#X0X< KXLXLXLXLXLXLXLXLXLXLXLXLXLXLXLX",
"LXLXLXLXjXSXZXsXsXjXjXAXkXSXSXkXL.ZXLXLXLXLXLXzX' 2X9X#X#X#X0XK M F +.>XzXFXLXLXLXLXLXLXLXLXLXLX",
"LXLXLXLXjXSXZXjXsXjXkXAXjXJ.Z.f.f.f.jXLXLXLX8X] 2X9X#X#X#X#X3X9X4X3X+X&. .#.>XHXLXLXLXLXLXLXLXLX",
"LXLXLXLXjXSXZXjXjXjXkXSXSXlXlXZXSXpXpXjXLX1X| 7X4X#X#X#X#X#X#X@X@XXX.XXXOX+X#.` NXLXLXLXLXLXLXLX",
"LXLXLXLXjXSXZXjXsXjXkXSXSXSXSXSXSXpXJ.*XC | 9X3X@X@X@X@XOX@X@XXX|.|.;.;.-.-..X XA 5XLXLXLXLXLXLX",
"LXLXLXLXjXSXZXjXjXjXjXkXkXkXkXZXSXpXG.v m } ;._ ) / / / / / / / ) _ _ _ ) ( ^ _ }.G 1XLXLXLXLXLX",
"LXLXLXLXjXSXZXjXjXjXkXkXkXkXkXZXSXpXJ.n & ' d 7 7 7 7 7 7 7 7 7 7 y y u d d d u d =.F NXLXLXLXLX",
"LXLXLXLXjXJXZXjXjXkXkXkXkXkXkXZXSXpXJ.J.n : O.r 2 2 2 2 2 2 2 2 2 2 2 2 2 2 3 3 3 r ~ J KXLXLXLX",
"LXLXLXLXjXJXZXjXjXkXkXlXlXlXlXZXJXpXJ.J.G.n S X.u 2 2 2 2 2 2 2 2 2 2 2 2 2 2 2 2 2 T L 5XLXLXLX",
"LXLXLXLXsXSXZXjXjXkXkXlXlXlXlXAXJXL.J.J.J.G.zX1 X.u 2 2 2 2 4 ) =.*./ u 3 2 2 2 2 2 4 =.J KXLXLX",
"LXLXLXKXaXAXZXsXsXjXjXkXkXkXkXZXSXL.Z.Z.Z.J.LXNXF o.d 2 2 2 ^ , M S G Q O.Y 4 2 2 2 2 ^ R zXLXLX",
"KXKXJXJXpXZXlXsXaXsXlXAXAXSXSXAXAXK.Z.Z.Z.Z.LXLXxXK ! f 3 2 ^ - GXHXBX>X+.D ) r 2 2 2 y ..[.LXLX",
"JXJXJXJXL.lXfX%X%XfXlXZXZXZXZXZXZXJ.V.Z.Z.Z.JXKXKXVXJ Q T 2 ^ - KXLXLXLXKX5Xq W 4 2 2 3 $.`.LXLX",
"JXJXJXSXG._.N ; ; B kXlXlXlXlXlXZXJ.V.V.Z.Z.JXJXKXLXFX{ E ^ ) - KXLXLXLXLXLX5XR d 2 2 2 $.`.LXLX",
"JXJXSXSXh , p 5 t ; %XlXlXlXlXlXZXJ.V.V.Z.Z.JXJXKXKXLXFX%.P {.- KXLXLXLXLXLXVX| Y 2 2 3 o.`.LXLX",
"JXJXmXH 0 e 3 3 8 $ z.V.V.V.V.V.V.L.J.Z.Z.Z.JXJXKXLXLXLXKX@.P = KXLXLXLXLXLXFX .Y 2 2 6 Q [.LXLX",
"JXMX' p t 2 3 9 * g V.V.V.V.V.Z.Z.Z.L.L.Z.Z.KXKXLXLXLXLXLXKX].@ KXLXLXLXLXLXxXD s 2 2 T F BXLXLX",
"KX'.L t 2 3 s % h b.Z.Z.Z.Z.Z.Z.Z.Z.Z.L.L.Z.LXLXLXLXLXLXLXLXKX].KXLXLXLXLXLX%.U 6 2 4 Y ] LXLXLX",
"NX; d 2 3 s q _.J.Z.Z.Z.Z.Z.Z.Z.Z.J.J.J.pXpXLXLXLXLXLXKXKXKXKXJXJXJXJXJXKX:Xq s 3 2 d ; NXLXLXLX",
"] Y 4 2 6 U %.LXSXsXsXsXaXC aXsXsXsXsXsXsXjXLXKXKXJXJXJXJXJXJXJXJXJXJXMX).1 T 3 2 t L `.KXLXLXLX",
"S T 2 2 s D xXLXLXLXLXLXKX@ ].KXLXLXLXLXLXKXKXJXJXJXJXJXSXSXSXSXSXSXSX` q s 3 2 t p ' MXJXKXKXLX",
"Q 6 2 2 Y  .FXLXLXLXLXLXKX= P %.KXLXLXLXKXJXJXJXJXJXSXSXSXAXAXAXZXZXfX; d 3 3 d i H mXJXJXJXJXKX",
"o.3 2 2 Y | VXLXLXLXLXLXKX- {.P %.FXLXKXKXJXJXJXJXSXSXSXAXAXZXZXZXZX;X; t r a 1 [ SXSXJXJXJXJXKX",
"$.2 2 2 d R 5XLXLXLXLXLXKX- ) ^ E { FXLXKXJXJXJXJXJXSXSXSXAXAXZXZXZXZXH 0 0 H :XAXSXJXJXJXJXJXKX",
"$.3 2 2 4 W q 5XKXLXLXLXKX- ^ 2 T Q J VXKXKXJXJXJXJXJXSXSXSXSXSXSXSXSXnX<X<XnXSXSXJXJXJXJXJXKXKX",
"..y 2 2 2 r ) D +.>XBXHXGX- ^ 2 3 f ! K xXLXeX0.0.8.:.v.V.V.V.v.v.v.v.v.v.v.l.:.8.8.0.eXKXKXLXLX",
"R ^ 2 2 2 2 4 Y O.Q G S M , ^ 2 2 2 d o.F NXqXtXe.3.H.gXgXgXdXdX-X-X-X&X&X/./.k.2.7.t.m.LXLXLXLX",
"J =.4 2 2 2 2 2 3 u / *.=.) 4 2 2 2 2 u X.1 l.q.3.N.*XK.F.D.A.A.C.S.~.!.W.W.R.c.u.<.7.m.LXLXLXLX",
"5XL T 2 2 2 2 2 2 2 2 2 2 2 2 2 2 2 2 2 u X.+   N.aXK.JXSXJXJXJXkXpXn.^.!.T.Z R.c.o <.m.LXLXLXLX",
"KXJ ~ r 3 3 3 2 2 2 2 2 2 2 2 2 2 2 2 2 2 r K O (.dXK.SXZXZXZXAXsXsXV.n.T.w e j U.x.6.uXLXLXLXLX",
"LXNXF =.d u d d d u y y 7 7 7 7 7 7 7 7 7 7 d m * C D.JXZXZXAXAXSXkXkXz.w f # b U.U.y.ZXLXLXLXLX",
"LXLX1XG }._ ^ ( ) _ _ ) ) / / / / / / / ) _ ;.j m V A.JXAXAXSXSXSXSXDX9 f # b U.U.I.y.ZXLXLXLXLX",
"LXLXLX5XA  X.X-.-.;.;.|.|.XX@XOXOXOXOX@X@X3X9X+ V $XA.JXAXSXSXSXJXMXI f # b Y.U.U.I.k ZXLXLXLXLX",
"LXLXLXLXNX` #.+XOXXX.XXX@X@X#X#X#X#X#X#X4X7X| l /./.A.JXSXSXSXJXDXI f # b R.U.U.I.x.k ZXLXLXLXLX",
"LXLXLXLXLXHX>X#. .&.+X3X4X9X3X#X#X#X#X9X2X] 8Xd././.b.JXSXSXJXJXW T $ z R.U.U.I.I.j.k ZXLXLXLXLX",
"LXLXLXLXLXLXLXFXzX>X+.F M K 0X#X#X#X9X2X' zXLXa.^.^.b.JXSXSXJX=Xm > <Xh.U.U.I.I.j.c k ZXLXLXLXLX",
"LXLXLXLXLXLXLXLXLXLXLXLXKX< 0X#X3X9XoX` FXLXCXi.W.!.l.JXSXSXJXF.P.AXJXh.U.I.I.j.c x . hXLXLXLXLX",
"LXLXLXLXLXLXLXLXLXLXLXLXKX< 0X3X9X'.+.HXLXLXwXw.g.R.n.pXpXpXpXpXpXpXpXh.I.I.j.c x X w.M.LXLXLXLX",
"LXLXLXLXLXLXLXLXLXLXLXLXKX< bXvX#.`.GXLXLXLXwXiX8.u.U.R.Y.U.U.U.c.x.x.x.x.c c x X 9.yXm.LXLXLXLX",
"LXLXLXLXLXLXLXLXLXLXLXLXKX< cX .>XLXLXLXLXLXwXr.e.4.g.W.Q.E.E.R.R.Y.Y.U.I.I.c o 5.q.7.m.LXLXLXLX",
"LXLXLXLXLXLXLXLXLXLXLXLXKX% +.,XLXLXLXLXLXLXrX3.<.<.>.p.s.s.s.s.s.s.s.s.s.s.p.:.1.,.,.B.LXLXLXLX",
"LXLXLXLXLXLXLXLXLXLXLXLXKX% 6XLXLXLXLXLXLXLXLXJXJXJXJXLXLXLXLXLXLXLXLXLXLXLXLXLXJXJXJXKXLXLXLXLX",
"LXLXLXLXLXLXLXLXLXLXLXLXLXFXLXLXLXLXLXLXLXLXLXLXLXLXLXLXLXLXLXLXLXLXLXLXLXLXLXLXLXLXLXLXLXLXLXLX"
};
