/* XPM */
static const char * unknown[] = {
"64 64 253 2",
"  	c None",
". 	c #222222",
"+ 	c #090A0A",
"@ 	c #0B0B0D",
"# 	c #0B0C0E",
"$ 	c #0B0C0F",
"% 	c #0C0D0F",
"& 	c #0C0D10",
"* 	c #0C0D11",
"= 	c #0C0E11",
"- 	c #0D0E11",
"; 	c #0D0E12",
"> 	c #0E0F12",
", 	c #0E0F13",
"' 	c #0E1013",
") 	c #0F1013",
"! 	c #0B0C0C",
"~ 	c #616161",
"{ 	c #19191B",
"] 	c #160E00",
"^ 	c #332500",
"/ 	c #352600",
"( 	c #362700",
"_ 	c #382900",
": 	c #392A00",
"< 	c #3B2B00",
"[ 	c #3C2C00",
"} 	c #3E2D00",
"| 	c #402F00",
"1 	c #413000",
"2 	c #433100",
"3 	c #443200",
"4 	c #463300",
"5 	c #483400",
"6 	c #493500",
"7 	c #4B3600",
"8 	c #4C3800",
"9 	c #4E3900",
"0 	c #4F3A00",
"a 	c #513B00",
"b 	c #523C00",
"c 	c #543E00",
"d 	c #563F00",
"e 	c #574000",
"f 	c #594100",
"g 	c #5B4200",
"h 	c #5D4400",
"i 	c #5E4500",
"j 	c #604600",
"k 	c #614700",
"l 	c #614800",
"m 	c #624800",
"n 	c #624900",
"o 	c #644A00",
"p 	c #564000",
"q 	c #000000",
"r 	c #595959",
"s 	c #1A1B1C",
"t 	c #281D00",
"u 	c #5B4300",
"v 	c #604700",
"w 	c #634900",
"x 	c #654B00",
"y 	c #684C00",
"z 	c #6B4F00",
"A 	c #6D5000",
"B 	c #705300",
"C 	c #725500",
"D 	c #765700",
"E 	c #785900",
"F 	c #7B5A00",
"G 	c #7D5C00",
"H 	c #7F5E00",
"I 	c #826000",
"J 	c #846200",
"K 	c #876400",
"L 	c #896500",
"M 	c #8C6700",
"N 	c #8E6900",
"O 	c #916C00",
"P 	c #936D00",
"Q 	c #976E00",
"R 	c #9A7100",
"S 	c #9C7400",
"T 	c #9E7600",
"U 	c #A17800",
"V 	c #A47A00",
"W 	c #8C6902",
"X 	c #050200",
"Y 	c #59595A",
"Z 	c #271C00",
"` 	c #533E00",
" .	c #584100",
"..	c #5D4500",
"+.	c #654A00",
"@.	c #684D00",
"#.	c #6A4E00",
"$.	c #6F5200",
"%.	c #725400",
"&.	c #745600",
"*.	c #775700",
"=.	c #795900",
"-.	c #7B5B00",
";.	c #7E5D00",
">.	c #805F00",
",.	c #836100",
"'.	c #856200",
").	c #886400",
"!.	c #8A6600",
"~.	c #8D6900",
"{.	c #8F6A00",
"].	c #926B00",
"^.	c #956E00",
"/.	c #977000",
"(.	c #997200",
"_.	c #9F7600",
":.	c #886602",
"<.	c #1A1B1D",
"[.	c #1B1B1D",
"}.	c #735500",
"|.	c #9C7300",
"1.	c #9E7500",
"2.	c #A17700",
"3.	c #A07700",
"4.	c #A47900",
"5.	c #1C1C1D",
"6.	c #150E00",
"7.	c #2F2300",
"8.	c #312400",
"9.	c #322500",
"0.	c #332600",
"a.	c #352700",
"b.	c #362800",
"c.	c #3B2C00",
"d.	c #3F2E00",
"e.	c #453300",
"f.	c #473500",
"g.	c #493600",
"h.	c #4A3801",
"i.	c #4C3901",
"j.	c #4E3A01",
"k.	c #503B01",
"l.	c #513C01",
"m.	c #533E02",
"n.	c #543E02",
"o.	c #564002",
"p.	c #584202",
"q.	c #594302",
"r.	c #5B4503",
"s.	c #5C4503",
"t.	c #5C4504",
"u.	c #5C4604",
"v.	c #5D4605",
"w.	c #5D4705",
"x.	c #5E4706",
"y.	c #5F4807",
"z.	c #614A07",
"A.	c #534008",
"B.	c #010000",
"C.	c #595A5A",
"D.	c #1E1E1E",
"E.	c #000001",
"F.	c #000002",
"G.	c #000003",
"H.	c #000004",
"I.	c #000105",
"J.	c #000206",
"K.	c #010307",
"L.	c #020308",
"M.	c #020408",
"N.	c #030509",
"O.	c #04060A",
"P.	c #05070B",
"Q.	c #06080C",
"R.	c #07090D",
"S.	c #080A0E",
"T.	c #090A0F",
"U.	c #0A0B10",
"V.	c #0A0C11",
"W.	c #5A5A5A",
"X.	c #010101",
"Y.	c #020202",
"Z.	c #030303",
"`.	c #040404",
" +	c #050505",
".+	c #060606",
"++	c #070707",
"@+	c #080808",
"#+	c #090909",
"$+	c #0A0A0A",
"%+	c #0B0B0B",
"&+	c #0C0C0C",
"*+	c #0D0D0D",
"=+	c #0E0E0E",
"-+	c #0F0F0F",
";+	c #101010",
">+	c #151515",
",+	c #191919",
"'+	c #131313",
")+	c #1C1C1C",
"!+	c #181818",
"~+	c #111111",
"{+	c #1F1F1F",
"]+	c #1B1B1B",
"^+	c #1A1A1A",
"/+	c #1D1D1D",
"(+	c #202020",
"_+	c #121212",
":+	c #161616",
"<+	c #171717",
"[+	c #212121",
"}+	c #141414",
"|+	c #232323",
"1+	c #242424",
"2+	c #252525",
"3+	c #5B5B5B",
"4+	c #262626",
"5+	c #343434",
"6+	c #3C3C3C",
"7+	c #3D3D3D",
"8+	c #3E3E3E",
"9+	c #3F3F3F",
"0+	c #414141",
"a+	c #424242",
"b+	c #434343",
"c+	c #454545",
"d+	c #363636",
"e+	c #6E6E6E",
"f+	c #464646",
"g+	c #525252",
"h+	c #A1A1A1",
"i+	c #2A2A2A",
"j+	c #959595",
"k+	c #2F2F2F",
"l+	c #9C9C9C",
"m+	c #272727",
"n+	c #484848",
"o+	c #9B9B9B",
"p+	c #4A4A4A",
"q+	c #313131",
"r+	c #4B4B4B",
"s+	c #333333",
"t+	c #4D4D4D",
"u+	c #353535",
"v+	c #9A9A9A",
"w+	c #4F4F4F",
"x+	c #373737",
"y+	c #505050",
"z+	c #393939",
"A+	c #3B3B3B",
"B+	c #4C4C4C",
"C+	c #606060",
"D+	c #9D9D9D",
"                                                                                                                                ",
"      . + @ @ @ # # # # # # # # # # $ $ $ $ % $ $ % % & & & & & & & * * * = - - - ; ; ; ; ; > > > > > , ' ' , ) ! ~             ",
"      { ] ^ ^ / ( _ : < [ } | 1 2 3 4 5 6 7 8 9 0 a b c d e f g h i j k l l m m m m m m m m m n n n n n n n o p q r             ",
"      s t e p f u i v w x y z A B C D E F G H I J K L M N O P Q R S T U U U U U U U U U U U U U U U U U U U V W X Y             ",
"      s Z c ` d  .u ..v n +.@.#.A $.%.&.*.=.-.;.>.,.'.).!.~.{.].^./.(.S S S S S S S S S S S S S S S S S S S _.:.X Y             ",
"      <.Z c ` d  .u ..v n +.@.#.A $.%.&.*.=.-.;.>.,.'.).!.~.{.].^./.(.S S S S S S S S S S S S S S S S S S S _.:.X Y             ",
"      [.Z c ` d  .u ..v n +.@.#.A $.%.&.*.=.-.;.>.,.'.).!.~.{.].^./.(.S S S S S S S S S S S S S S S S S S S _.:.X Y             ",
"      [.t e p f u i v w x y z A B }.D E F G H I J K L M N O P Q R |.1.2.2.2.2.2.2.2.2.2.2.2.2.2.2.2.2.2.3.3.4.W X Y             ",
"      5.6.7.7.8.9.0.a.b._ : c.[ } d.| 1 2 3 e.f.g.h.i.j.k.l.m.n.o.p.q.r.r.s.s.t.t.u.u.v.v.v.w.w.x.x.x.x.y.y.z.A.B.C.            ",
"      D.q q q q q q q q q q q q q q q q q q q E.E.F.F.G.G.H.H.I.I.J.J.K.L.M.M.N.N.O.O.P.P.Q.Q.R.R.S.T.T.U.U.V.; q W.            ",
"      D.q q q q q q q q q q q q q q q q q q q X.X.Y.Y.Z.Z.`.`. +.+.+++++@+@+@+#+#+$+%+%+%+&+&+*+*+=+=+-+-+;+;+>+q W.            ",
"      D.q q q q q q q q q q q q q q q q q q X.X.Y.Y.Z.Z.`.`. + +.+.+++++@+@+#+#+$+$+%+%+&+&+*+*+=+=+=+-+;+;+;+,+q W.            ",
"      D.q q q q q q q q q q q q q q q q q q X.X.Y.Y.Z.Z.`.`. + +.+++++@+@+@+#+$+$+%+%+%+&+&+*+*+=+=+-+-+;+;+'+)+q W.            ",
"      D.q q q q q q q q q q q q q q q q q X.X.Y.Y.Z.Z.`.`. + +.+.+++++@+@+#+#+$+$+%+%+&+&+*+*+=+=+-+-+;+;+;+!+)+q W.            ",
"      D.q q q q q q q q q q q q q q q q q X.X.Y.Z.Z.Z.`.`. + +.+++++@+@+#+#+$+$+%+%+%+&+&+*+*+=+=+-+-+;+;+~+)+)+q W.            ",
"      {+q q q q q q q q q q q q q q q q X.X.Y.Y.Z.Z.`.`. + +.+.+++++@+@+#+#+$+$+%+%+&+&+*+*+=+=+-+-+;+;+;+>+D.]+q W.            ",
"      {+q q q q q q q q q q q q q q q X.X.Y.Y.Z.Z.Z.`.`. + +.+.+++@+@+#+#+$+$+%+%+%+&+&+*+*+=+=+-+-+;+;+~+^+/+^+q W.            ",
"      {+q q q q q q q q q q q q q q q X.X.Y.Y.Z.Z.`.`. + +.+.+++++@+@+#+#+$+$+%+%+&+&+*+*+=+=+-+-+;+;+;+>+)+)+^+q W.            ",
"      (+q q q q q q q q q q q q q q X.X.Y.Y.Z.Z.Z.`.`. + +.+.+++@+@+#+#+$+$+%+%+%+&+*+*+=+=+=+-+-+;+;+_+,+]+]+,+q W.            ",
"      (+q q q q q q q q q q q q q q X.X.Y.Y.Z.Z.`.`. + +.+.+++++@+@+#+#+$+$+%+%+&+&+*+*+=+=+-+-+;+;+;+:+]+]+]+,+q W.            ",
"      (+q q q q q q q q q q q q q X.X.Y.Y.Z.Z.Z.`.`. + +.+++++@+@+#+#+$+$+%+%+&+&+*+*+=+=+=+-+-+;+;+'+,+^+^+^+!+q W.            ",
"      (+q q q q q q q q q q q q q X.X.Y.Y.Z.Z.`.`. + +.+.+++++@+@+#+#+$+$+%+%+&+&+*+*+=+=+-+-+;+;+~+<+,+,+,+,+<+q W.            ",
"      [+q q q q q q q q q q q q X.X.Y.Y.Z.Z.Z.`. + +.+.+++++@+@+#+#+$+$+%+%+&+&+*+*+=+=+=+-+-+;+;+:+,+,+,+,+,+<+q W.            ",
"      [+q q q q q q q q q q q q X.X.Y.Y.Z.Z.`.`. + +.+.+++++@+@+#+#+$+$+%+%+&+&+*+*+=+=+-+-+;+;+'+!+!+!+!+!+!+:+q W.            ",
"      [+q q q q q q q q q q q X.X.Y.Y.Z.Z.`.`. + +.+.+++++@+@+@+#+$+$+%+%+&+&+*+*+=+=+=+-+-+;+_+<+!+!+!+!+!+!+:+q W.            ",
"      [+q q q q q q q q q q q X.X.Y.Y.Z.Z.`.`. + +.+.+++++@+@+#+#+$+%+%+%+&+&+*+*+=+=+-+-+;+~+:+<+<+<+<+<+<+<+>+q W.            ",
"      . q q q q q q q q q q X.X.Y.Y.Z.Z.`.`. + +.+.+++++@+@+@+#+$+$+%+%+&+&+*+*+=+=+=+-+-+~+>+:+:+:+:+:+:+:+:+}+q W.            ",
"      . q q q q q q q q q q X.X.Y.Y.Z.Z.`.`. + +.+.+++++@+@+#+#+$+%+%+%+&+&+*+*+=+=+-+-+~+>+:+:+:+:+:+:+:+:+:+}+q W.            ",
"      . q q q q q q q q q X.X.Y.Y.Z.Z.`.`. + +.+.+++++@+@+#+#+$+$+%+%+&+&+*+*+=+=+-+-+_+>+>+>+>+>+>+>+>+>+>+>+'+q W.            ",
"      |+q q q q q q q q q X.X.Y.Z.Z.Z.`.`. + +.+.+++++@+@+#+#+$+%+%+%+&+&+*+*+=+=+;+_+}+>+>+>+>+>+>+>+>+>+>+>+'+q W.            ",
"      |+q q q q q q q q X.X.Y.Y.Z.Z.`.`. + +.+.+++++@+@+#+#+$+$+%+%+&+&+*+*+=+=+;+'+}+}+}+}+}+}+}+}+}+}+}+}+}+_+q W.            ",
"      |+q q q q q q q q X.Y.Y.Z.Z.Z.`.`. + +.+.+++++@+@+#+#+$+$+%+%+&+&+*+*+-+~+'+}+}+}+}+}+}+}+}+}+}+}+}+}+}+_+q W.            ",
"      |+q q q q q q q X.X.Y.Y.Z.Z.`.`. + +.+.+++++@+@+#+#+$+$+%+%+&+&+*+*+;+_+'+'+'+'+'+'+'+'+'+'+'+'+'+'+'+'+~+q W.            ",
"      |+q Y.q q q q X.X.Y.Y.Z.Z.`.`. + +.+.+++++@+@+@+#+#+$+%+%+%+&+*+-+~+'+'+'+_+_+_+_+_+_+_+_+_+_+_+_+_+_+_+~+q W.            ",
"      |+`.~+%+ +X.q q X.Y.Y.Z.Z.`.`. + +.+.+++++@+@+#+#+$+$+%+%+*+-+~+_+_+_+_+_+_+_+_+_+_+_+_+_+_+_+_+_+_+_+_+~+q W.            ",
"      |+Z._+_+~+-+%+++`.Z.Z.Y.Z.`.`. + +.+++++@+@+@+#+$+$+&+=+;+~+~+~+~+~+~+~+~+~+~+~+~+~+~+~+~+~+~+~+~+~+~+~+;+q W.            ",
"      1+Z._+~+~+~+_+~+;+=+&+$+#+@+++++++++@+#+$+%+&+=+-+;+~+~+~+~+~+~+~+~+~+~+~+~+~+~+~+~+~+~+~+~+~+~+~+~+~+~+;+q W.            ",
"      1+Z.~+;+;+;+;+;+;+;+~+~+;+;+;+;+;+;+;+;+;+;+;+;+;+;+;+;+;+;+;+;+;+;+;+;+;+;+;+;+;+;+;+;+;+;+;+;+;+;+;+;+-+q W.            ",
"      1+Z.~+;+;+;+;+;+;+;+;+;+;+;+;+;+;+;+;+;+;+;+;+;+;+;+;+;+;+;+;+;+;+;+;+;+;+;+;+;+;+;+;+;+;+;+;+;+;+;+;+;+-+q W.            ",
"      1+Z.;+-+-+-+-+-+-+-+-+-+-+-+-+-+-+-+-+-+-+-+-+-+-+-+-+-+-+-+-+-+-+-+-+-+-+-+-+-+-+-+-+-+-+-+-+-+-+-+-+-+=+q W.            ",
"      1+Z.;+-+-+-+-+-+-+-+-+-+-+-+-+-+-+-+-+-+-+-+-+-+-+-+-+-+-+-+-+-+-+-+-+-+-+-+-+-+-+-+-+-+-+-+-+-+-+-+-+-+=+q W.            ",
"      2+Y.-+=+=+=+=+=+=+=+=+=+=+=+=+=+=+=+=+=+=+=+=+=+=+=+=+=+=+=+=+=+=+=+=+=+=+=+=+=+=+=+=+=+=+=+=+=+=+=+=+=+*+q W.            ",
"      2+X.=+*+*+*+*+*+*+*+*+*+*+*+*+*+*+*+*+*+*+*+*+*+*+*+*+*+*+*+*+*+*+*+*+*+*+*+*+*+*+*+*+*+*+*+*+*+*+*+*+*+&+q W.            ",
"      2+X.*+*+*+*+*+*+*+*+*+*+*+*+*+*+*+*+*+*+*+*+*+*+*+*+*+*+*+*+*+*+*+*+*+*+*+;+_+~+~+~+~+~+~+~+;+;+;+;+;+;+-+q 3+            ",
"      4+X.&+&+&+&+&+&+&+&+&+&+&+&+&+&+&+&+&+&+&+&+&+&+&+&+&+&+&+&+&+&+&+&+&+&+%+^+5+6+7+8+9+0+a+b+c+c+c+c+c+c+c+d+e+            ",
"      4+X.&+&+&+&+&+&+&+&+&+&+&+&+&+&+&+&+&+&+&+&+&+&+&+&+&+&+&+&+&+&+&+&+&+&+%+^+f+. {+(+[+. 1+2+4+4+4+4+4+4+[+g+h+            ",
"      4+X.%+%+%+%+%+%+%+%+%+%+%+%+%+%+%+%+%+%+%+%+%+%+%+%+%+%+%+%+%+%+%+%+%+%+$+,+b+Y.q q q q q q q q q q q q i+j+              ",
"      4+X.%+%+%+%+%+%+%+%+%+%+%+%+%+%+%+%+%+%+%+%+%+%+%+%+%+%+%+%+%+%+%+%+%+%+$+,+f+++`.Z.Z.Y.Y.X.X.q q q q k+l+                ",
"      m+X.$+$+$+$+$+$+$+$+$+$+$+$+$+$+$+$+$+$+$+$+$+$+$+$+$+$+$+$+$+$+$+$+$+$+#+!+n+@+++.+.+ +`.`.Z.Y.X.q k+o+                  ",
"      m+q $+$+$+$+$+$+$+$+$+$+$+$+$+$+$+$+$+$+$+$+$+$+$+$+$+$+$+$+$+$+$+$+$+$+@+!+p+#+#+#+@+@+++.+.+ +q q+o+                    ",
"      m+q #+#+#+#+#+#+#+#+#+#+#+#+#+#+#+#+#+#+#+#+#+#+#+#+#+#+#+#+#+#+#+#+#+#+++<+r+%+&+%+%+$+$+#+@+Z.s+l+                      ",
"      m+q #+#+#+#+#+#+#+#+#+#+#+#+#+#+#+#+#+#+#+#+#+#+#+#+#+#+#+#+#+#+#+#+#+#+++<+t+&+-+=+=+*+&+&+.+u+v+                        ",
"      m+q #+#+#+#+#+#+#+#+#+#+#+#+#+#+#+#+#+#+#+#+#+#+#+#+#+#+#+#+#+#+#+#+#+#+++<+w+*+~+~+;+;+-+#+x+v+                          ",
"      m+q @+@+@+@+@+@+@+@+@+@+@+@+@+@+@+@+@+@+@+@+@+@+@+@+@+@+@+@+@+@+@+@+@+@+.+<+y+=+}+'+'+_+*+z+v+                            ",
"      m+q @+@+@+@+@+@+@+@+@+@+@+@+@+@+@+@+@+@+@+@+@+@+@+@+@+@+@+@+@+@+@+@+@+@+.+<+y+-+<+:+:+~+A+l+                              ",
"      m+q ++++++++++++++++++++++++++++++++++++++++++++++++++++++++++++++++++++ +>+y+;+^+,+}+7+o+                                ",
"      m+q ++++++++++++++++++++++++++++++++++++++++++++++++++++++++++++++++++++ +>+y+~+)+<+9+o+                                  ",
"      m+q .+.+.+.+.+.+.+.+.+.+.+.+.+.+.+.+.+.+.+.+.+.+.+.+.+.+.+.+.+.+.+.+.+.+`.}+w+~+]+0+o+                                    ",
"      m+q .+.+.+.+.+.+.+.+.+.+.+.+.+.+.+.+.+.+.+.+.+.+.+.+.+.+.+.+.+.+.+.+.+.+`.}+w+=+b+l+                                      ",
"      2+q X.X.X.X.X.X.X.X.X.X.X.X.X.X.X.X.X.X.X.X.X.X.X.X.X.X.X.X.X.X.X.X.X.X.q ~+B+z+l+                                        ",
"      u+!+)+)+)+)+)+)+)+)+)+)+)+)+)+)+)+)+)+)+)+)+)+)+)+)+)+)+)+)+)+)+)+)+)+)+]+4+C+D+                                          ",
"                                                                                                                                ",
"                                                                                                                                ",
"                                                                                                                                "};
