/* XPM */
static char * vflip_xpm[] = {
"48 48 111 2",
"  	c #000000",
". 	c #775E1A",
"+ 	c #674B0F",
"@ 	c #E9D773",
"# 	c #EAD973",
"$ 	c #4E3600",
"% 	c #E5D465",
"& 	c #472E00",
"* 	c #503D00",
"= 	c #3A2400",
"- 	c #E3D162",
"; 	c #675700",
"> 	c #473600",
", 	c #796B00",
"' 	c #261500",
") 	c #E0CE60",
"! 	c #816F00",
"~ 	c #9EAE00",
"{ 	c #3D2C00",
"] 	c #8D7D00",
"^ 	c #241505",
"/ 	c #DDCA5C",
"( 	c #978508",
"_ 	c #9AAB00",
": 	c #A2B100",
"< 	c #98A800",
"[ 	c #2E1700",
"} 	c #9A9100",
"| 	c #150A00",
"1 	c #D7C350",
"2 	c #A59508",
"3 	c #91A200",
"4 	c #B3A40F",
"5 	c #D2BF47",
"6 	c #859700",
"7 	c #1F0D00",
"8 	c #BEAD26",
"9 	c #CEB952",
"0 	c #C9B547",
"a 	c #889B00",
"b 	c #94A600",
"c 	c #758800",
"d 	c #C4B32C",
"e 	c #C4B044",
"f 	c #BFAA3F",
"g 	c #C9B736",
"h 	c #818F00",
"i 	c #8C9E00",
"j 	c #717900",
"k 	c #D0BE3A",
"l 	c #BAA63A",
"m 	c #AB981C",
"n 	c #D2C13D",
"o 	c #6F7500",
"p 	c #362100",
"q 	c #D8C64B",
"r 	c #AA9233",
"s 	c #A88F38",
"t 	c #DAC852",
"u 	c #758500",
"v 	c #819200",
"w 	c #7B8F00",
"x 	c #626900",
"y 	c #DECC55",
"z 	c #987B2C",
"A 	c #DECC59",
"B 	c #4E3F00",
"C 	c #606200",
"D 	c #504900",
"E 	c #E2D160",
"F 	c #8A6B26",
"G 	c #5E5700",
"H 	c #605E00",
"I 	c #756500",
"J 	c #696D00",
"K 	c #7F7900",
"L 	c #593F05",
"M 	c #857D00",
"N 	c #575000",
"O 	c #ABA400",
"P 	c #ECDA75",
"Q 	c #443A00",
"R 	c #988D00",
"S 	c #918700",
"T 	c #757D00",
"U 	c #696900",
"V 	c #8A6F26",
"W 	c #A2853A",
"X 	c #1C1C1C",
"Y 	c #B29B44",
"Z 	c #B7A247",
"` 	c #C0AC4B",
" .	c #C3AE50",
"..	c #2E2E2E",
"+.	c #CAB557",
"@.	c #3D3A38",
"#.	c #D3BE60",
"$.	c #CCBA38",
"%.	c #CDBC38",
"&.	c #D5C060",
"*.	c #423F3F",
"=.	c #DAC665",
"-.	c #C6B531",
";.	c #524B42",
">.	c #DDCA60",
",.	c #5E5044",
"'.	c #695747",
").	c #6F593F",
"!.	c #77603F",
"~.	c #81673D",
"{.	c #8C6F38",
"                                              . .                                               ",
"                                            + @ # +                                             ",
"                                          $ % & * % $                                           ",
"                                        = - ; > > , - =                                         ",
"                                      ' ) ! > ~ ~ { ] ) '                                       ",
"                                    ^ / ( { _ : ~ < [ } / |                                     ",
"                                  | 1 2 [ < ~ ~ ~ _ 3 ' 4 1 |                                   ",
"                                  5 4 ' 3 _ _ _ _ < < 6 7 8 9                                   ",
"                                0 8 7 a _ < < b b b 3 3 c 7 d e                                 ",
"                              f g 7 h b b b 3 3 3 3 3 i a j ' k l                               ",
"                            m n [ c 3 3 3 3 3 i a a a a 6 6 o p q r                             ",
"                          s t { u 3 3 i a a a a 6 6 6 6 6 v w x > y z                           ",
"                        z A B j a a a a 6 6 6 6 6 v w w w w c c C D E F                         ",
"                      . E G o a 6 6 6 6 v v w w w w c c c c u u u H I - .                       ",
"                    + % , J 6 6 v v w w w w c c c c u u u c c c c c C K % L                     ",
"                  L % M x v w w w w c c c c u u u c c c c c c w w w w x } % $                   ",
"                $ - } N N N N N N N G u u c c c c c c w w H C C C C C C x O E =                 ",
"              = P P P P P P P P P P N c c c c w w w w w v H P P P P P P P P P @ '               ",
"                                  P D w w w w w v v v 6 6 H P                                   ",
"                                  P B w v v v 6 6 6 6 6 6 N P                                   ",
"                                  P > 6 6 6 6 6 6 a a a a N P                                   ",
"                                  P { 6 6 a a a a a a i i N P                                   ",
"                                  P { a a a a i i 3 3 3 3 D P                                   ",
"                                  P [ i i 3 3 3 3 3 3 3 b D P                                   ",
"                                  P [ 3 3 3 3 3 b b b b < D P                                   ",
"                                  P 7 b b b b b < < < _ _ B P                                   ",
"                                  P | b < < _ _ _ _ _ _ _ Q P                                   ",
"              ' @ P P P P P P P P P   _ _ _ _ _ _ ~ ~ ~ ~ Q P P P P P P P P P P =               ",
"                = E I                 _ _ ~ ~ ~ ~ ~ ~ ~ : Q > > B B D D N R - $                 ",
"                  $ % ; > _ _ _ _ ~ ~ ~ ~ ~ ~ ~ : : : ~ ~ _ _ _ < b b j S % L                   ",
"                    L % * N ~ ~ ~ ~ ~ ~ : : : ~ ~ _ _ _ < b b 3 3 3 T M % +                     ",
"                      . - > U ~ : : : ~ ~ _ _ _ < b b 3 3 i i i 6 T K - .                       ",
"                        V E * j ~ _ _ _ < b b 3 3 i i i 6 6 6 v T J E z                         ",
"                        | W A B u b b 3 3 i i a 6 6 6 v v h h T U ) s |                         ",
"                    | | X X Y / B u i a 6 6 v v h h h c u u o U y Z X X | |                     ",
"                  | X X X X X ` 1 D u v h h c c u u T T j o H q  .X X X X X |                   ",
"                | X X X X X ....+.5 N T u u T T j o o o x H n 9 ....X X X X X |                 ",
"                | X X X X ......@.#.$.N o o o o J J U C G %.&.@.......X X X X |                 ",
"              | | X X X X ......@.*.=.d N U U C C H H D -.=.*.@.......X X X X | |               ",
"              | | X X X X ......@.*.;.>.8 D H H G N D 8 >.,.*.@.......X X X X | |               ",
"                | X X X X ......@.@.*.'.) 4 B D D B 4 ) '.*.@.@.......X X X X |                 ",
"                | X X X X X ......@.@.*.).- 2 > > m - ).*.@.@.......X X X X X |                 ",
"                  | X X X X X X ........@.!.% ( ( % !.@.........X X X X X X |                   ",
"                    | | X X X X X X ........~.P P ~.........X X X X X X | |                     ",
"                        | | X X X X X X X X X {.{.X X X X X X X X X | |                         ",
"                              | | X X X X X X X X X X X X X X | |                               ",
"                                      | | | | | | | | | |                                       ",
"                                                                                                "};
