/* XPM */
static char *zoom_in[] = {
/* columns rows colors chars-per-pixel */
"48 48 171 2",
"   c #CD82C788C6DF",
".  c #C56DC175C175",
"X  c #C31BBDC0BCC8",
"o  c #BF10BA7CB9D7",
"O  c #B87BB419B421",
"+  c #B610B1E0B245",
"@  c #B294AF9AB294",
"#  c #B2A9AE57AF8B",
"$  c #AEB0AA64AA19",
"%  c #A996A6BAA8A2",
"&  c #A767A567A948",
"*  c #A9DDA56FA4DE",
"=  c #A5C9A1F0A46B",
"-  c #A2559EFAA15F",
";  c #9EB29C93A104",
":  c #A4F0A1149E2F",
">  c #A1F29D919C34",
",  c #9D6F9A999CFC",
"<  c #981F963B981F",
"1  c #97A095BD99E0",
"2  c #9485919C944D",
"3  c #913B8F39933D",
"4  c #8F8F8DA49124",
"5  c #91A28DA08F3C",
"6  c #8C5A89F58BB2",
"7  c #892787048B40",
"8  c #86F284B08937",
"9  c #89DD85DD8628",
"0  c #853D82C485D0",
"q  c #81817F7F8484",
"w  c #BA2689944BBF",
"e  c #B796881749FB",
"r  c #B895870548F9",
"t  c #B42C85FA4B34",
"y  c #B7B485AF46EF",
"u  c #ADAD82F44AC7",
"i  c #813F7E5B7ED7",
"p  c #9191653129C3",
"a  c #8E1B62702A46",
"s  c #8796617E2D32",
"d  c #8EE861BB2640",
"f  c #82D75D2A2FF4",
"g  c #8B4A5D942241",
"h  c #845759B42291",
"j  c #804656B42316",
"k  c #8909598C1E51",
"l  c #866F58951DD8",
"z  c #841354B21AC0",
"x  c #82755139168B",
"c  c #808B4F0713F0",
"v  c #7C4B79E27C43",
"b  c #790376BD79AE",
"n  c #762773AD7823",
"m  c #7961763675E9",
"M  c #748D724B75C8",
"N  c #721E6ED2721E",
"B  c #6F8D6D81715A",
"V  c #71F16E1A6D69",
"C  c #71B069D76524",
"Z  c #6DE96A4C6B31",
"A  c #6AA066B068FC",
"S  c #669065046931",
"D  c #63DC6140644A",
"F  c #61EB5F1A626F",
"G  c #5E105B966089",
"H  c #712F65DE5B01",
"J  c #6C0C63A55D1C",
"K  c #73F661C34C2E",
"L  c #68FD5EC55844",
"P  c #60D75B675FDA",
"I  c #6BA85E5052BF",
"U  c #60C7583D5564",
"Y  c #648857114C4C",
"T  c #68B656244172",
"R  c #5C4E59D05C4C",
"E  c #5959555E5A39",
"W  c #56D753D459D9",
"Q  c #57F253FE56F5",
"!  c #5412519A54B6",
"~  c #521A4E2351C8",
"^  c #4E4E4B4B51D1",
"/  c #5F9255444FA5",
"(  c #56B34E204C38",
")  c #59884C804404",
"_  c #515148B547C0",
"`  c #4BFD49F44B0E",
"'  c #498245BF4AA0",
"]  c #459B42C2491E",
"[  c #49FB43DB42E0",
"{  c #4454419944EE",
"}  c #42143E3044A4",
"|  c #3DF23AF04127",
" . c #72965A6C3A76",
".. c #726256F639F9",
"X. c #653051903D15",
"o. c #6F51584934F9",
"O. c #6E7953EF3150",
"+. c #61CB4D623B87",
"@. c #66144F223045",
"#. c #7057538A2C50",
"$. c #7F5258582460",
"%. c #7E89561B232E",
"&. c #6D5C51DB2B73",
"*. c #6DD2506F2649",
"=. c #6AF04EF82959",
"-. c #65784B6C2C52",
";. c #608A4343285B",
":. c #6A594DE424AF",
">. c #650D49BC2266",
",. c #60ED4683218C",
"<. c #58AC455B3830",
"1. c #517D445D3ADB",
"2. c #5609447A366E",
"3. c #4CFA40D83C2F",
"4. c #411A402E3F42",
"5. c #5E9D44D22111",
"6. c #7BF351361B40",
"7. c #7EB5505A16DF",
"8. c #7D314F7F17C9",
"9. c #74CE4BF11C9B",
"0. c #7DE84C3812A5",
"q. c #74F446B21433",
"w. c #697649651DEE",
"e. c #624A457E1E08",
"r. c #6DA142991585",
"t. c #7CDA492C0E5D",
"y. c #7A3A45920B0B",
"u. c #75B2424608FA",
"i. c #76A940B10606",
"p. c #5C7242001D20",
"a. c #40E23C413D8F",
"s. c #746D3DDF039D",
"d. c #59E73E9D1A8D",
"f. c #54A23B991998",
"g. c #546B3A3116C8",
"h. c #513A3750160C",
"j. c #4DF3371E1869",
"k. c #4C4734D0157F",
"l. c #3CF33B2D3C9F",
"z. c #368C33893939",
"x. c #382935A8359D",
"c. c #357F337C35F8",
"v. c #307F2E403280",
"b. c #2E842B8131DC",
"n. c #2D272BAB2DA7",
"m. c #29FF265D2CF2",
"M. c #2545222228C9",
"N. c #2828272C272C",
"B. c #23D622DA2545",
"V. c #20FC1DF92424",
"C. c #1E3E1C5F211F",
"Z. c #21611AC51337",
"A. c #22E3184A0CC5",
"S. c #224C15F508B4",
"D. c #2060145F06BB",
"F. c #1A7819BB1C26",
"G. c #181817171B1B",
"H. c #16A915A818F4",
"J. c #1EF7184B121A",
"K. c #1BFB15F11038",
"L. c #129412361395",
"P. c #10100F0F1212",
"I. c #0ECF0E8E10D1",
"U. c #19D713BC0DD7",
"Y. c #1CD611E80480",
"T. c #15D2102106A4",
"R. c #11160F0A0F0A",
"E. c #12F20D3604C9",
"W. c #0B400B2C0B60",
"Q. c #060606060808",
"!. c #007E007E007E",
/* pixels */
"!.!.!.!.!.!.!.!.!.!.!.!.!.!.!.!.!.!.!.!.!.!.!.!.!.!.!.!.!.!.!.!.!.!.!.!.!.!.!.!.!.!.!.!.!.!.!.!.",
"!.!.!.!.!.!.!.!.!.!.!.!.!.!.!.!.!.!.!.!.!.!.!.!.!.!.!.!.!.!.!.!.!.!.!.!.!.!.!.!.!.!.!.!.!.!.!.!.",
"!.!.!.!.!.!.!.!.!.!.!.!.!.!.!.H.{ B 6 ; & & ; 6 B { H.!.!.!.!.!.!.!.!.!.!.!.!.!.!.!.!.!.!.!.!.!.",
"!.!.!.!.!.!.!.!.!.!.!.!.!.l.8 , M ` b.G.I.I.F.v.` M , 8 l.!.!.!.!.!.!.!.!.!.!.!.!.!.!.!.!.!.!.!.",
"!.!.!.!.!.!.!.!.!.!.!.n.2 8 | W.L.C.M.m.m.m.m.M.C.G.L.{ 6 2 n.!.!.!.!.!.!.!.!.!.!.!.!.!.!.!.!.!.",
"!.!.!.!.!.!.!.!.!.Q.S 1 l.W.C.m.| E A N n n N A E | m.C.L.{ , A Q.!.!.!.!.!.!.!.!.!.!.!.!.!.!.!.",
"!.!.!.!.!.!.!.!.W.7 n W.F.b.! M C K  .#.#.#.#. .K C M ~ m.C.F.v 6 W.!.!.!.!.!.!.!.!.!.!.!.!.!.!.",
"!.!.!.!.!.!.!.W.4 G Q.M.' N H O.*.:.:.:.:.:.:.*.*.*.#.H Z } V.L.S 2 W.!.!.!.!.!.!.!.!.!.!.!.!.!.",
"!.!.!.!.!.!.Q.7 R W.m.E V o.:.:.>.>.>.>.>.>.:.:.:.:.*.*.o.A ~ V.H.D 6 Q.!.!.!.!.!.!.!.!.!.!.!.!.",
"!.!.!.!.!.!.D M W.m.F C &.>.>.,.,.,.>.,.,.>.>.>.:.:.:.:.*.&.J E V.L.b D !.!.!.!.!.!.!.!.!.!.!.!.",
"!.!.!.!.!.N.2 W.M.! J :.>.,.,.5.5.5.5.5.,.,.,.>.>.>.:.:.:.:.*.L ' C.G.< B.!.!.!.!.!.!.!.!.!.!.!.",
"!.!.!.!.!.6 c.C.} Z =.>.,.p.p.p.p.p.u u t t t t ,.>.>.>.:.:.:.&.D z.F.l.5 !.!.!.!.!.!.!.!.!.!.!.",
"!.!.!.!.c.0 W.b.A O.>.5.p.p.p.d.d.f.u E.E.T.E.t p.e.,.>.>.>.:.:.&.P C.L.9 x.!.!.!.!.!.!.!.!.!.!.",
"!.!.!.!.0 l.C.` I >.p.p.d.f.f.f.f.f.u E.Z.Z.E.u d.p.p.e.e.>.>.:.:.Y l.G.{ 9 !.!.!.!.!.!.!.!.!.!.",
"!.!.!.L.- W.m.A =.,.p.d.f.g.h.j.j.j.u E.Z.Z.E.u d.d.p.p.e.e.>.>.:.=.G F.L.* L.!.!.!.!.!.!.!.!.!.",
"!.!.!.' n L.| J >.p.d.f.f.h.j.k.k.k.u E.Z.Z.E.u g.f.d.p.p.p.e.e.>.>.U m.L.b ` !.!.!.!.!.!.!.!.!.",
"!.!.!.n ~ C.~ T e.p.f.f.h.k.k.k.k.k.u E.J.J.E.u h.g.f.d.d.p.p.e.e.>.X.{ H.! m !.!.!.!.!.!.!.!.!.",
"!.!.!.2 v.M.P @.p.d.f.g.u u u u u u u E.K.K.E.u u u u u t u p.e.e.e.-.~ H.c., !.!.!.!.!.!.!.!.!.",
"!.!.!.$ G.m.F >.p.f.g.h.u E.E.E.E.E.E.E.U.U.E.E.E.E.E.E.E.t d.w.$.a s E H.B.# !.!.!.!.!.!.!.!.!.",
"!.!.!.O L.m.S e.d.g.g.k.u E.U.K.U.U.U.U.U.U.U.U.U.U.U.U.E.t j d d p p E L.H.o !.!.!.!.!.!.!.!.!.",
"!.!.!.O L.m.D p.e.%.h 6.t E.U.U.U.U.U.U.U.U.U.U.U.U.A.Z.D.w g g d d p W L.H.o !.!.!.!.!.!.!.!.!.",
"!.!.!.# F.m.R 5.j h h z w Y.Y.Y.Y.Y.T.T.A.A.Y.Y.Y.D.D.D.S.w g g g d a ! L.C.+ !.!.!.!.!.!.!.!.!.",
"!.!.!.< c.M.Q -.g h l z w e e e e e e Y.A.A.Y.w w w w w w w k g g g f ` L.c., !.!.!.!.!.!.!.!.!.",
"!.!.!.v Q V.' X.g l l z z 7.8.8.0.0.r Y.A.S.Y.w x x x z z l k k g g ..x.L.! v !.!.!.!.!.!.!.!.!.",
"!.!.!.` v G.z./ g l z z x 7.8.0.0.0.r Y.S.S.Y.w c c x x x z l k k g ) F.L.i ` !.!.!.!.!.!.!.!.!.",
"!.!.!.L.$ L.m.Q h l z z x 8.0.0.0.0.r Y.S.S.Y.r 0.0.c x x x z l k h ` I.L.# L.!.!.!.!.!.!.!.!.!.",
"!.!.!.!.5 ] V.l.T l z z x 8.0.0.0.t.r Y.D.D.Y.r t.0.0.c x x z z l +.N.W.{ 2 !.!.!.!.!.!.!.!.!.!.",
"!.!.!.!.x.2 H.m.~ j z x x c 0.0.t.t.r Y.Y.Y.Y.r t.t.0.0.c x x z %.[ W.L.2 l.!.!.!.!.!.!.!.!.!.!.",
"!.!.!.!.!., } C.z.( z x c 0.0.t.t.y.y y y y y y y.t.t.0.0.c x z [ F.W.l.> !.!.!.!.!.!.!.!.!.!.!.",
"!.!.!.!.!.N.= F.M.| ) x c 0.0.t.y.y.u.i.s.s.i.u.y.y.t.0.0.c x 1.N.Q.H.* N.!.!.!.!.!.!.!.!.!.!.!.",
"!.!.!.!.!.!.Z 0 H.M.{ ) 8.0.t.t.y.u.i.s.s.s.s.i.u.y.t.t.0.8.1.c.Q.L.i Z !.!.!.!.!.!.!.!.!.!.!.!.",
"!.!.!.!.!.!.Q., Z H.M.l._ 9.t.t.y.u.i.s.s.s.s.i.u.y.t.t.9.[ n.W.H.0 * W.!.!.!.!.!.!.!.!.!.!.!.!.",
"!.!.!.!.!.!.!.W.* V L.V.v.] <.q.y.u.i.s.s.s.s.i.u.y.q.2.} C.W.L.9   - @ 1 M m.!.!.!.!.!.!.!.!.!.",
"!.!.!.!.!.!.!.!.W.> 6 F.F.V.c.{ 3.;.r.u.i.i.u.r.;.3.{ m.W.W.F.6 $ # S W ^ E , n.!.!.!.!.!.!.!.!.",
"!.!.!.!.!.!.!.!.!.Q.v + ` L.F.C.M.c.a.{ ] ] { a.v.C.P.I.L.` O m R.. M n F ] } , n.!.!.!.!.!.!.!.",
"!.!.!.!.!.!.!.!.!.!.!.x.$ > ` L.H.H.G.G.H.H.L.L.L.L.L.` : $ x.!.!.+ 0 0 n n ' } , n.!.!.!.!.!.!.",
"!.!.!.!.!.!.!.!.!.!.!.!.!.[ > o 9 E l.B.F.F.B.l.R 9 X > ' Q.!.!.!.6 < q = 4 b ' } , n.!.!.!.!.!.",
"!.!.!.!.!.!.!.!.!.!.!.!.!.!.Q.F.! 9 * X     X * 0 ! F.Q.Q.Q.Q.Q.Q.a.X 7 7 & 3 v ' } , n.!.!.!.!.",
"!.!.!.!.!.!.!.!.!.!.!.Q.Q.Q.Q.Q.Q.Q.Q.W.W.W.W.W.W.W.W.W.W.W.W.W.Q.Q.l.X 7 7 & 3 v ] } ; n.!.!.!.",
"!.!.!.!.!.!.!.!.!.!.Q.Q.Q.Q.Q.Q.W.W.W.W.W.W.W.W.W.W.W.W.W.W.W.W.W.W.W.l.X 7 7 & 2 v ] { ; n.!.!.",
"!.!.!.!.!.!.!.!.!.Q.Q.Q.Q.Q.Q.W.W.W.W.W.W.W.W.L.L.L.L.L.L.L.W.W.W.W.W.W.l.X 7 7 & 2 v ] { ; N.!.",
"!.!.!.!.!.!.!.!.!.Q.Q.Q.Q.Q.Q.W.W.W.W.W.W.W.W.W.L.L.L.L.L.L.L.L.L.W.W.W.W.4.X 8 8 & 3 v { ! v !.",
"!.!.!.!.!.!.!.!.!.!.!.Q.Q.Q.Q.Q.Q.Q.W.W.W.W.W.W.W.W.W.W.L.L.L.L.L.L.L.W.W.W.{ X 8 8 & 4 ^ F F !.",
"!.!.!.!.!.!.!.!.!.!.!.!.!.Q.Q.Q.Q.Q.Q.Q.Q.Q.Q.Q.Q.Q.W.W.W.W.W.W.W.W.W.L.W.W.W.4.X 0 0 B D % L.!.",
"!.!.!.!.!.!.!.!.!.!.!.!.!.!.!.!.!.!.!.Q.Q.Q.Q.Q.Q.Q.Q.Q.Q.Q.Q.Q.Q.W.W.W.W.W.W.Q.l.X 2 2 + n.!.!.",
"!.!.!.!.!.!.!.!.!.!.!.!.!.!.!.!.!.!.!.!.!.!.!.!.!.!.!.!.!.!.!.!.!.!.!.Q.Q.Q.Q.Q.Q.x.9 V G.!.!.!.",
"!.!.!.!.!.!.!.!.!.!.!.!.!.!.!.!.!.!.!.!.!.!.!.!.!.!.!.!.!.!.!.!.!.!.!.!.!.!.!.!.!.!.!.!.!.!.!.!.",
"!.!.!.!.!.!.!.!.!.!.!.!.!.!.!.!.!.!.!.!.!.!.!.!.!.!.!.!.!.!.!.!.!.!.!.!.!.!.!.!.!.!.!.!.!.!.!.!."
};
