/* XPM */
static char *zoom_best_fit[] = {
/* columns rows colors chars-per-pixel */
"48 48 183 2",
"   c #CD82C788C6DF",
".  c #C56DC175C175",
"X  c #C31BBDC0BCC8",
"o  c #BF10BA7CB9D7",
"O  c #B87BB419B421",
"+  c #B610B1E0B245",
"@  c #B294AF9AB294",
"#  c #B2A9AE57AF8B",
"$  c #AEB0AA64AA19",
"%  c #A996A6BAA8A2",
"&  c #A767A567A948",
"*  c #A9DDA56FA4DE",
"=  c #A5C9A1F0A46B",
"-  c #A2559EFAA15F",
";  c #9EB29C93A104",
":  c #A4F0A1149E2F",
">  c #A1F29D919C34",
",  c #9D6F9A999CFC",
"<  c #981F963B981F",
"1  c #97A095BD99E0",
"2  c #9485919C944D",
"3  c #913B8F39933D",
"4  c #8F8F8DA49124",
"5  c #91A28DA08F3C",
"6  c #8C5A89F58BB2",
"7  c #892787048B40",
"8  c #86F284B08937",
"9  c #89DD85DD8628",
"0  c #853D82C485D0",
"q  c #81817F7F8484",
"w  c #B612862448EB",
"e  c #B43382EB453A",
"r  c #AC4981F04A44",
"t  c #813F7E5B7ED7",
"y  c #A9EC7F644878",
"u  c #A7CC7EA0480C",
"i  c #A9907E5C478B",
"p  c #A6547CFB46F9",
"a  c #99D2727E40AD",
"s  c #A15172A43881",
"d  c #98F3727E3EED",
"f  c #9191653129C3",
"g  c #8E1B62702A46",
"h  c #8796617E2D32",
"j  c #8EE861BB2640",
"k  c #82D75D2A2FF4",
"l  c #8B515D7C222E",
"z  c #84BB59C8224A",
"x  c #804656B42316",
"c  c #890959DA1E85",
"v  c #869758931DB6",
"b  c #849355641B50",
"n  c #826C512D16A9",
"m  c #805C4E95139C",
"M  c #7C4B79E27C43",
"N  c #790376BD79AE",
"B  c #762773AD7823",
"V  c #7961763675E9",
"C  c #748D724B75C8",
"Z  c #721E6ED2721E",
"A  c #6F8D6D81715A",
"S  c #71F16E1A6D69",
"D  c #71B069D76524",
"F  c #6DE96A4C6B31",
"G  c #6AA066B068FC",
"H  c #669065046931",
"J  c #63DC6140644A",
"K  c #61EB5F1A626F",
"L  c #5E105B966089",
"P  c #712F65DE5B01",
"I  c #6C0C63A55D1C",
"U  c #73F661C34C2E",
"Y  c #68FD5EC55844",
"T  c #60D75B675FDA",
"R  c #6BA85E5052BF",
"E  c #60C7583D5564",
"W  c #648857114C4C",
"Q  c #68B656244172",
"!  c #5C4E59D05C4C",
"~  c #5959555E5A39",
"^  c #56D753D459D9",
"/  c #57F253FE56F5",
"(  c #5412519A54B6",
")  c #521A4E2351C8",
"_  c #4E4E4B4B51D1",
"`  c #5F9255444FA5",
"'  c #56B34E204C38",
"]  c #59884C804404",
"[  c #515148B547C0",
"{  c #4BFD49F44B0E",
"}  c #498245BF4AA0",
"|  c #459B42C2491E",
" . c #49FB43DB42E0",
".. c #4454419944EE",
"X. c #42143E3044A4",
"o. c #3DF23AF04127",
"O. c #72965A6C3A76",
"+. c #726256F639F9",
"@. c #653051903D15",
"#. c #6F51584934F9",
"$. c #6E7953EF3150",
"%. c #61CB4D623B87",
"&. c #66144F223045",
"*. c #7057538A2C50",
"=. c #7F5258582460",
"-. c #7E89561B232E",
";. c #6D5C51DB2B73",
":. c #6DE25070262B",
">. c #6AF04EF82959",
",. c #65784B6C2C52",
"<. c #608A4343285B",
"1. c #6A484DD62489",
"2. c #64D249B62280",
"3. c #60C0462F2244",
"4. c #58AC455B3830",
"5. c #517D445D3ADB",
"6. c #5609447A366E",
"7. c #4CFA40D83C2F",
"8. c #411A402E3F42",
"9. c #5E50451A2201",
"0. c #7CA652881C97",
"q. c #7A444EB618EC",
"w. c #74CE4BF11C9B",
"e. c #7CD84C541373",
"r. c #71C3481815D3",
"t. c #74F446B21433",
"y. c #697649651DEE",
"u. c #69D0477A19EE",
"i. c #6280457B1DC2",
"p. c #6C6843DF1516",
"a. c #65A941551419",
"s. c #7C8649140F1D",
"d. c #7A0045760AE6",
"f. c #75B242AD08FA",
"g. c #76C340C10639",
"h. c #5C4E41C71D75",
"j. c #40E23C413D8F",
"k. c #746D3DDF039D",
"l. c #59EF3E8419EC",
"z. c #555B3BE11970",
"x. c #50B236D71849",
"c. c #595E3B741614",
"v. c #542239BA15DA",
"b. c #519236EF147F",
"n. c #4DF3371E1869",
"m. c #4F2138681654",
"M. c #4BA63359139D",
"N. c #473F300811E0",
"B. c #493A2F3E0FBF",
"V. c #45B32E2A1053",
"C. c #4B9D2F8D0ED0",
"Z. c #443A2C4C0E40",
"A. c #3CF33B2D3C9F",
"S. c #368C33893939",
"D. c #382935A8359D",
"F. c #357F337C35F8",
"G. c #307F2E403280",
"H. c #2E842B8131DC",
"J. c #2D272BAB2DA7",
"K. c #29FF265D2CF2",
"L. c #2545222228C9",
"P. c #2828272C272C",
"I. c #23D622DA2545",
"U. c #20FC1DF92424",
"Y. c #1E3E1C5F211F",
"T. c #28D220E1159C",
"R. c #25151D6D143F",
"E. c #28E11B0809F9",
"W. c #26D7186A07FE",
"Q. c #26C5181306F1",
"!. c #25B4166C0551",
"~. c #1A7819BB1C26",
"^. c #181817171B1B",
"/. c #16A915A818F4",
"(. c #129412361395",
"). c #10100F0F1212",
"_. c #0ECF0E8E10D1",
"`. c #1C4914D009B9",
"'. c #18D41066068F",
"]. c #11160F0A0F0A",
"[. c #0B400B2C0B60",
"{. c #060606060808",
"}. c #007E007E007E",
/* pixels */
"}.}.}.}.}.}.}.}.}.}.}.}.}.}.}.}.}.}.}.}.}.}.}.}.}.}.}.}.}.}.}.}.}.}.}.}.}.}.}.}.}.}.}.}.}.}.}.}.",
"}.}.}.}.}.}.}.}.}.}.}.}.}.}.}.}.}.}.}.}.}.}.}.}.}.}.}.}.}.}.}.}.}.}.}.}.}.}.}.}.}.}.}.}.}.}.}.}.",
"}.}.}.}.}.}.}.}.}.}.}.}.}.}.}./...A 6 ; & & ; 6 A ../.}.}.}.}.}.}.}.}.}.}.}.}.}.}.}.}.}.}.}.}.}.",
"}.}.}.}.}.}.}.}.}.}.}.}.}.A.8 , C { H.^._._.~.G.{ C , 8 A.}.}.}.}.}.}.}.}.}.}.}.}.}.}.}.}.}.}.}.",
"}.}.}.}.}.}.}.}.}.}.}.J.2 8 o.[.(.Y.L.K.K.K.K.L.Y.^.(...6 2 J.}.}.}.}.}.}.}.}.}.}.}.}.}.}.}.}.}.",
"}.}.}.}.}.}.}.}.}.{.H 1 A.[.Y.K.o.~ G Z B B Z G ~ o.K.Y.(..., G {.}.}.}.}.}.}.}.}.}.}.}.}.}.}.}.",
"}.}.}.}.}.}.}.}.[.7 B [.~.H.( C D U O.*.*.*.*.O.U D C ) K.Y.~.M 6 [.}.}.}.}.}.}.}.}.}.}.}.}.}.}.",
"}.}.}.}.}.}.}.[.4 L {.L.} Z P $.:.1.1.1.1.1.1.:.:.:.*.P F X.U.(.H 2 [.}.}.}.}.}.}.}.}.}.}.}.}.}.",
"}.}.}.}.}.}.{.7 ! [.K.~ S #.1.1.2.2.2.2.2.2.1.1.1.1.:.:.#.G ) U./.J 6 {.}.}.}.}.}.}.}.}.}.}.}.}.",
"}.}.}.}.}.}.J C [.K.K D ;.2.2.3.3.3.2.3.3.2.2.2.1.1.1.1.:.;.I ~ U.(.N J }.}.}.}.}.}.}.}.}.}.}.}.",
"}.}.}.}.}.P.2 [.L.( I d r r r r r r r 9.3.3.3.r r r r r r r a Y } Y.^.< I.}.}.}.}.}.}.}.}.}.}.}.",
"}.}.}.}.}.6 F.Y.X.F >.r `.`.`.`.`.`.r h.h.h.h.r `.`.`.`.`.`.r ;.J S.~.A.5 }.}.}.}.}.}.}.}.}.}.}.",
"}.}.}.}.F.0 [.H.G $.2.r `.R.R.R.R.R.u z.l.h.h.y R.R.T.T.T.T.r 1.;.T Y.(.9 D.}.}.}.}.}.}.}.}.}.}.",
"}.}.}.}.0 A.Y.{ R 2.h.r `.R.u u p p p z.z.z.z.y y r r r `.T.r 1.1.W A.^...9 }.}.}.}.}.}.}.}.}.}.",
"}.}.}.(.- [.K.G >.3.h.y '.R.p n.m.m.m.x.x.x.v.z.l.l.h.y `.R.r 2.1.>.L ~.(.* (.}.}.}.}.}.}.}.}.}.",
"}.}.}.} B (.o.I 2.h.l.p '.R.p M.M.M.M.M.m.m.b.x.z.z.l.y `.R.r i.2.2.E K.(.N { }.}.}.}.}.}.}.}.}.",
"}.}.}.B ) Y.) Q i.h.z.u '.R.p M.N.M.M.M.M.M.m.b.b.v.z.i `.R.r i.i.2.@.../.( V }.}.}.}.}.}.}.}.}.",
"}.}.}.2 G.L.T &.h.z.z.p p p p M.N.N.N.N.N.M.M.M.m.b.v.i i y y i.i.i.,.) /.F., }.}.}.}.}.}.}.}.}.",
"}.}.}.$ ^.K.K 2.h.z.v.b.m.M.N.N.N.V.V.V.V.V.N.M.M.b.b.v.c.l.l.y.=.g h ~ /.I.# }.}.}.}.}.}.}.}.}.",
"}.}.}.O (.K.H i.l.v.v.m.M.M.N.V.V.V.Z.Z.Z.Z.C.B.M.M.b.b.c.u.x j j f f ~ (./.o }.}.}.}.}.}.}.}.}.",
"}.}.}.O (.K.J h.i.-.z 0.u.c.M.Z.Z.Z.Z.Z.Z.Z.Z.Z.C.v.a.q.z l l l j j f ^ (./.o }.}.}.}.}.}.}.}.}.",
"}.}.}.# ~.K.! 9.x z z b 0.0.0.q.r.p.a.a.a.p.p.q.n b b v c c l l l j g ( (.Y.+ }.}.}.}.}.}.}.}.}.",
"}.}.}.< F.L./ ,.l z v w w e e q.q.e.e.e.e.e.e.n n b b w w w w l l l k { (.F., }.}.}.}.}.}.}.}.}.",
"}.}.}.M / U.} @.l v v w W.Q.e e.e.e.e.e.e.e.e.m n n n w W.E.w c l l +.D.(.( M }.}.}.}.}.}.}.}.}.",
"}.}.}.{ M ^.S.` l v b w W.E.e e.e.e.e.e.e.e.e.e.m m n w W.E.w c c l ] ~.(.t { }.}.}.}.}.}.}.}.}.",
"}.}.}.(.$ (.K./ z v b w Q.E.e e.e.e.s.s.s.s.s.e.e.e.m w Q.W.w v c z { _.(.# (.}.}.}.}.}.}.}.}.}.",
"}.}.}.}.5 | U.A.Q v b w Q.E.e e e e e d.d.d.s.e e e e e Q.Q.w b v %.P.[...2 }.}.}.}.}.}.}.}.}.}.",
"}.}.}.}.D.2 /.K.) x b w Q.E.!.!.!.!.e d.d.d.d.e !.!.!.!.Q.Q.w b -. .[.(.2 A.}.}.}.}.}.}.}.}.}.}.",
"}.}.}.}.}., X.Y.S.' b w Q.W.Q.!.!.!.e f.g.g.f.e !.!.!.!.!.Q.w b  .~.[.A.> }.}.}.}.}.}.}.}.}.}.}.",
"}.}.}.}.}.P.= ~.L.o.] s e e e e e e e g.k.k.g.e e e e e e e s 5.P.{./.* P.}.}.}.}.}.}.}.}.}.}.}.",
"}.}.}.}.}.}.F 0 /.L...] e.e.s.s.d.f.g.k.k.k.k.g.f.d.s.s.e.e.5.F.{.(.t F }.}.}.}.}.}.}.}.}.}.}.}.",
"}.}.}.}.}.}.{., F /.L.A.[ w.s.s.d.f.g.k.k.k.k.g.f.d.s.s.w. .J.[./.0 * [.}.}.}.}.}.}.}.}.}.}.}.}.",
"}.}.}.}.}.}.}.[.* S (.U.G.| 4.t.d.f.g.k.k.k.k.g.f.d.t.6.X.Y.[.(.9   - @ 1 C K.}.}.}.}.}.}.}.}.}.",
"}.}.}.}.}.}.}.}.[.> 6 ~.~.U.F...7.<.p.f.g.g.f.p.<.7...K.[.[.~.6 $ # H ^ _ ~ , J.}.}.}.}.}.}.}.}.",
"}.}.}.}.}.}.}.}.}.{.M + { (.~.Y.L.F.j...| | ..j.G.Y.)._.(.{ O V ].. C B K | X., J.}.}.}.}.}.}.}.",
"}.}.}.}.}.}.}.}.}.}.}.D.$ > { (././.^.^././.(.(.(.(.(.{ : $ D.}.}.+ 0 0 B B } X., J.}.}.}.}.}.}.",
"}.}.}.}.}.}.}.}.}.}.}.}.}. .> o 9 ~ A.I.~.~.I.A.! 9 X > } {.}.}.}.6 < q = 4 N } X., J.}.}.}.}.}.",
"}.}.}.}.}.}.}.}.}.}.}.}.}.}.{.~.( 9 * X     X * 0 ( ~.{.{.{.{.{.{.j.X 7 7 & 3 M } X., J.}.}.}.}.",
"}.}.}.}.}.}.}.}.}.}.}.{.{.{.{.{.{.{.{.[.[.[.[.[.[.[.[.[.[.[.[.[.{.{.A.X 7 7 & 3 M | X.; J.}.}.}.",
"}.}.}.}.}.}.}.}.}.}.{.{.{.{.{.{.[.[.[.[.[.[.[.[.[.[.[.[.[.[.[.[.[.[.[.A.X 7 7 & 2 M | ..; J.}.}.",
"}.}.}.}.}.}.}.}.}.{.{.{.{.{.{.[.[.[.[.[.[.[.[.(.(.(.(.(.(.(.[.[.[.[.[.[.A.X 7 7 & 2 M | ..; P.}.",
"}.}.}.}.}.}.}.}.}.{.{.{.{.{.{.[.[.[.[.[.[.[.[.[.(.(.(.(.(.(.(.(.(.[.[.[.[.8.X 8 8 & 3 M ..( M }.",
"}.}.}.}.}.}.}.}.}.}.}.{.{.{.{.{.{.{.[.[.[.[.[.[.[.[.[.[.(.(.(.(.(.(.(.[.[.[...X 8 8 & 4 _ K K }.",
"}.}.}.}.}.}.}.}.}.}.}.}.}.{.{.{.{.{.{.{.{.{.{.{.{.{.[.[.[.[.[.[.[.[.[.(.[.[.[.8.X 0 0 A J % (.}.",
"}.}.}.}.}.}.}.}.}.}.}.}.}.}.}.}.}.}.}.{.{.{.{.{.{.{.{.{.{.{.{.{.{.[.[.[.[.[.[.{.A.X 2 2 + J.}.}.",
"}.}.}.}.}.}.}.}.}.}.}.}.}.}.}.}.}.}.}.}.}.}.}.}.}.}.}.}.}.}.}.}.}.}.}.{.{.{.{.{.{.D.9 S ^.}.}.}.",
"}.}.}.}.}.}.}.}.}.}.}.}.}.}.}.}.}.}.}.}.}.}.}.}.}.}.}.}.}.}.}.}.}.}.}.}.}.}.}.}.}.}.}.}.}.}.}.}.",
"}.}.}.}.}.}.}.}.}.}.}.}.}.}.}.}.}.}.}.}.}.}.}.}.}.}.}.}.}.}.}.}.}.}.}.}.}.}.}.}.}.}.}.}.}.}.}.}."
};
