/* XPM */
static char *zoom_original[] = {
/* columns rows colors chars-per-pixel */
"48 48 186 2",
"   c #CD82C788C6DF",
".  c #C56DC175C175",
"X  c #C31BBDC0BCC8",
"o  c #BF10BA7CB9D7",
"O  c #B87BB419B421",
"+  c #B610B1E0B245",
"@  c #B294AF9AB294",
"#  c #B2A9AE57AF8B",
"$  c #AEB0AA64AA19",
"%  c #A996A6BAA8A2",
"&  c #A767A567A948",
"*  c #A9DDA56FA4DE",
"=  c #A5C9A1F0A46B",
"-  c #A2559EFAA15F",
";  c #9EB29C93A104",
":  c #A4F0A1149E2F",
">  c #A1F29D919C34",
",  c #9D6F9A999CFC",
"<  c #981F963B981F",
"1  c #97A095BD99E0",
"2  c #9485919C944D",
"3  c #913B8F39933D",
"4  c #8F8F8DA49124",
"5  c #91A28DA08F3C",
"6  c #8C5A89F58BB2",
"7  c #892787048B40",
"8  c #86F284B08937",
"9  c #89DD85DD8628",
"0  c #853D82C485D0",
"q  c #81817F7F8484",
"w  c #C9829CDF6091",
"e  c #C2FE9B2D61B4",
"r  c #C8FB9BE05EF1",
"t  c #C8139B835EC3",
"y  c #BF64997D61E8",
"u  c #BC189667607E",
"i  c #BB9C956E5F4E",
"p  c #B65191DB5C19",
"a  c #A2FD80944DDF",
"s  c #813F7E5B7ED7",
"d  c #977C780B4E20",
"f  c #8F4473C14A01",
"g  c #9191653129C3",
"h  c #8E1B62702A46",
"j  c #8796617E2D32",
"k  c #8EE861BB2640",
"l  c #82D75D2A2FF4",
"z  c #8B515D7C222E",
"x  c #844259A2225A",
"c  c #803456212429",
"v  c #8900599D1E40",
"b  c #869758931DB6",
"n  c #842454B21AAC",
"m  c #8274514B1692",
"M  c #808B4F0713F0",
"N  c #7C4B79E27C43",
"B  c #790376BD79AE",
"V  c #762773AD7823",
"C  c #7961763675E9",
"Z  c #748D724B75C8",
"A  c #721E6ED2721E",
"S  c #6F8D6D81715A",
"D  c #71F16E1A6D69",
"F  c #71B069D76524",
"G  c #6DE96A4C6B31",
"H  c #6AA066B068FC",
"J  c #669065046931",
"K  c #63DC6140644A",
"L  c #61EB5F1A626F",
"P  c #5E105B966089",
"I  c #712F65DE5B01",
"U  c #6C0C63A55D1C",
"Y  c #73F661C34C2E",
"T  c #68FD5EC55844",
"R  c #60D75B675FDA",
"E  c #6BA85E5052BF",
"W  c #60C7583D5564",
"Q  c #648857114C4C",
"!  c #68B656244172",
"~  c #5C4E59D05C4C",
"^  c #5959555E5A39",
"/  c #56D753D459D9",
"(  c #57F253FE56F5",
")  c #5412519A54B6",
"_  c #521A4E2351C8",
"`  c #4E4E4B4B51D1",
"'  c #5F9255444FA5",
"]  c #56B34E204C38",
"[  c #59884C804404",
"{  c #515148B547C0",
"}  c #4BFD49F44B0E",
"|  c #498245BF4AA0",
" . c #459B42C2491E",
".. c #49FB43DB42E0",
"X. c #4454419944EE",
"o. c #42143E3044A4",
"O. c #3DF23AF04127",
"+. c #72965A6C3A76",
"@. c #726256F639F9",
"#. c #653051903D15",
"$. c #6F51584934F9",
"%. c #6E7953EF3150",
"&. c #61CB4D623B87",
"*. c #66144F223045",
"=. c #7057538A2C50",
"-. c #7F5258582460",
";. c #7E2655D72313",
":. c #6CF451C92B27",
">. c #6D9850512667",
",. c #6AF04EF82959",
"<. c #65784B6C2C52",
"1. c #608A4343285B",
"2. c #6A554DA424AE",
"3. c #654E49C3227B",
"4. c #6100465421C8",
"5. c #58AC455B3830",
"6. c #517D445D3ADB",
"7. c #5609447A366E",
"8. c #4CFA40D83C2F",
"9. c #411A402E3F42",
"0. c #5E7145072101",
"q. c #7CF851AD1AFA",
"w. c #7EB5505A16DF",
"e. c #7ADA4E9C18B2",
"r. c #74CE4BF11C9B",
"t. c #7DD14C3912B7",
"y. c #71C3481815D3",
"u. c #74F446B21433",
"i. c #697649651DEE",
"p. c #692B463B1982",
"a. c #6231457E1DEF",
"s. c #6C40433C14F8",
"d. c #662F42F21741",
"f. c #7CDA492C0E5D",
"g. c #7A2F45750AE3",
"h. c #7616429208B1",
"j. c #76C340C10639",
"k. c #5C2C41F71D05",
"l. c #40E23C413D8F",
"z. c #458D37422340",
"x. c #746D3DDF039D",
"c. c #59D43E9A19E8",
"v. c #551C3BE519BA",
"b. c #595E3C3116D2",
"n. c #5432399915F9",
"m. c #5152369B1470",
"M. c #4F21386816B8",
"N. c #4C3D33DD13C3",
"B. c #485E2EEB10B3",
"V. c #46252E9A107F",
"C. c #4A0E30540ED0",
"Z. c #441B2CC80EBF",
"A. c #3CF33B2D3C9F",
"S. c #368C33893939",
"D. c #382935A8359D",
"F. c #357F337C35F8",
"G. c #307F2E403280",
"H. c #2E842B8131DC",
"J. c #2D272BAB2DA7",
"K. c #29FF265D2CF2",
"L. c #2545222228C9",
"P. c #2828272C272C",
"I. c #23D622DA2545",
"U. c #20FC1DF92424",
"Y. c #1E3E1C5F211F",
"T. c #38ED2C981C77",
"R. c #209F1AEB13F4",
"E. c #21CB168709BE",
"W. c #2022145006AB",
"Q. c #1A7819BB1C26",
"!. c #181817171B1B",
"~. c #16A915A818F4",
"^. c #1E72181A1214",
"/. c #1D8916DE1126",
"(. c #129412361395",
"). c #10100F0F1212",
"_. c #0ECF0E8E10D1",
"`. c #1AA614720D30",
"'. c #16AD10F209C9",
"]. c #1DD111FA0450",
"[. c #11160F0A0F0A",
"{. c #18420EEE04AA",
"}. c #12670CD404AB",
"|. c #0B400B2C0B60",
" X c #060606060808",
".X c #007E007E007E",
/* pixels */
".X.X.X.X.X.X.X.X.X.X.X.X.X.X.X.X.X.X.X.X.X.X.X.X.X.X.X.X.X.X.X.X.X.X.X.X.X.X.X.X.X.X.X.X.X.X.X.X",
".X.X.X.X.X.X.X.X.X.X.X.X.X.X.X.X.X.X.X.X.X.X.X.X.X.X.X.X.X.X.X.X.X.X.X.X.X.X.X.X.X.X.X.X.X.X.X.X",
".X.X.X.X.X.X.X.X.X.X.X.X.X.X.X~.X.S 6 ; & & ; 6 S X.~..X.X.X.X.X.X.X.X.X.X.X.X.X.X.X.X.X.X.X.X.X",
".X.X.X.X.X.X.X.X.X.X.X.X.XA.8 , Z } H.!._._.Q.G.} Z , 8 A..X.X.X.X.X.X.X.X.X.X.X.X.X.X.X.X.X.X.X",
".X.X.X.X.X.X.X.X.X.X.XJ.2 8 O.|.(.Y.L.K.K.K.K.L.Y.!.(.X.6 2 J..X.X.X.X.X.X.X.X.X.X.X.X.X.X.X.X.X",
".X.X.X.X.X.X.X.X.X XJ 1 A.|.Y.K.O.^ H A V V A H ^ O.K.Y.(.X., H  X.X.X.X.X.X.X.X.X.X.X.X.X.X.X.X",
".X.X.X.X.X.X.X.X|.7 V |.Q.H.) Z F Y +.=.=.=.=.+.Y F Z _ K.Y.Q.N 6 |..X.X.X.X.X.X.X.X.X.X.X.X.X.X",
".X.X.X.X.X.X.X|.4 P  XL.| A I %.>.2.2.2.2.2.>.2.>.>.=.I G o.U.(.J 2 |..X.X.X.X.X.X.X.X.X.X.X.X.X",
".X.X.X.X.X.X X7 ~ |.K.^ D $.>.3.3.3.3.3.3.2.2.2.2.2.>.>.$.H _ U.~.K 6  X.X.X.X.X.X.X.X.X.X.X.X.X",
".X.X.X.X.X.XK Z |.K.L F :.2.3.4.4.4.3.4.4.3.3.3.2.2.2.2.>.:.U ^ U.(.B K .X.X.X.X.X.X.X.X.X.X.X.X",
".X.X.X.X.XP.2 |.L.) U 2.3.4.4.0.0.0.0.0.0.4.4.3.3.3.2.2.2.2.>.T | Y.!.< I..X.X.X.X.X.X.X.X.X.X.X",
".X.X.X.X.X6 F.Y.o.G ,.3.4.0.0.k.k.k.k.p e e e e 4.3.3.3.2.2.2.:.K S.Q.A.5 .X.X.X.X.X.X.X.X.X.X.X",
".X.X.X.XF.0 |.H.H %.3.0.k.k.k.v.v.v.:.f {.}.}.e k.4.4.3.3.3.2.2.:.R Y.(.9 D..X.X.X.X.X.X.X.X.X.X",
".X.X.X.X0 A.Y.} E 2.k.k.c.v.v.v.v.4.a T.`.R.{.y k.k.k.a.a.3.3.2.2.Q A.!.X.9 .X.X.X.X.X.X.X.X.X.X",
".X.X.X(.- |.K.H ,.a.k.c.v.v.m.p u d z.'.^.R.}.y v.c.k.k.a.a.3.3.2.,.P Q.(.* (..X.X.X.X.X.X.X.X.X",
".X.X.X| V (.O.U 3.k.c.v.n.M.M.u }.}.'./.^.R.}.y v.v.c.k.k.k.a.a.3.3.W K.(.B } .X.X.X.X.X.X.X.X.X",
".X.X.XV _ Y._ ! a.c.v.v.m.N.N.i }.}.}.}././.}.u m.n.b.c.c.k.k.a.a.3.#.X.~.) C .X.X.X.X.X.X.X.X.X",
".X.X.X2 G.L.R *.k.c.v.n.M.N.N.u u u u }.`.`.}.u M.m.n.b.b.c.k.a.a.a.<._ ~.F., .X.X.X.X.X.X.X.X.X",
".X.X.X$ !.K.L 3.k.v.n.m.N.N.N.N.V.V.i }.`.`.}.i N.m.m.n.b.c.c.i.-.h j ^ ~.I.# .X.X.X.X.X.X.X.X.X",
".X.X.XO (.K.J a.c.v.n.m.N.N.B.V.V.Z.i }.`.`.}.i N.N.m.n.b.p.c k k g g ^ (.~.o .X.X.X.X.X.X.X.X.X",
".X.X.XO (.K.K k.a.;.x q.p.b.N.V.Z.Z.i }.'.'.}.i C.n.d.e.x z z z k k g / (.~.o .X.X.X.X.X.X.X.X.X",
".X.X.X# Q.K.~ 0.c x x n q.q.q.e.y.s.e {.`.`.].w n n b b v v z z z k h ) (.Y.+ .X.X.X.X.X.X.X.X.X",
".X.X.X< F.L.( <.z x b n n q.w.e.e.t.w ].E.E.].w m n n n b v v z z z l } (.F., .X.X.X.X.X.X.X.X.X",
".X.X.XN ( U.| #.z b b n n w.e.e.t.t.w ].E.W.].w m m m n n b v v z z @.D.(.) N .X.X.X.X.X.X.X.X.X",
".X.X.X} N !.S.' z b n n m w.e.t.t.t.w ].W.W.].w M M m m m n b v v z [ Q.(.s } .X.X.X.X.X.X.X.X.X",
".X.X.X(.$ (.K.( x b n n m e.t.t.t.t.t ].].].].r t.t.M m m m n b v x } _.(.# (..X.X.X.X.X.X.X.X.X",
".X.X.X.X5  .U.A.! b n n m t.t.t.t.f.r ].].].].r f.t.t.M m m n n b &.P.|.X.2 .X.X.X.X.X.X.X.X.X.X",
".X.X.X.XD.2 ~.K._ c n m m M t.t.f.f.r t t t t r f.f.t.t.M m m n ;...|.(.2 A..X.X.X.X.X.X.X.X.X.X",
".X.X.X.X.X, o.Y.S.] n m M t.t.f.f.g.g.h.j.j.h.g.g.f.f.t.t.M m n ..Q.|.A.> .X.X.X.X.X.X.X.X.X.X.X",
".X.X.X.X.XP.= Q.L.O.[ m M t.t.f.g.g.h.j.x.x.j.h.g.g.f.t.t.M m 6.P. X~.* P..X.X.X.X.X.X.X.X.X.X.X",
".X.X.X.X.X.XG 0 ~.L.X.[ e.t.f.f.g.h.j.x.x.x.x.j.h.g.f.f.t.t.6.F. X(.s G .X.X.X.X.X.X.X.X.X.X.X.X",
".X.X.X.X.X.X X, G ~.L.A.{ r.f.f.g.h.j.x.x.x.x.j.h.g.f.f.r...J.|.~.0 * |..X.X.X.X.X.X.X.X.X.X.X.X",
".X.X.X.X.X.X.X|.* D (.U.G. .5.u.g.h.j.x.x.x.x.j.h.g.u.7.o.Y.|.(.9   - @ 1 Z K..X.X.X.X.X.X.X.X.X",
".X.X.X.X.X.X.X.X|.> 6 Q.Q.U.F.X.8.1.s.h.j.j.h.s.1.8.X.K.|.|.Q.6 $ # J / ` ^ , J..X.X.X.X.X.X.X.X",
".X.X.X.X.X.X.X.X.X XN + } (.Q.Y.L.F.l.X. . .X.l.G.Y.)._.(.} O C [.. Z V L  .o., J..X.X.X.X.X.X.X",
".X.X.X.X.X.X.X.X.X.X.XD.$ > } (.~.~.!.!.~.~.(.(.(.(.(.} : $ D..X.X+ 0 0 V V | o., J..X.X.X.X.X.X",
".X.X.X.X.X.X.X.X.X.X.X.X.X..> o 9 ^ A.I.Q.Q.I.A.~ 9 X > |  X.X.X.X6 < q = 4 B | o., J..X.X.X.X.X",
".X.X.X.X.X.X.X.X.X.X.X.X.X.X XQ.) 9 * X     X * 0 ) Q. X X X X X Xl.X 7 7 & 3 N | o., J..X.X.X.X",
".X.X.X.X.X.X.X.X.X.X.X X X X X X X X X|.|.|.|.|.|.|.|.|.|.|.|.|. X XA.X 7 7 & 3 N  .o.; J..X.X.X",
".X.X.X.X.X.X.X.X.X.X X X X X X X|.|.|.|.|.|.|.|.|.|.|.|.|.|.|.|.|.|.|.A.X 7 7 & 2 N  .X.; J..X.X",
".X.X.X.X.X.X.X.X.X X X X X X X|.|.|.|.|.|.|.|.(.(.(.(.(.(.(.|.|.|.|.|.|.A.X 7 7 & 2 N  .X.; P..X",
".X.X.X.X.X.X.X.X.X X X X X X X|.|.|.|.|.|.|.|.|.(.(.(.(.(.(.(.(.(.|.|.|.|.9.X 8 8 & 3 N X.) N .X",
".X.X.X.X.X.X.X.X.X.X.X X X X X X X X|.|.|.|.|.|.|.|.|.|.(.(.(.(.(.(.(.|.|.|.X.X 8 8 & 4 ` L L .X",
".X.X.X.X.X.X.X.X.X.X.X.X.X X X X X X X X X X X X X X|.|.|.|.|.|.|.|.|.(.|.|.|.9.X 0 0 S K % (..X",
".X.X.X.X.X.X.X.X.X.X.X.X.X.X.X.X.X.X.X X X X X X X X X X X X X X X|.|.|.|.|.|. XA.X 2 2 + J..X.X",
".X.X.X.X.X.X.X.X.X.X.X.X.X.X.X.X.X.X.X.X.X.X.X.X.X.X.X.X.X.X.X.X.X.X.X X X X X X XD.9 D !..X.X.X",
".X.X.X.X.X.X.X.X.X.X.X.X.X.X.X.X.X.X.X.X.X.X.X.X.X.X.X.X.X.X.X.X.X.X.X.X.X.X.X.X.X.X.X.X.X.X.X.X",
".X.X.X.X.X.X.X.X.X.X.X.X.X.X.X.X.X.X.X.X.X.X.X.X.X.X.X.X.X.X.X.X.X.X.X.X.X.X.X.X.X.X.X.X.X.X.X.X"
};
