/* XPM */
static char *zoom_out[] = {
/* columns rows colors chars-per-pixel */
"48 48 169 2",
"   c #CD82C788C6DF",
".  c #C56DC175C175",
"X  c #C31BBDC0BCC8",
"o  c #BF10BA7CB9D7",
"O  c #B87BB419B421",
"+  c #B610B1E0B245",
"@  c #B294AF9AB294",
"#  c #B2A9AE57AF8B",
"$  c #AEB0AA64AA19",
"%  c #A996A6BAA8A2",
"&  c #A767A567A948",
"*  c #A9DDA56FA4DE",
"=  c #A5C9A1F0A46B",
"-  c #A2559EFAA15F",
";  c #9EB29C93A104",
":  c #A4F0A1149E2F",
">  c #A1F29D919C34",
",  c #9D6F9A999CFC",
"<  c #981F963B981F",
"1  c #97A095BD99E0",
"2  c #9485919C944D",
"3  c #913B8F39933D",
"4  c #8F8F8DA49124",
"5  c #91A28DA08F3C",
"6  c #8C5A89F58BB2",
"7  c #892787048B40",
"8  c #86F284B08937",
"9  c #89DD85DD8628",
"0  c #853D82C485D0",
"q  c #81817F7F8484",
"w  c #B9E1895F4B8C",
"e  c #B796881749FB",
"r  c #B4E1861E4B2A",
"t  c #AD0982274A59",
"y  c #813F7E5B7ED7",
"u  c #9191653129C3",
"i  c #8E1B62702A46",
"p  c #8796617E2D32",
"a  c #8EE861BB2640",
"s  c #82D75D2A2FF4",
"d  c #8B4A5D942241",
"f  c #845759B42291",
"g  c #804656B42316",
"h  c #8909598C1E51",
"j  c #866F58951DD8",
"k  c #841354B21AC0",
"l  c #82755139168B",
"z  c #808A4F1013F2",
"x  c #7C4B79E27C43",
"c  c #790376BD79AE",
"v  c #762773AD7823",
"b  c #7961763675E9",
"n  c #748D724B75C8",
"m  c #721E6ED2721E",
"M  c #6F8D6D81715A",
"N  c #71F16E1A6D69",
"B  c #71B069D76524",
"V  c #6DE96A4C6B31",
"C  c #6AA066B068FC",
"Z  c #669065046931",
"A  c #63DC6140644A",
"S  c #61EB5F1A626F",
"D  c #5E105B966089",
"F  c #712F65DE5B01",
"G  c #6C0C63A55D1C",
"H  c #73F661C34C2E",
"J  c #68FD5EC55844",
"K  c #60D75B675FDA",
"L  c #6BA85E5052BF",
"P  c #60C7583D5564",
"I  c #648857114C4C",
"U  c #68B656244172",
"Y  c #5C4E59D05C4C",
"T  c #5959555E5A39",
"R  c #56D753D459D9",
"E  c #57F253FE56F5",
"W  c #5412519A54B6",
"Q  c #521A4E2351C8",
"!  c #4E4E4B4B51D1",
"~  c #5F9255444FA5",
"^  c #56B34E204C38",
"/  c #59884C804404",
"(  c #515148B547C0",
")  c #4BFD49F44B0E",
"_  c #498245BF4AA0",
"`  c #459B42C2491E",
"'  c #49FB43DB42E0",
"]  c #4454419944EE",
"[  c #42143E3044A4",
"{  c #3DF23AF04127",
"}  c #72965A6C3A76",
"|  c #726256F639F9",
" . c #653051903D15",
".. c #6F51584934F9",
"X. c #6E7953EF3150",
"o. c #61CB4D623B87",
"O. c #66144F223045",
"+. c #7057538A2C50",
"@. c #7F5258582460",
"#. c #7E89561B232E",
"$. c #6D5C51DB2B73",
"%. c #6DD2506F2649",
"&. c #6AF04EF82959",
"*. c #65784B6C2C52",
"=. c #608A4343285B",
"-. c #6A594DE424AF",
";. c #650D49BC2266",
":. c #60DE46762172",
">. c #58AC455B3830",
",. c #517D445D3ADB",
"<. c #5609447A366E",
"1. c #4CFA40D83C2F",
"2. c #411A402E3F42",
"3. c #5E9D44D22111",
"4. c #7BF351361B40",
"5. c #7EB5505A16DF",
"6. c #7D314F7F17C9",
"7. c #74CE4BF11C9B",
"8. c #7DAB4C1A1280",
"9. c #74F446B21433",
"0. c #697649651DEE",
"q. c #624A457E1E08",
"w. c #6DA142991585",
"e. c #7C8948F60E76",
"r. c #7A2D45960B02",
"t. c #7616429208B1",
"y. c #76C340C10639",
"u. c #5C4341FA1D49",
"i. c #40E23C413D8F",
"p. c #746D3DDF039D",
"a. c #59DB3EAF1AB5",
"s. c #54A23BA619A2",
"d. c #50B236D71849",
"f. c #532A398A16AF",
"g. c #50EA375315F9",
"h. c #4DF3371E1869",
"j. c #4F2138681654",
"k. c #4C4B34831510",
"l. c #3CF33B2D3C9F",
"z. c #368C33893939",
"x. c #382935A8359D",
"c. c #357F337C35F8",
"v. c #307F2E403280",
"b. c #2E842B8131DC",
"n. c #2D272BAB2DA7",
"m. c #29FF265D2CF2",
"M. c #2545222228C9",
"N. c #2828272C272C",
"B. c #23D622DA2545",
"V. c #20FC1DF92424",
"C. c #1E3E1C5F211F",
"Z. c #24D91AB70FA9",
"A. c #219718420EEE",
"S. c #2048155F082F",
"D. c #2022149D06F9",
"F. c #1A7819BB1C26",
"G. c #181817171B1B",
"H. c #16A915A818F4",
"J. c #19D4150C1043",
"K. c #129412361395",
"L. c #10100F0F1212",
"P. c #0ECF0E8E10D1",
"I. c #19C513A20DBA",
"U. c #1B4811990561",
"Y. c #11160F0A0F0A",
"T. c #125E0C900441",
"R. c #0B400B2C0B60",
"E. c #060606060808",
"W. c #007E007E007E",
/* pixels */
"W.W.W.W.W.W.W.W.W.W.W.W.W.W.W.W.W.W.W.W.W.W.W.W.W.W.W.W.W.W.W.W.W.W.W.W.W.W.W.W.W.W.W.W.W.W.W.W.",
"W.W.W.W.W.W.W.W.W.W.W.W.W.W.W.W.W.W.W.W.W.W.W.W.W.W.W.W.W.W.W.W.W.W.W.W.W.W.W.W.W.W.W.W.W.W.W.W.",
"W.W.W.W.W.W.W.W.W.W.W.W.W.W.W.H.] M 6 ; & & ; 6 M ] H.W.W.W.W.W.W.W.W.W.W.W.W.W.W.W.W.W.W.W.W.W.",
"W.W.W.W.W.W.W.W.W.W.W.W.W.l.8 , n ) b.G.P.P.F.v.) n , 8 l.W.W.W.W.W.W.W.W.W.W.W.W.W.W.W.W.W.W.W.",
"W.W.W.W.W.W.W.W.W.W.W.n.2 8 { R.K.C.M.m.m.m.m.M.C.G.K.] 6 2 n.W.W.W.W.W.W.W.W.W.W.W.W.W.W.W.W.W.",
"W.W.W.W.W.W.W.W.W.E.Z 1 l.R.C.m.{ T C m v v m C T { m.C.K.] , C E.W.W.W.W.W.W.W.W.W.W.W.W.W.W.W.",
"W.W.W.W.W.W.W.W.R.7 v R.F.b.W n B H } +.+.+.+.} H B n Q m.C.F.x 6 R.W.W.W.W.W.W.W.W.W.W.W.W.W.W.",
"W.W.W.W.W.W.W.R.4 D E.M._ m F X.%.-.-.-.-.-.-.%.%.%.+.F V [ V.K.Z 2 R.W.W.W.W.W.W.W.W.W.W.W.W.W.",
"W.W.W.W.W.W.E.7 Y R.m.T N ..-.-.;.;.;.;.;.;.-.-.-.-.%.%...C Q V.H.A 6 E.W.W.W.W.W.W.W.W.W.W.W.W.",
"W.W.W.W.W.W.A n R.m.S B $.;.;.:.:.:.;.:.:.;.;.;.-.-.-.-.%.$.G T V.K.c A W.W.W.W.W.W.W.W.W.W.W.W.",
"W.W.W.W.W.N.2 R.M.W G -.;.:.:.3.3.3.3.3.:.:.:.;.;.;.-.-.-.-.%.J _ C.G.< B.W.W.W.W.W.W.W.W.W.W.W.",
"W.W.W.W.W.6 c.C.[ V &.;.:.u.u.u.u.u.u.u.u.u.u.:.:.;.;.;.-.-.-.$.A z.F.l.5 W.W.W.W.W.W.W.W.W.W.W.",
"W.W.W.W.c.0 R.b.C X.;.3.u.u.u.a.a.s.s.a.a.u.u.u.u.q.:.;.;.;.-.-.$.K C.K.9 x.W.W.W.W.W.W.W.W.W.W.",
"W.W.W.W.0 l.C.) L ;.u.u.a.s.s.s.f.s.s.f.s.s.s.a.a.u.u.q.q.;.;.-.-.I l.G.] 9 W.W.W.W.W.W.W.W.W.W.",
"W.W.W.K.- R.m.C &.:.u.a.s.f.d.h.j.j.j.d.d.f.f.s.a.a.u.u.q.q.;.;.-.&.D F.K.* K.W.W.W.W.W.W.W.W.W.",
"W.W.W._ v K.{ G ;.u.a.s.s.d.h.k.k.k.k.k.j.j.g.g.s.s.a.u.u.u.q.q.;.;.P m.K.c ) W.W.W.W.W.W.W.W.W.",
"W.W.W.v Q C.Q U q.u.s.s.d.k.k.k.k.k.k.k.k.k.j.g.g.f.s.a.a.u.u.q.q.;. .] H.W b W.W.W.W.W.W.W.W.W.",
"W.W.W.2 v.M.K O.u.a.s.f.t t t t t t t t t t t t t t t t r t u.q.q.q.*.Q H.c., W.W.W.W.W.W.W.W.W.",
"W.W.W.$ G.m.S ;.u.s.f.g.t T.T.T.T.T.T.T.T.T.T.T.T.T.T.T.T.r a.0.@.i p T H.B.# W.W.W.W.W.W.W.W.W.",
"W.W.W.O K.m.Z q.a.f.f.k.t T.I.J.I.I.I.I.I.I.I.I.I.I.I.I.T.r g a a u u T K.H.o W.W.W.W.W.W.W.W.W.",
"W.W.W.O K.m.A u.q.#.f 4.r T.I.I.I.I.I.I.I.I.I.I.I.I.A.Z.S.w d d a a u R K.H.o W.W.W.W.W.W.W.W.W.",
"W.W.W.# F.m.Y 3.g f f k w U.U.U.U.U.U.U.U.U.U.U.U.D.D.D.S.w d d d a i W K.C.+ W.W.W.W.W.W.W.W.W.",
"W.W.W.< c.M.E *.d f j k w e e e e e e e e w e w w w w w w w h d d d s ) K.c., W.W.W.W.W.W.W.W.W.",
"W.W.W.x E V._  .d j j k k 5.6.6.8.8.8.8.8.8.8.z l l l k k j h h d d | x.K.W x W.W.W.W.W.W.W.W.W.",
"W.W.W.) x G.z.~ d j k k l 5.6.8.8.8.8.8.8.8.8.8.z z l l l k j h h d / F.K.y ) W.W.W.W.W.W.W.W.W.",
"W.W.W.K.$ K.m.E f j k k l 6.8.8.8.8.e.e.e.e.e.8.8.8.z l l l k j h f ) P.K.# K.W.W.W.W.W.W.W.W.W.",
"W.W.W.W.5 ` V.l.U j k k l 6.8.8.8.e.e.r.r.r.e.e.e.8.8.z l l k k j o.N.R.] 2 W.W.W.W.W.W.W.W.W.W.",
"W.W.W.W.x.2 H.m.Q g k l l z 8.8.e.e.r.r.r.r.r.r.e.e.8.8.z l l k #.' R.K.2 l.W.W.W.W.W.W.W.W.W.W.",
"W.W.W.W.W., [ C.z.^ k l z 8.8.e.e.r.r.t.y.y.t.r.r.e.e.8.8.z l k ' F.R.l.> W.W.W.W.W.W.W.W.W.W.W.",
"W.W.W.W.W.N.= F.M.{ / l z 8.8.e.r.r.t.y.p.p.y.t.r.r.e.8.8.z l ,.N.E.H.* N.W.W.W.W.W.W.W.W.W.W.W.",
"W.W.W.W.W.W.V 0 H.M.] / 6.8.e.e.r.t.y.p.p.p.p.y.t.r.e.e.8.6.,.c.E.K.y V W.W.W.W.W.W.W.W.W.W.W.W.",
"W.W.W.W.W.W.E., V H.M.l.( 7.e.e.r.t.y.p.p.p.p.y.t.r.e.e.7.' n.R.H.0 * R.W.W.W.W.W.W.W.W.W.W.W.W.",
"W.W.W.W.W.W.W.R.* N K.V.v.` >.9.r.t.y.p.p.p.p.y.t.r.9.<.[ C.R.K.9   - @ 1 n m.W.W.W.W.W.W.W.W.W.",
"W.W.W.W.W.W.W.W.R.> 6 F.F.V.c.] 1.=.w.t.y.y.t.w.=.1.] m.R.R.F.6 $ # Z R ! T , n.W.W.W.W.W.W.W.W.",
"W.W.W.W.W.W.W.W.W.E.x + ) K.F.C.M.c.i.] ` ` ] i.v.C.L.P.K.) O b Y.. n v S ` [ , n.W.W.W.W.W.W.W.",
"W.W.W.W.W.W.W.W.W.W.W.x.$ > ) K.H.H.G.G.H.H.K.K.K.K.K.) : $ x.W.W.+ 0 0 v v _ [ , n.W.W.W.W.W.W.",
"W.W.W.W.W.W.W.W.W.W.W.W.W.' > o 9 T l.B.F.F.B.l.Y 9 X > _ E.W.W.W.6 < q = 4 c _ [ , n.W.W.W.W.W.",
"W.W.W.W.W.W.W.W.W.W.W.W.W.W.E.F.W 9 * X     X * 0 W F.E.E.E.E.E.E.i.X 7 7 & 3 x _ [ , n.W.W.W.W.",
"W.W.W.W.W.W.W.W.W.W.W.E.E.E.E.E.E.E.E.R.R.R.R.R.R.R.R.R.R.R.R.R.E.E.l.X 7 7 & 3 x ` [ ; n.W.W.W.",
"W.W.W.W.W.W.W.W.W.W.E.E.E.E.E.E.R.R.R.R.R.R.R.R.R.R.R.R.R.R.R.R.R.R.R.l.X 7 7 & 2 x ` ] ; n.W.W.",
"W.W.W.W.W.W.W.W.W.E.E.E.E.E.E.R.R.R.R.R.R.R.R.K.K.K.K.K.K.K.R.R.R.R.R.R.l.X 7 7 & 2 x ` ] ; N.W.",
"W.W.W.W.W.W.W.W.W.E.E.E.E.E.E.R.R.R.R.R.R.R.R.R.K.K.K.K.K.K.K.K.K.R.R.R.R.2.X 8 8 & 3 x ] W x W.",
"W.W.W.W.W.W.W.W.W.W.W.E.E.E.E.E.E.E.R.R.R.R.R.R.R.R.R.R.K.K.K.K.K.K.K.R.R.R.] X 8 8 & 4 ! S S W.",
"W.W.W.W.W.W.W.W.W.W.W.W.W.E.E.E.E.E.E.E.E.E.E.E.E.E.R.R.R.R.R.R.R.R.R.K.R.R.R.2.X 0 0 M A % K.W.",
"W.W.W.W.W.W.W.W.W.W.W.W.W.W.W.W.W.W.W.E.E.E.E.E.E.E.E.E.E.E.E.E.E.R.R.R.R.R.R.E.l.X 2 2 + n.W.W.",
"W.W.W.W.W.W.W.W.W.W.W.W.W.W.W.W.W.W.W.W.W.W.W.W.W.W.W.W.W.W.W.W.W.W.W.E.E.E.E.E.E.x.9 N G.W.W.W.",
"W.W.W.W.W.W.W.W.W.W.W.W.W.W.W.W.W.W.W.W.W.W.W.W.W.W.W.W.W.W.W.W.W.W.W.W.W.W.W.W.W.W.W.W.W.W.W.W.",
"W.W.W.W.W.W.W.W.W.W.W.W.W.W.W.W.W.W.W.W.W.W.W.W.W.W.W.W.W.W.W.W.W.W.W.W.W.W.W.W.W.W.W.W.W.W.W.W."
};
